(G-CODE GENERATED BY FLATCAM v8.991 - www.flatcam.org - Version Date: 2019/12/27)

(Name: circular PCB-F_Cu.gbr_iso_cnc)
(Type: G-code from Geometry)
(Units: MM)

(Created on Monday, 05 June 2023 at 12:43)

(TOOL DIAMETER: 0.1 mm)
(Feedrate: 100.0 mm/min)
(Feedrate_Z: 60.0 mm/min)
(Feedrate rapids 1500.0 mm/min)

(Z_Cut: -0.1 mm)
(DepthPerCut: 0.05 mm <=>2 passes)
(Z_Move: 2.0 mm)
(Z Toolchange: 15.0 mm)
(X,Y Toolchange: 0.0000, 0.0000 mm)
(Z Start: None mm)
(Z End: 2.0 mm)
(Steps per circle: 64)
(Preprocessor Geometry: default)

(X range:    0.3950 ...   35.4895  mm)
(Y range:   -0.1473 ...   34.9473  mm)

(Spindle Speed: None RPM)
G21
G90
G94




G01 F100.00
G00 Z2.0000

M03
G00 X6.0844 Y6.4095
G01 F60.00
G01 Z-0.0500
G01 F100.00
G01 X6.0852 Y6.3460
G01 X6.0881 Y6.3083
G01 X6.0920 Y6.2925
G01 X6.0960 Y6.2859
G01 X6.1101 Y6.2759
G01 X6.1250 Y6.2853
G01 X6.1331 Y6.2945
G01 X6.1396 Y6.3125
G01 X6.1456 Y6.3610
G01 X6.1467 Y6.4502
G01 X6.1370 Y6.5075
G01 X6.1241 Y6.5312
G01 X6.1121 Y6.5377
G01 X6.1004 Y6.5358
G01 X6.0987 Y6.5345
G01 X6.0918 Y6.5172
G01 X6.0858 Y6.4679
G01 X6.0844 Y6.4095
G00 X6.0844 Y6.4095
G01 F60.00
G01 Z-0.1000
G01 F100.00
G01 X6.0852 Y6.3460
G01 X6.0881 Y6.3083
G01 X6.0920 Y6.2925
G01 X6.0960 Y6.2859
G01 X6.1101 Y6.2759
G01 X6.1250 Y6.2853
G01 X6.1331 Y6.2945
G01 X6.1396 Y6.3125
G01 X6.1456 Y6.3610
G01 X6.1467 Y6.4502
G01 X6.1370 Y6.5075
G01 X6.1241 Y6.5312
G01 X6.1121 Y6.5377
G01 X6.1004 Y6.5358
G01 X6.0987 Y6.5345
G01 X6.0918 Y6.5172
G01 X6.0858 Y6.4679
G01 X6.0844 Y6.4095
G00 Z2.0000
G00 X6.3928 Y6.5519
G01 F60.00
G01 Z-0.0500
G01 F100.00
G01 X6.3805 Y6.6010
G01 X6.3780 Y6.6088
G01 X6.3589 Y6.6486
G01 X6.3554 Y6.6548
G01 X6.3508 Y6.6609
G01 X6.2990 Y6.7201
G01 X6.2914 Y6.7268
G01 X6.2847 Y6.7309
G01 X6.2167 Y6.7667
G01 X6.2080 Y6.7704
G01 X6.1992 Y6.7725
G01 X6.1137 Y6.7850
G01 X6.1062 Y6.7853
G01 X6.0840 Y6.7846
G01 X6.0766 Y6.7839
G01 X6.0089 Y6.7699
G01 X6.0019 Y6.7680
G01 X5.9969 Y6.7659
G01 X5.9905 Y6.7624
G01 X5.9367 Y6.7281
G01 X5.9302 Y6.7232
G01 X5.9261 Y6.7193
G01 X5.8728 Y6.6554
G01 X5.8671 Y6.6469
G01 X5.8528 Y6.6217
G01 X5.8484 Y6.6117
G01 X5.8397 Y6.5850
G01 X5.8380 Y6.5782
G01 X5.8321 Y6.5342
G01 X5.8298 Y6.4809
G01 X5.8293 Y6.3890
G01 X5.8301 Y6.3172
G01 X5.8329 Y6.2669
G01 X5.8335 Y6.2611
G01 X5.8396 Y6.2241
G01 X5.8417 Y6.2169
G01 X5.8512 Y6.1910
G01 X5.8542 Y6.1843
G01 X5.8709 Y6.1560
G01 X5.8779 Y6.1461
G01 X5.9202 Y6.1010
G01 X5.9265 Y6.0959
G01 X5.9715 Y6.0643
G01 X5.9783 Y6.0606
G01 X6.0027 Y6.0499
G01 X6.0114 Y6.0473
G01 X6.0900 Y6.0311
G01 X6.0989 Y6.0300
G01 X6.1084 Y6.0305
G01 X6.1861 Y6.0410
G01 X6.1947 Y6.0428
G01 X6.2034 Y6.0463
G01 X6.2750 Y6.0821
G01 X6.2822 Y6.0865
G01 X6.2891 Y6.0923
G01 X6.3494 Y6.1521
G01 X6.3552 Y6.1589
G01 X6.3636 Y6.1720
G01 X6.3663 Y6.1776
G01 X6.3837 Y6.2262
G01 X6.3821 Y6.0870
G01 X6.3818 Y6.0031
G01 X6.3835 Y5.9403
G01 X6.3881 Y5.8948
G01 X6.3900 Y5.8864
G01 X6.3983 Y5.8603
G01 X6.4004 Y5.8552
G01 X6.4056 Y5.8466
G01 X6.4123 Y5.8390
G01 X6.4279 Y5.8255
G01 X6.4367 Y5.8199
G01 X6.4464 Y5.8160
G01 X6.4562 Y5.8141
G01 X6.4642 Y5.8139
G01 X6.4841 Y5.8149
G01 X6.4901 Y5.8158
G01 X6.4984 Y5.8184
G01 X6.5229 Y5.8280
G01 X6.5614 Y5.8465
G01 X6.5911 Y5.8633
G01 X6.5993 Y5.8697
G01 X6.6034 Y5.8740
G01 X6.6184 Y5.8931
G01 X6.6227 Y5.8996
G01 X6.6252 Y5.9043
G01 X6.6271 Y5.9093
G01 X6.6292 Y5.9173
G01 X6.6343 Y5.9460
G01 X6.6351 Y5.9528
G01 X6.6360 Y6.0042
G01 X6.6360 Y6.0377
G01 X6.6730 Y6.0378
G01 X6.7326 Y6.0404
G01 X6.7396 Y6.0415
G01 X6.7835 Y6.0514
G01 X6.7906 Y6.0536
G01 X6.7979 Y6.0569
G01 X6.8343 Y6.0769
G01 X6.8399 Y6.0805
G01 X6.8472 Y6.0861
G01 X6.8841 Y6.1191
G01 X6.8891 Y6.1243
G01 X6.8937 Y6.1304
G01 X6.9206 Y6.1722
G01 X6.9248 Y6.1812
G01 X6.9427 Y6.2387
G01 X6.9440 Y6.2458
G01 X6.9474 Y6.2742
G01 X6.9608 Y6.2171
G01 X6.9631 Y6.2096
G01 X6.9663 Y6.2029
G01 X7.0014 Y6.1398
G01 X7.0065 Y6.1321
G01 X7.0125 Y6.1258
G01 X7.0659 Y6.0774
G01 X7.0706 Y6.0736
G01 X7.0754 Y6.0703
G01 X7.0846 Y6.0655
G01 X7.1524 Y6.0371
G01 X7.1592 Y6.0347
G01 X7.1645 Y6.0336
G01 X7.1717 Y6.0328
G01 X7.2425 Y6.0303
G01 X7.2516 Y6.0308
G01 X7.2611 Y6.0329
G01 X7.3293 Y6.0545
G01 X7.3378 Y6.0580
G01 X7.3452 Y6.0625
G01 X7.4053 Y6.1066
G01 X7.4117 Y6.1121
G01 X7.4175 Y6.1189
G01 X7.4639 Y6.1837
G01 X7.4684 Y6.1911
G01 X7.4713 Y6.1976
G01 X7.4877 Y6.2407
G01 X7.5005 Y6.2920
G01 X7.4966 Y6.0695
G01 X7.4971 Y6.0637
G01 X7.4994 Y6.0537
G01 X7.5015 Y6.0483
G01 X7.5040 Y6.0435
G01 X7.5069 Y6.0390
G01 X7.5102 Y6.0348
G01 X7.5176 Y6.0277
G01 X7.5224 Y6.0244
G01 X7.5316 Y6.0198
G01 X7.5371 Y6.0179
G01 X7.5472 Y6.0162
G01 X7.5525 Y6.0160
G01 X7.5584 Y6.0164
G01 X7.5637 Y6.0173
G01 X7.5711 Y6.0196
G01 X7.6443 Y6.0475
G01 X7.6774 Y6.0635
G01 X7.6827 Y6.0668
G01 X7.6892 Y6.0722
G01 X7.7062 Y6.0887
G01 X7.7122 Y6.0955
G01 X7.7155 Y6.1005
G01 X7.7192 Y6.1081
G01 X7.7299 Y6.1354
G01 X7.7322 Y6.1445
G01 X7.7376 Y6.1914
G01 X7.7390 Y6.2501
G01 X7.7393 Y6.3975
G01 X7.7404 Y6.4585
G01 X7.7429 Y6.4969
G01 X7.7464 Y6.5157
G01 X7.7488 Y6.5213
G01 X7.7507 Y6.5237
G01 X7.7627 Y6.5320
G01 X7.7834 Y6.5352
G01 X7.8039 Y6.5270
G01 X7.8081 Y6.5047
G01 X7.8117 Y6.4633
G01 X7.8148 Y6.3997
G01 X7.8252 Y6.0682
G01 X7.8258 Y6.0628
G01 X7.8271 Y6.0571
G01 X7.8309 Y6.0475
G01 X7.8338 Y6.0424
G01 X7.8402 Y6.0344
G01 X7.8445 Y6.0303
G01 X7.8488 Y6.0270
G01 X7.8533 Y6.0242
G01 X7.8628 Y6.0201
G01 X7.8680 Y6.0186
G01 X7.8733 Y6.0177
G01 X7.8791 Y6.0173
G01 X7.8894 Y6.0181
G01 X7.8951 Y6.0194
G01 X7.9025 Y6.0221
G01 X8.0259 Y6.0774
G01 X8.0326 Y6.0810
G01 X8.0369 Y6.0840
G01 X8.0410 Y6.0875
G01 X8.0446 Y6.0912
G01 X8.0479 Y6.0953
G01 X8.0508 Y6.0998
G01 X8.0532 Y6.1044
G01 X8.0552 Y6.1093
G01 X8.0567 Y6.1143
G01 X8.0578 Y6.1200
G01 X8.0584 Y6.1276
G01 X8.0584 Y6.3469
G01 X8.0581 Y6.4072
G01 X8.0559 Y6.4906
G01 X8.0497 Y6.5590
G01 X8.0380 Y6.6111
G01 X8.0347 Y6.6199
G01 X8.0184 Y6.6542
G01 X8.0151 Y6.6602
G01 X8.0107 Y6.6660
G01 X7.9871 Y6.6940
G01 X7.9821 Y6.6992
G01 X7.9477 Y6.7277
G01 X7.9423 Y6.7316
G01 X7.8916 Y6.7609
G01 X7.8863 Y6.7634
G01 X7.8789 Y6.7657
G01 X7.8055 Y6.7833
G01 X7.7966 Y6.7847
G01 X7.7871 Y6.7845
G01 X7.7133 Y6.7769
G01 X7.7045 Y6.7752
G01 X7.6956 Y6.7720
G01 X7.6278 Y6.7401
G01 X7.6194 Y6.7352
G01 X7.6125 Y6.7294
G01 X7.5548 Y6.6721
G01 X7.5499 Y6.6658
G01 X7.5366 Y6.6457
G01 X7.5251 Y6.6226
G01 X7.5215 Y6.6130
G01 X7.5148 Y6.5884
G01 X7.5133 Y6.5811
G01 X7.5084 Y6.5445
G01 X7.5057 Y6.5021
G01 X7.5009 Y6.5495
G01 X7.4997 Y6.5566
G01 X7.4977 Y6.5632
G01 X7.4701 Y6.6368
G01 X7.4675 Y6.6420
G01 X7.4628 Y6.6489
G01 X7.4166 Y6.7068
G01 X7.4126 Y6.7108
G01 X7.4062 Y6.7159
G01 X7.3488 Y6.7545
G01 X7.3420 Y6.7584
G01 X7.3342 Y6.7614
G01 X7.2685 Y6.7809
G01 X7.2604 Y6.7827
G01 X7.2547 Y6.7832
G01 X7.1828 Y6.7816
G01 X7.1736 Y6.7806
G01 X7.1653 Y6.7783
G01 X7.0979 Y6.7538
G01 X7.0898 Y6.7501
G01 X7.0843 Y6.7466
G01 X7.0209 Y6.6955
G01 X7.0153 Y6.6903
G01 X7.0117 Y6.6860
G01 X6.9763 Y6.6351
G01 X6.9724 Y6.6285
G01 X6.9696 Y6.6219
G01 X6.9488 Y6.5623
G01 X6.9462 Y6.5795
G01 X6.9445 Y6.5869
G01 X6.9333 Y6.6187
G01 X6.9296 Y6.6261
G01 X6.9138 Y6.6526
G01 X6.8989 Y6.6735
G01 X6.8938 Y6.6796
G01 X6.8449 Y6.7306
G01 X6.8380 Y6.7366
G01 X6.8328 Y6.7400
G01 X6.7731 Y6.7699
G01 X6.7655 Y6.7728
G01 X6.7566 Y6.7747
G01 X6.6869 Y6.7834
G01 X6.6776 Y6.7838
G01 X6.5944 Y6.7748
G01 X6.5860 Y6.7732
G01 X6.5776 Y6.7702
G01 X6.5087 Y6.7389
G01 X6.5018 Y6.7352
G01 X6.4977 Y6.7323
G01 X6.4923 Y6.7275
G01 X6.4360 Y6.6705
G01 X6.4269 Y6.6582
G01 X6.4152 Y6.6391
G01 X6.4124 Y6.6333
G01 X6.4041 Y6.6132
G01 X6.4022 Y6.6068
G01 X6.3962 Y6.5803
G01 X6.3928 Y6.5519
G00 X6.3928 Y6.5519
G01 F60.00
G01 Z-0.1000
G01 F100.00
G01 X6.3805 Y6.6010
G01 X6.3780 Y6.6088
G01 X6.3589 Y6.6486
G01 X6.3554 Y6.6548
G01 X6.3508 Y6.6609
G01 X6.2990 Y6.7201
G01 X6.2914 Y6.7268
G01 X6.2847 Y6.7309
G01 X6.2167 Y6.7667
G01 X6.2080 Y6.7704
G01 X6.1992 Y6.7725
G01 X6.1137 Y6.7850
G01 X6.1062 Y6.7853
G01 X6.0840 Y6.7846
G01 X6.0766 Y6.7839
G01 X6.0089 Y6.7699
G01 X6.0019 Y6.7680
G01 X5.9969 Y6.7659
G01 X5.9905 Y6.7624
G01 X5.9367 Y6.7281
G01 X5.9302 Y6.7232
G01 X5.9261 Y6.7193
G01 X5.8728 Y6.6554
G01 X5.8671 Y6.6469
G01 X5.8528 Y6.6217
G01 X5.8484 Y6.6117
G01 X5.8397 Y6.5850
G01 X5.8380 Y6.5782
G01 X5.8321 Y6.5342
G01 X5.8298 Y6.4809
G01 X5.8293 Y6.3890
G01 X5.8301 Y6.3172
G01 X5.8329 Y6.2669
G01 X5.8335 Y6.2611
G01 X5.8396 Y6.2241
G01 X5.8417 Y6.2169
G01 X5.8512 Y6.1910
G01 X5.8542 Y6.1843
G01 X5.8709 Y6.1560
G01 X5.8779 Y6.1461
G01 X5.9202 Y6.1010
G01 X5.9265 Y6.0959
G01 X5.9715 Y6.0643
G01 X5.9783 Y6.0606
G01 X6.0027 Y6.0499
G01 X6.0114 Y6.0473
G01 X6.0900 Y6.0311
G01 X6.0989 Y6.0300
G01 X6.1084 Y6.0305
G01 X6.1861 Y6.0410
G01 X6.1947 Y6.0428
G01 X6.2034 Y6.0463
G01 X6.2750 Y6.0821
G01 X6.2822 Y6.0865
G01 X6.2891 Y6.0923
G01 X6.3494 Y6.1521
G01 X6.3552 Y6.1589
G01 X6.3636 Y6.1720
G01 X6.3663 Y6.1776
G01 X6.3837 Y6.2262
G01 X6.3821 Y6.0870
G01 X6.3818 Y6.0031
G01 X6.3835 Y5.9403
G01 X6.3881 Y5.8948
G01 X6.3900 Y5.8864
G01 X6.3983 Y5.8603
G01 X6.4004 Y5.8552
G01 X6.4056 Y5.8466
G01 X6.4123 Y5.8390
G01 X6.4279 Y5.8255
G01 X6.4367 Y5.8199
G01 X6.4464 Y5.8160
G01 X6.4562 Y5.8141
G01 X6.4642 Y5.8139
G01 X6.4841 Y5.8149
G01 X6.4901 Y5.8158
G01 X6.4984 Y5.8184
G01 X6.5229 Y5.8280
G01 X6.5614 Y5.8465
G01 X6.5911 Y5.8633
G01 X6.5993 Y5.8697
G01 X6.6034 Y5.8740
G01 X6.6184 Y5.8931
G01 X6.6227 Y5.8996
G01 X6.6252 Y5.9043
G01 X6.6271 Y5.9093
G01 X6.6292 Y5.9173
G01 X6.6343 Y5.9460
G01 X6.6351 Y5.9528
G01 X6.6360 Y6.0042
G01 X6.6360 Y6.0377
G01 X6.6730 Y6.0378
G01 X6.7326 Y6.0404
G01 X6.7396 Y6.0415
G01 X6.7835 Y6.0514
G01 X6.7906 Y6.0536
G01 X6.7979 Y6.0569
G01 X6.8343 Y6.0769
G01 X6.8399 Y6.0805
G01 X6.8472 Y6.0861
G01 X6.8841 Y6.1191
G01 X6.8891 Y6.1243
G01 X6.8937 Y6.1304
G01 X6.9206 Y6.1722
G01 X6.9248 Y6.1812
G01 X6.9427 Y6.2387
G01 X6.9440 Y6.2458
G01 X6.9474 Y6.2742
G01 X6.9608 Y6.2171
G01 X6.9631 Y6.2096
G01 X6.9663 Y6.2029
G01 X7.0014 Y6.1398
G01 X7.0065 Y6.1321
G01 X7.0125 Y6.1258
G01 X7.0659 Y6.0774
G01 X7.0706 Y6.0736
G01 X7.0754 Y6.0703
G01 X7.0846 Y6.0655
G01 X7.1524 Y6.0371
G01 X7.1592 Y6.0347
G01 X7.1645 Y6.0336
G01 X7.1717 Y6.0328
G01 X7.2425 Y6.0303
G01 X7.2516 Y6.0308
G01 X7.2611 Y6.0329
G01 X7.3293 Y6.0545
G01 X7.3378 Y6.0580
G01 X7.3452 Y6.0625
G01 X7.4053 Y6.1066
G01 X7.4117 Y6.1121
G01 X7.4175 Y6.1189
G01 X7.4639 Y6.1837
G01 X7.4684 Y6.1911
G01 X7.4713 Y6.1976
G01 X7.4877 Y6.2407
G01 X7.5005 Y6.2920
G01 X7.4966 Y6.0695
G01 X7.4971 Y6.0637
G01 X7.4994 Y6.0537
G01 X7.5015 Y6.0483
G01 X7.5040 Y6.0435
G01 X7.5069 Y6.0390
G01 X7.5102 Y6.0348
G01 X7.5176 Y6.0277
G01 X7.5224 Y6.0244
G01 X7.5316 Y6.0198
G01 X7.5371 Y6.0179
G01 X7.5472 Y6.0162
G01 X7.5525 Y6.0160
G01 X7.5584 Y6.0164
G01 X7.5637 Y6.0173
G01 X7.5711 Y6.0196
G01 X7.6443 Y6.0475
G01 X7.6774 Y6.0635
G01 X7.6827 Y6.0668
G01 X7.6892 Y6.0722
G01 X7.7062 Y6.0887
G01 X7.7122 Y6.0955
G01 X7.7155 Y6.1005
G01 X7.7192 Y6.1081
G01 X7.7299 Y6.1354
G01 X7.7322 Y6.1445
G01 X7.7376 Y6.1914
G01 X7.7390 Y6.2501
G01 X7.7393 Y6.3975
G01 X7.7404 Y6.4585
G01 X7.7429 Y6.4969
G01 X7.7464 Y6.5157
G01 X7.7488 Y6.5213
G01 X7.7507 Y6.5237
G01 X7.7627 Y6.5320
G01 X7.7834 Y6.5352
G01 X7.8039 Y6.5270
G01 X7.8081 Y6.5047
G01 X7.8117 Y6.4633
G01 X7.8148 Y6.3997
G01 X7.8252 Y6.0682
G01 X7.8258 Y6.0628
G01 X7.8271 Y6.0571
G01 X7.8309 Y6.0475
G01 X7.8338 Y6.0424
G01 X7.8402 Y6.0344
G01 X7.8445 Y6.0303
G01 X7.8488 Y6.0270
G01 X7.8533 Y6.0242
G01 X7.8628 Y6.0201
G01 X7.8680 Y6.0186
G01 X7.8733 Y6.0177
G01 X7.8791 Y6.0173
G01 X7.8894 Y6.0181
G01 X7.8951 Y6.0194
G01 X7.9025 Y6.0221
G01 X8.0259 Y6.0774
G01 X8.0326 Y6.0810
G01 X8.0369 Y6.0840
G01 X8.0410 Y6.0875
G01 X8.0446 Y6.0912
G01 X8.0479 Y6.0953
G01 X8.0508 Y6.0998
G01 X8.0532 Y6.1044
G01 X8.0552 Y6.1093
G01 X8.0567 Y6.1143
G01 X8.0578 Y6.1200
G01 X8.0584 Y6.1276
G01 X8.0584 Y6.3469
G01 X8.0581 Y6.4072
G01 X8.0559 Y6.4906
G01 X8.0497 Y6.5590
G01 X8.0380 Y6.6111
G01 X8.0347 Y6.6199
G01 X8.0184 Y6.6542
G01 X8.0151 Y6.6602
G01 X8.0107 Y6.6660
G01 X7.9871 Y6.6940
G01 X7.9821 Y6.6992
G01 X7.9477 Y6.7277
G01 X7.9423 Y6.7316
G01 X7.8916 Y6.7609
G01 X7.8863 Y6.7634
G01 X7.8789 Y6.7657
G01 X7.8055 Y6.7833
G01 X7.7966 Y6.7847
G01 X7.7871 Y6.7845
G01 X7.7133 Y6.7769
G01 X7.7045 Y6.7752
G01 X7.6956 Y6.7720
G01 X7.6278 Y6.7401
G01 X7.6194 Y6.7352
G01 X7.6125 Y6.7294
G01 X7.5548 Y6.6721
G01 X7.5499 Y6.6658
G01 X7.5366 Y6.6457
G01 X7.5251 Y6.6226
G01 X7.5215 Y6.6130
G01 X7.5148 Y6.5884
G01 X7.5133 Y6.5811
G01 X7.5084 Y6.5445
G01 X7.5057 Y6.5021
G01 X7.5009 Y6.5495
G01 X7.4997 Y6.5566
G01 X7.4977 Y6.5632
G01 X7.4701 Y6.6368
G01 X7.4675 Y6.6420
G01 X7.4628 Y6.6489
G01 X7.4166 Y6.7068
G01 X7.4126 Y6.7108
G01 X7.4062 Y6.7159
G01 X7.3488 Y6.7545
G01 X7.3420 Y6.7584
G01 X7.3342 Y6.7614
G01 X7.2685 Y6.7809
G01 X7.2604 Y6.7827
G01 X7.2547 Y6.7832
G01 X7.1828 Y6.7816
G01 X7.1736 Y6.7806
G01 X7.1653 Y6.7783
G01 X7.0979 Y6.7538
G01 X7.0898 Y6.7501
G01 X7.0843 Y6.7466
G01 X7.0209 Y6.6955
G01 X7.0153 Y6.6903
G01 X7.0117 Y6.6860
G01 X6.9763 Y6.6351
G01 X6.9724 Y6.6285
G01 X6.9696 Y6.6219
G01 X6.9488 Y6.5623
G01 X6.9462 Y6.5795
G01 X6.9445 Y6.5869
G01 X6.9333 Y6.6187
G01 X6.9296 Y6.6261
G01 X6.9138 Y6.6526
G01 X6.8989 Y6.6735
G01 X6.8938 Y6.6796
G01 X6.8449 Y6.7306
G01 X6.8380 Y6.7366
G01 X6.8328 Y6.7400
G01 X6.7731 Y6.7699
G01 X6.7655 Y6.7728
G01 X6.7566 Y6.7747
G01 X6.6869 Y6.7834
G01 X6.6776 Y6.7838
G01 X6.5944 Y6.7748
G01 X6.5860 Y6.7732
G01 X6.5776 Y6.7702
G01 X6.5087 Y6.7389
G01 X6.5018 Y6.7352
G01 X6.4977 Y6.7323
G01 X6.4923 Y6.7275
G01 X6.4360 Y6.6705
G01 X6.4269 Y6.6582
G01 X6.4152 Y6.6391
G01 X6.4124 Y6.6333
G01 X6.4041 Y6.6132
G01 X6.4022 Y6.6068
G01 X6.3962 Y6.5803
G01 X6.3928 Y6.5519
G00 Z2.0000
G00 X6.6360 Y6.4112
G01 F60.00
G01 Z-0.0500
G01 F100.00
G01 X6.6367 Y6.3522
G01 X6.6396 Y6.3192
G01 X6.6434 Y6.3061
G01 X6.6501 Y6.2964
G01 X6.6534 Y6.2929
G01 X6.6750 Y6.2766
G01 X6.6873 Y6.2850
G01 X6.6915 Y6.2904
G01 X6.6953 Y6.3015
G01 X6.6988 Y6.3321
G01 X6.7001 Y6.3890
G01 X6.7001 Y6.4005
G01 X6.6970 Y6.4778
G01 X6.6886 Y6.5222
G01 X6.6813 Y6.5352
G01 X6.6762 Y6.5379
G01 X6.6585 Y6.5347
G01 X6.6524 Y6.5293
G01 X6.6430 Y6.5042
G01 X6.6366 Y6.4454
G01 X6.6360 Y6.4112
G00 X6.6360 Y6.4112
G01 F60.00
G01 Z-0.1000
G01 F100.00
G01 X6.6367 Y6.3522
G01 X6.6396 Y6.3192
G01 X6.6434 Y6.3061
G01 X6.6501 Y6.2964
G01 X6.6534 Y6.2929
G01 X6.6750 Y6.2766
G01 X6.6873 Y6.2850
G01 X6.6915 Y6.2904
G01 X6.6953 Y6.3015
G01 X6.6988 Y6.3321
G01 X6.7001 Y6.3890
G01 X6.7001 Y6.4005
G01 X6.6970 Y6.4778
G01 X6.6886 Y6.5222
G01 X6.6813 Y6.5352
G01 X6.6762 Y6.5379
G01 X6.6585 Y6.5347
G01 X6.6524 Y6.5293
G01 X6.6430 Y6.5042
G01 X6.6366 Y6.4454
G01 X6.6360 Y6.4112
G00 Z2.0000
G00 X7.2397 Y6.2854
G01 F60.00
G01 Z-0.0500
G01 F100.00
G01 X7.2172 Y6.2742
G01 X7.2177 Y6.2739
G01 X7.2313 Y6.2780
G01 X7.2397 Y6.2854
G00 X7.2397 Y6.2854
G01 F60.00
G01 Z-0.1000
G01 F100.00
G01 X7.2172 Y6.2742
G01 X7.2177 Y6.2739
G01 X7.2313 Y6.2780
G01 X7.2397 Y6.2854
G00 Z2.0000
G00 X7.5025 Y6.3998
G01 F60.00
G01 Z-0.0500
G01 F100.00
G01 X7.5030 Y6.4229
G01 X7.5040 Y6.4558
G01 X7.4976 Y6.4348
G01 X7.4935 Y6.4261
G01 X7.4899 Y6.4206
G01 X7.4994 Y6.4060
G01 X7.5025 Y6.3998
G00 X7.5025 Y6.3998
G01 F60.00
G01 Z-0.1000
G01 F100.00
G01 X7.5030 Y6.4229
G01 X7.5040 Y6.4558
G01 X7.4976 Y6.4348
G01 X7.4935 Y6.4261
G01 X7.4899 Y6.4206
G01 X7.4994 Y6.4060
G01 X7.5025 Y6.3998
G00 Z2.0000
G00 X8.8868 Y6.5406
G01 F60.00
G01 Z-0.0500
G01 F100.00
G01 X8.8798 Y6.5735
G01 X8.8774 Y6.5818
G01 X8.8579 Y6.6251
G01 X8.8543 Y6.6319
G01 X8.8500 Y6.6377
G01 X8.8214 Y6.6718
G01 X8.8149 Y6.6777
G01 X8.7763 Y6.7074
G01 X8.7695 Y6.7114
G01 X8.7342 Y6.7289
G01 X8.7258 Y6.7323
G01 X8.6633 Y6.7473
G01 X8.6540 Y6.7482
G01 X8.5984 Y6.7490
G01 X8.5901 Y6.7485
G01 X8.5840 Y6.7473
G01 X8.5808 Y6.7923
G01 X8.5733 Y6.9167
G01 X8.5724 Y6.9222
G01 X8.5709 Y6.9275
G01 X8.5689 Y6.9327
G01 X8.5664 Y6.9376
G01 X8.5635 Y6.9423
G01 X8.5601 Y6.9466
G01 X8.5562 Y6.9506
G01 X8.5520 Y6.9542
G01 X8.5474 Y6.9573
G01 X8.5426 Y6.9600
G01 X8.5380 Y6.9619
G01 X8.5327 Y6.9636
G01 X8.5273 Y6.9648
G01 X8.5213 Y6.9654
G01 X8.5158 Y6.9654
G01 X8.5103 Y6.9648
G01 X8.5049 Y6.9637
G01 X8.4973 Y6.9611
G01 X8.4029 Y6.9213
G01 X8.3955 Y6.9175
G01 X8.3911 Y6.9145
G01 X8.3870 Y6.9111
G01 X8.3832 Y6.9072
G01 X8.3799 Y6.9031
G01 X8.3769 Y6.8986
G01 X8.3744 Y6.8938
G01 X8.3724 Y6.8889
G01 X8.3709 Y6.8837
G01 X8.3698 Y6.8784
G01 X8.3693 Y6.8731
G01 X8.3693 Y6.4734
G01 X8.3700 Y6.2775
G01 X8.3718 Y6.1376
G01 X8.3733 Y6.0941
G01 X8.3750 Y6.0773
G01 X8.3760 Y6.0720
G01 X8.3776 Y6.0669
G01 X8.3797 Y6.0619
G01 X8.3849 Y6.0531
G01 X8.3883 Y6.0490
G01 X8.3920 Y6.0451
G01 X8.3961 Y6.0417
G01 X8.4010 Y6.0384
G01 X8.4102 Y6.0339
G01 X8.4158 Y6.0322
G01 X8.4210 Y6.0311
G01 X8.4313 Y6.0305
G01 X8.4375 Y6.0311
G01 X8.4449 Y6.0326
G01 X8.4640 Y6.0381
G01 X8.4976 Y6.0492
G01 X8.5440 Y6.0654
G01 X8.5510 Y6.0684
G01 X8.5598 Y6.0740
G01 X8.5641 Y6.0778
G01 X8.5709 Y6.0857
G01 X8.5758 Y6.0943
G01 X8.5778 Y6.0992
G01 X8.5794 Y6.1046
G01 X8.5804 Y6.1098
G01 X8.5809 Y6.1174
G01 X8.5812 Y6.4014
G01 X8.5825 Y6.4577
G01 X8.5852 Y6.4922
G01 X8.5886 Y6.5086
G01 X8.5916 Y6.5148
G01 X8.5978 Y6.5224
G01 X8.6240 Y6.5351
G01 X8.6477 Y6.5342
G01 X8.6763 Y6.5178
G01 X8.6798 Y6.5135
G01 X8.6820 Y6.5081
G01 X8.6851 Y6.4895
G01 X8.6874 Y6.4519
G01 X8.6884 Y6.3925
G01 X8.6887 Y6.2645
G01 X8.6893 Y6.1927
G01 X8.6905 Y6.1353
G01 X8.6920 Y6.0970
G01 X8.6941 Y6.0785
G01 X8.6958 Y6.0705
G01 X8.6974 Y6.0655
G01 X8.6996 Y6.0607
G01 X8.7022 Y6.0562
G01 X8.7052 Y6.0519
G01 X8.7120 Y6.0445
G01 X8.7165 Y6.0409
G01 X8.7209 Y6.0380
G01 X8.7255 Y6.0356
G01 X8.7350 Y6.0322
G01 X8.7401 Y6.0312
G01 X8.7454 Y6.0306
G01 X8.7535 Y6.0307
G01 X8.7615 Y6.0319
G01 X8.7844 Y6.0384
G01 X8.8173 Y6.0494
G01 X8.8655 Y6.0663
G01 X8.8707 Y6.0686
G01 X8.8795 Y6.0743
G01 X8.8867 Y6.0812
G01 X8.8927 Y6.0897
G01 X8.8971 Y6.0992
G01 X8.8987 Y6.1046
G01 X8.9001 Y6.1150
G01 X8.9002 Y6.1623
G01 X8.9186 Y6.1242
G01 X8.9216 Y6.1193
G01 X8.9251 Y6.1148
G01 X8.9313 Y6.1085
G01 X8.9822 Y6.0653
G01 X8.9885 Y6.0607
G01 X8.9974 Y6.0561
G01 X9.0363 Y6.0424
G01 X9.0447 Y6.0402
G01 X9.1016 Y6.0324
G01 X9.1082 Y6.0322
G01 X9.1608 Y6.0338
G01 X9.1660 Y6.0344
G01 X9.1727 Y6.0359
G01 X9.2087 Y6.0466
G01 X9.2175 Y6.0501
G01 X9.2236 Y6.0439
G01 X9.2277 Y6.0406
G01 X9.2321 Y6.0378
G01 X9.2372 Y6.0352
G01 X9.2421 Y6.0333
G01 X9.2519 Y6.0310
G01 X9.2575 Y6.0305
G01 X9.2661 Y6.0309
G01 X9.2729 Y6.0320
G01 X9.2775 Y6.0333
G01 X9.3017 Y6.0425
G01 X9.3364 Y6.0592
G01 X9.3798 Y6.0816
G01 X9.3819 Y6.0760
G01 X9.3895 Y6.0598
G01 X9.3950 Y6.0513
G01 X9.3988 Y6.0470
G01 X9.4065 Y6.0405
G01 X9.4114 Y6.0374
G01 X9.4206 Y6.0333
G01 X9.4257 Y6.0319
G01 X9.4309 Y6.0310
G01 X9.4367 Y6.0305
G01 X9.4468 Y6.0312
G01 X9.4709 Y6.0363
G01 X9.4767 Y6.0382
G01 X9.5090 Y6.0505
G01 X9.5226 Y6.0568
G01 X9.5281 Y6.0601
G01 X9.5425 Y6.0701
G01 X9.5465 Y6.0735
G01 X9.5505 Y6.0777
G01 X9.5558 Y6.0849
G01 X9.5653 Y6.1007
G01 X9.5680 Y6.1065
G01 X9.5706 Y6.1147
G01 X9.5766 Y6.1415
G01 X9.5806 Y6.1852
G01 X9.5829 Y6.2441
G01 X9.5876 Y6.4256
G01 X9.5902 Y6.4760
G01 X9.5936 Y6.5051
G01 X9.5966 Y6.5157
G01 X9.5979 Y6.5178
G01 X9.6011 Y6.5207
G01 X9.6248 Y6.5335
G01 X9.6499 Y6.5357
G01 X9.6699 Y6.5281
G01 X9.6830 Y6.5139
G01 X9.6903 Y6.4845
G01 X9.6906 Y6.4742
G01 X9.6917 Y6.4670
G01 X9.6990 Y6.4400
G01 X9.7017 Y6.4323
G01 X9.7042 Y6.4273
G01 X9.7072 Y6.4226
G01 X9.7107 Y6.4183
G01 X9.7146 Y6.4143
G01 X9.7193 Y6.4104
G01 X9.7239 Y6.4073
G01 X9.7288 Y6.4047
G01 X9.7340 Y6.4026
G01 X9.7394 Y6.4010
G01 X9.7640 Y6.3964
G01 X9.7740 Y6.3959
G01 X9.7839 Y6.3973
G01 X9.7909 Y6.3994
G01 X9.8290 Y6.4137
G01 X9.8439 Y6.4210
G01 X9.8502 Y6.4248
G01 X9.8545 Y6.4282
G01 X9.8582 Y6.4317
G01 X9.8662 Y6.4406
G01 X9.8643 Y6.3906
G01 X9.8655 Y6.3326
G01 X9.8740 Y6.2507
G01 X9.8761 Y6.2403
G01 X9.8939 Y6.1825
G01 X9.8967 Y6.1753
G01 X9.8995 Y6.1702
G01 X9.9303 Y6.1240
G01 X9.9353 Y6.1176
G01 X9.9408 Y6.1123
G01 X9.9842 Y6.0762
G01 X9.9916 Y6.0710
G01 X10.0358 Y6.0485
G01 X10.0437 Y6.0452
G01 X10.0516 Y6.0433
G01 X10.1235 Y6.0313
G01 X10.1326 Y6.0310
G01 X10.1399 Y6.0318
G01 X10.2092 Y6.0445
G01 X10.2178 Y6.0468
G01 X10.2264 Y6.0508
G01 X10.2914 Y6.0876
G01 X10.2968 Y6.0916
G01 X10.3033 Y6.0979
G01 X10.3542 Y6.1563
G01 X10.3577 Y6.1612
G01 X10.3649 Y6.1737
G01 X10.3723 Y6.1898
G01 X10.3723 Y6.1724
G01 X10.3729 Y6.1665
G01 X10.3740 Y6.1612
G01 X10.3756 Y6.1560
G01 X10.3776 Y6.1511
G01 X10.3802 Y6.1463
G01 X10.3832 Y6.1418
G01 X10.3884 Y6.1359
G01 X10.4451 Y6.0793
G01 X10.4496 Y6.0754
G01 X10.4787 Y6.0525
G01 X10.4861 Y6.0476
G01 X10.4913 Y6.0450
G01 X10.4993 Y6.0424
G01 X10.5286 Y6.0349
G01 X10.5371 Y6.0335
G01 X10.5463 Y6.0334
G01 X10.5900 Y6.0368
G01 X10.6096 Y6.0392
G01 X10.6536 Y6.0437
G01 X10.6820 Y6.0454
G01 X10.7244 Y6.0423
G01 X10.7883 Y6.0350
G01 X10.8314 Y6.0341
G01 X10.8370 Y6.0346
G01 X10.8431 Y6.0357
G01 X10.8509 Y6.0383
G01 X10.8812 Y6.0509
G01 X10.8871 Y6.0541
G01 X10.8943 Y6.0596
G01 X10.9272 Y6.0890
G01 X10.9758 Y6.1377
G01 X10.9796 Y6.1422
G01 X10.9849 Y6.1511
G01 X10.9871 Y6.1565
G01 X10.9887 Y6.1617
G01 X10.9981 Y6.1401
G01 X11.0006 Y6.1355
G01 X11.0038 Y6.1308
G01 X11.0088 Y6.1251
G01 X11.0569 Y6.0776
G01 X11.0612 Y6.0741
G01 X11.0658 Y6.0711
G01 X11.1051 Y6.0505
G01 X11.1123 Y6.0474
G01 X11.1179 Y6.0457
G01 X11.1921 Y6.0317
G01 X11.1955 Y6.0311
G01 X11.2048 Y6.0308
G01 X11.2447 Y6.0326
G01 X11.2532 Y6.0337
G01 X11.2957 Y6.0450
G01 X11.3014 Y6.0472
G01 X11.3065 Y6.0498
G01 X11.3114 Y6.0446
G01 X11.3156 Y6.0412
G01 X11.3205 Y6.0380
G01 X11.3253 Y6.0355
G01 X11.3304 Y6.0335
G01 X11.3404 Y6.0311
G01 X11.3463 Y6.0305
G01 X11.3517 Y6.0306
G01 X11.3619 Y6.0322
G01 X11.3814 Y6.0383
G01 X11.4132 Y6.0517
G01 X11.4541 Y6.0704
G01 X11.4625 Y6.0758
G01 X11.4675 Y6.0802
G01 X11.4687 Y6.0737
G01 X11.4701 Y6.0684
G01 X11.4721 Y6.0632
G01 X11.4746 Y6.0583
G01 X11.4773 Y6.0540
G01 X11.4807 Y6.0496
G01 X11.4849 Y6.0453
G01 X11.4888 Y6.0420
G01 X11.4933 Y6.0388
G01 X11.4982 Y6.0361
G01 X11.5032 Y6.0339
G01 X11.5090 Y6.0321
G01 X11.5140 Y6.0311
G01 X11.5195 Y6.0306
G01 X11.5250 Y6.0306
G01 X11.5305 Y6.0311
G01 X11.5360 Y6.0322
G01 X11.5533 Y6.0375
G01 X11.5911 Y6.0534
G01 X11.6104 Y6.0636
G01 X11.6150 Y6.0667
G01 X11.6197 Y6.0707
G01 X11.6344 Y6.0864
G01 X11.6377 Y6.0908
G01 X11.6408 Y6.0959
G01 X11.6444 Y6.1045
G01 X11.6514 Y6.1261
G01 X11.6530 Y6.1351
G01 X11.6565 Y6.1716
G01 X11.6577 Y6.2233
G01 X11.6583 Y6.3448
G01 X11.6621 Y6.4304
G01 X11.6701 Y6.4880
G01 X11.6805 Y6.5189
G01 X11.6888 Y6.5293
G01 X11.6986 Y6.5339
G01 X11.7302 Y6.5344
G01 X11.7488 Y6.5237
G01 X11.7692 Y6.4896
G01 X11.7858 Y6.4458
G01 X11.7924 Y6.4301
G01 X11.7961 Y6.4229
G01 X11.8023 Y6.4146
G01 X11.8100 Y6.4075
G01 X11.8189 Y6.4020
G01 X11.8282 Y6.3985
G01 X11.8385 Y6.3966
G01 X11.8442 Y6.3964
G01 X11.8518 Y6.3971
G01 X11.8673 Y6.3997
G01 X11.8763 Y6.4024
G01 X11.9044 Y6.4135
G01 X11.9133 Y6.4180
G01 X11.9440 Y6.4396
G01 X11.9487 Y6.4438
G01 X11.9523 Y6.4476
G01 X11.9557 Y6.4521
G01 X11.9544 Y6.3878
G01 X11.9547 Y6.3483
G01 X11.9583 Y6.2699
G01 X11.9590 Y6.2635
G01 X11.9683 Y6.2077
G01 X11.9689 Y6.2043
G01 X11.9717 Y6.1957
G01 X11.9888 Y6.1543
G01 X11.9926 Y6.1469
G01 X11.9972 Y6.1404
G01 X12.0264 Y6.1051
G01 X12.0329 Y6.0991
G01 X12.0738 Y6.0674
G01 X12.0790 Y6.0641
G01 X12.1038 Y6.0503
G01 X12.1105 Y6.0471
G01 X12.1154 Y6.0455
G01 X12.1579 Y6.0355
G01 X12.1675 Y6.0341
G01 X12.2291 Y6.0348
G01 X12.2628 Y6.0380
G01 X12.2704 Y6.0392
G01 X12.3081 Y6.0482
G01 X12.3167 Y6.0511
G01 X12.3253 Y6.0556
G01 X12.3554 Y6.0751
G01 X12.3583 Y6.0771
G01 X12.3651 Y6.0831
G01 X12.4002 Y6.1196
G01 X12.4066 Y6.1267
G01 X12.4404 Y6.1705
G01 X12.4445 Y6.1765
G01 X12.4475 Y6.1827
G01 X12.4626 Y6.2183
G01 X12.4652 Y6.2261
G01 X12.4666 Y6.2347
G01 X12.4705 Y6.2771
G01 X12.4707 Y6.3442
G01 X12.4702 Y6.3519
G01 X12.4692 Y6.3571
G01 X12.4677 Y6.3622
G01 X12.4657 Y6.3672
G01 X12.4633 Y6.3719
G01 X12.4604 Y6.3763
G01 X12.4571 Y6.3805
G01 X12.4534 Y6.3843
G01 X12.4472 Y6.3892
G01 X12.4537 Y6.3969
G01 X12.4588 Y6.4060
G01 X12.4607 Y6.4111
G01 X12.4622 Y6.4164
G01 X12.4631 Y6.4223
G01 X12.4674 Y6.4922
G01 X12.4655 Y6.5455
G01 X12.4646 Y6.5516
G01 X12.4624 Y6.5596
G01 X12.4405 Y6.6205
G01 X12.4375 Y6.6272
G01 X12.4325 Y6.6352
G01 X12.4035 Y6.6705
G01 X12.3979 Y6.6763
G01 X12.3911 Y6.6815
G01 X12.3334 Y6.7193
G01 X12.3265 Y6.7230
G01 X12.3211 Y6.7252
G01 X12.2502 Y6.7450
G01 X12.2426 Y6.7465
G01 X12.2343 Y6.7470
G01 X12.1639 Y6.7455
G01 X12.1550 Y6.7446
G01 X12.1486 Y6.7430
G01 X12.0786 Y6.7170
G01 X12.0709 Y6.7128
G01 X12.0532 Y6.7012
G01 X12.0161 Y6.6689
G01 X12.0123 Y6.6649
G01 X12.0090 Y6.6606
G01 X11.9851 Y6.6223
G01 X11.9816 Y6.6157
G01 X11.9789 Y6.6082
G01 X11.9677 Y6.5681
G01 X11.9472 Y6.6153
G01 X11.9428 Y6.6235
G01 X11.9041 Y6.6755
G01 X11.9006 Y6.6794
G01 X11.8955 Y6.6840
G01 X11.8541 Y6.7168
G01 X11.8481 Y6.7209
G01 X11.8420 Y6.7241
G01 X11.8241 Y6.7319
G01 X11.8165 Y6.7345
G01 X11.7447 Y6.7484
G01 X11.7400 Y6.7488
G01 X11.7330 Y6.7488
G01 X11.6632 Y6.7438
G01 X11.6557 Y6.7427
G01 X11.6480 Y6.7405
G01 X11.5881 Y6.7182
G01 X11.5796 Y6.7142
G01 X11.5517 Y6.6956
G01 X11.5463 Y6.6915
G01 X11.5176 Y6.6642
G01 X11.5139 Y6.6600
G01 X11.5097 Y6.6539
G01 X11.4917 Y6.6234
G01 X11.4885 Y6.6170
G01 X11.4862 Y6.6107
G01 X11.4743 Y6.5692
G01 X11.4722 Y6.5580
G01 X11.4637 Y6.5950
G01 X11.4608 Y6.6040
G01 X11.4427 Y6.6404
G01 X11.4388 Y6.6470
G01 X11.4337 Y6.6534
G01 X11.4075 Y6.6814
G01 X11.4011 Y6.6866
G01 X11.3663 Y6.7110
G01 X11.3594 Y6.7147
G01 X11.3176 Y6.7337
G01 X11.3106 Y6.7364
G01 X11.3054 Y6.7376
G01 X11.2230 Y6.7498
G01 X11.2157 Y6.7501
G01 X11.1773 Y6.7485
G01 X11.1690 Y6.7471
G01 X11.1379 Y6.7392
G01 X11.1308 Y6.7369
G01 X11.1223 Y6.7325
G01 X11.0893 Y6.7101
G01 X11.0839 Y6.7054
G01 X11.0458 Y6.6679
G01 X11.0208 Y6.6410
G01 X11.0170 Y6.6364
G01 X10.9921 Y6.6028
G01 X10.9885 Y6.5972
G01 X10.9870 Y6.6455
G01 X10.9847 Y6.6853
G01 X10.9814 Y6.7051
G01 X10.9794 Y6.7126
G01 X10.9773 Y6.7181
G01 X10.9722 Y6.7269
G01 X10.9689 Y6.7311
G01 X10.9648 Y6.7353
G01 X10.9568 Y6.7415
G01 X10.9522 Y6.7441
G01 X10.9468 Y6.7465
G01 X10.9370 Y6.7492
G01 X10.9312 Y6.7499
G01 X10.9235 Y6.7500
G01 X10.9154 Y6.7489
G01 X10.9100 Y6.7474
G01 X10.8865 Y6.7388
G01 X10.8524 Y6.7224
G01 X10.8091 Y6.7000
G01 X10.8021 Y6.6957
G01 X10.7944 Y6.6889
G01 X10.7909 Y6.6848
G01 X10.7875 Y6.6800
G01 X10.7839 Y6.6728
G01 X10.7829 Y6.6884
G01 X10.7808 Y6.7045
G01 X10.7797 Y6.7096
G01 X10.7780 Y6.7146
G01 X10.7759 Y6.7195
G01 X10.7733 Y6.7241
G01 X10.7703 Y6.7285
G01 X10.7669 Y6.7325
G01 X10.7628 Y6.7365
G01 X10.7587 Y6.7398
G01 X10.7542 Y6.7427
G01 X10.7495 Y6.7451
G01 X10.7446 Y6.7470
G01 X10.7396 Y6.7485
G01 X10.7296 Y6.7500
G01 X10.7214 Y6.7498
G01 X10.7136 Y6.7486
G01 X10.6923 Y6.7425
G01 X10.6584 Y6.7312
G01 X10.6124 Y6.7152
G01 X10.6054 Y6.7122
G01 X10.6004 Y6.7093
G01 X10.5962 Y6.7063
G01 X10.5923 Y6.7028
G01 X10.5858 Y6.6953
G01 X10.5829 Y6.6909
G01 X10.5803 Y6.6858
G01 X10.5771 Y6.6764
G01 X10.5760 Y6.6710
G01 X10.5737 Y6.6903
G01 X10.5724 Y6.6961
G01 X10.5658 Y6.7154
G01 X10.5636 Y6.7203
G01 X10.5609 Y6.7249
G01 X10.5578 Y6.7293
G01 X10.5542 Y6.7333
G01 X10.5503 Y6.7370
G01 X10.5460 Y6.7403
G01 X10.5414 Y6.7431
G01 X10.5366 Y6.7455
G01 X10.5311 Y6.7476
G01 X10.5259 Y6.7489
G01 X10.5157 Y6.7501
G01 X10.5098 Y6.7499
G01 X10.5021 Y6.7486
G01 X10.4794 Y6.7431
G01 X10.4414 Y6.7283
G01 X10.4045 Y6.7114
G01 X10.3978 Y6.7078
G01 X10.3951 Y6.7060
G01 X10.3952 Y6.9114
G01 X10.3946 Y6.9192
G01 X10.3936 Y6.9245
G01 X10.3920 Y6.9297
G01 X10.3900 Y6.9347
G01 X10.3872 Y6.9399
G01 X10.3810 Y6.9482
G01 X10.3769 Y6.9524
G01 X10.3686 Y6.9585
G01 X10.3634 Y6.9613
G01 X10.3583 Y6.9633
G01 X10.3532 Y6.9648
G01 X10.3429 Y6.9663
G01 X10.3375 Y6.9663
G01 X10.3322 Y6.9658
G01 X10.3268 Y6.9648
G01 X10.3217 Y6.9632
G01 X10.2715 Y6.9422
G01 X10.2554 Y6.9352
G01 X10.2295 Y6.9193
G01 X10.2219 Y6.9131
G01 X10.2153 Y6.9052
G01 X10.2011 Y6.8820
G01 X10.1973 Y6.8733
G01 X10.1953 Y6.8659
G01 X10.1886 Y6.8304
G01 X10.1815 Y6.7469
G01 X10.1292 Y6.7496
G01 X10.1200 Y6.7493
G01 X10.0592 Y6.7385
G01 X10.0556 Y6.7377
G01 X10.0464 Y6.7346
G01 X9.9938 Y6.7108
G01 X9.9862 Y6.7060
G01 X9.9590 Y6.6854
G01 X9.9528 Y6.6800
G01 X9.9140 Y6.6356
G01 X9.9108 Y6.6310
G01 X9.9078 Y6.6257
G01 X9.8863 Y6.5764
G01 X9.8711 Y6.6134
G01 X9.8672 Y6.6211
G01 X9.8428 Y6.6564
G01 X9.8394 Y6.6605
G01 X9.8338 Y6.6657
G01 X9.7804 Y6.7087
G01 X9.7732 Y6.7136
G01 X9.7649 Y6.7175
G01 X9.6986 Y6.7420
G01 X9.6911 Y6.7441
G01 X9.6829 Y6.7452
G01 X9.6086 Y6.7485
G01 X9.6025 Y6.7481
G01 X9.5937 Y6.7463
G01 X9.5266 Y6.7262
G01 X9.5186 Y6.7231
G01 X9.5094 Y6.7182
G01 X9.5056 Y6.7156
G01 X9.4645 Y6.6837
G01 X9.4593 Y6.6786
G01 X9.4259 Y6.6413
G01 X9.4216 Y6.6359
G01 X9.4143 Y6.6252
G01 X9.4020 Y6.6036
G01 X9.3988 Y6.5968
G01 X9.3892 Y6.5689
G01 X9.3866 Y6.5562
G01 X9.3803 Y6.5841
G01 X9.3778 Y6.5921
G01 X9.3583 Y6.6345
G01 X9.3545 Y6.6413
G01 X9.3501 Y6.6472
G01 X9.3219 Y6.6800
G01 X9.3150 Y6.6859
G01 X9.2799 Y6.7118
G01 X9.2731 Y6.7161
G01 X9.2658 Y6.7195
G01 X9.2087 Y6.7407
G01 X9.2012 Y6.7428
G01 X9.1929 Y6.7439
G01 X9.1269 Y6.7475
G01 X9.1200 Y6.7475
G01 X9.1128 Y6.7465
G01 X9.0493 Y6.7333
G01 X9.0406 Y6.7307
G01 X9.0328 Y6.7269
G01 X8.9829 Y6.6979
G01 X8.9769 Y6.6938
G01 X8.9731 Y6.6905
G01 X8.9492 Y6.6659
G01 X8.9437 Y6.6594
G01 X8.8986 Y6.5870
G01 X8.8962 Y6.5821
G01 X8.8931 Y6.5730
G01 X8.8868 Y6.5406
G00 X8.8868 Y6.5406
G01 F60.00
G01 Z-0.1000
G01 F100.00
G01 X8.8798 Y6.5735
G01 X8.8774 Y6.5818
G01 X8.8579 Y6.6251
G01 X8.8543 Y6.6319
G01 X8.8500 Y6.6377
G01 X8.8214 Y6.6718
G01 X8.8149 Y6.6777
G01 X8.7763 Y6.7074
G01 X8.7695 Y6.7114
G01 X8.7342 Y6.7289
G01 X8.7258 Y6.7323
G01 X8.6633 Y6.7473
G01 X8.6540 Y6.7482
G01 X8.5984 Y6.7490
G01 X8.5901 Y6.7485
G01 X8.5840 Y6.7473
G01 X8.5808 Y6.7923
G01 X8.5733 Y6.9167
G01 X8.5724 Y6.9222
G01 X8.5709 Y6.9275
G01 X8.5689 Y6.9327
G01 X8.5664 Y6.9376
G01 X8.5635 Y6.9423
G01 X8.5601 Y6.9466
G01 X8.5562 Y6.9506
G01 X8.5520 Y6.9542
G01 X8.5474 Y6.9573
G01 X8.5426 Y6.9600
G01 X8.5380 Y6.9619
G01 X8.5327 Y6.9636
G01 X8.5273 Y6.9648
G01 X8.5213 Y6.9654
G01 X8.5158 Y6.9654
G01 X8.5103 Y6.9648
G01 X8.5049 Y6.9637
G01 X8.4973 Y6.9611
G01 X8.4029 Y6.9213
G01 X8.3955 Y6.9175
G01 X8.3911 Y6.9145
G01 X8.3870 Y6.9111
G01 X8.3832 Y6.9072
G01 X8.3799 Y6.9031
G01 X8.3769 Y6.8986
G01 X8.3744 Y6.8938
G01 X8.3724 Y6.8889
G01 X8.3709 Y6.8837
G01 X8.3698 Y6.8784
G01 X8.3693 Y6.8731
G01 X8.3693 Y6.4734
G01 X8.3700 Y6.2775
G01 X8.3718 Y6.1376
G01 X8.3733 Y6.0941
G01 X8.3750 Y6.0773
G01 X8.3760 Y6.0720
G01 X8.3776 Y6.0669
G01 X8.3797 Y6.0619
G01 X8.3849 Y6.0531
G01 X8.3883 Y6.0490
G01 X8.3920 Y6.0451
G01 X8.3961 Y6.0417
G01 X8.4010 Y6.0384
G01 X8.4102 Y6.0339
G01 X8.4158 Y6.0322
G01 X8.4210 Y6.0311
G01 X8.4313 Y6.0305
G01 X8.4375 Y6.0311
G01 X8.4449 Y6.0326
G01 X8.4640 Y6.0381
G01 X8.4976 Y6.0492
G01 X8.5440 Y6.0654
G01 X8.5510 Y6.0684
G01 X8.5598 Y6.0740
G01 X8.5641 Y6.0778
G01 X8.5709 Y6.0857
G01 X8.5758 Y6.0943
G01 X8.5778 Y6.0992
G01 X8.5794 Y6.1046
G01 X8.5804 Y6.1098
G01 X8.5809 Y6.1174
G01 X8.5812 Y6.4014
G01 X8.5825 Y6.4577
G01 X8.5852 Y6.4922
G01 X8.5886 Y6.5086
G01 X8.5916 Y6.5148
G01 X8.5978 Y6.5224
G01 X8.6240 Y6.5351
G01 X8.6477 Y6.5342
G01 X8.6763 Y6.5178
G01 X8.6798 Y6.5135
G01 X8.6820 Y6.5081
G01 X8.6851 Y6.4895
G01 X8.6874 Y6.4519
G01 X8.6884 Y6.3925
G01 X8.6887 Y6.2645
G01 X8.6893 Y6.1927
G01 X8.6905 Y6.1353
G01 X8.6920 Y6.0970
G01 X8.6941 Y6.0785
G01 X8.6958 Y6.0705
G01 X8.6974 Y6.0655
G01 X8.6996 Y6.0607
G01 X8.7022 Y6.0562
G01 X8.7052 Y6.0519
G01 X8.7120 Y6.0445
G01 X8.7165 Y6.0409
G01 X8.7209 Y6.0380
G01 X8.7255 Y6.0356
G01 X8.7350 Y6.0322
G01 X8.7401 Y6.0312
G01 X8.7454 Y6.0306
G01 X8.7535 Y6.0307
G01 X8.7615 Y6.0319
G01 X8.7844 Y6.0384
G01 X8.8173 Y6.0494
G01 X8.8655 Y6.0663
G01 X8.8707 Y6.0686
G01 X8.8795 Y6.0743
G01 X8.8867 Y6.0812
G01 X8.8927 Y6.0897
G01 X8.8971 Y6.0992
G01 X8.8987 Y6.1046
G01 X8.9001 Y6.1150
G01 X8.9002 Y6.1623
G01 X8.9186 Y6.1242
G01 X8.9216 Y6.1193
G01 X8.9251 Y6.1148
G01 X8.9313 Y6.1085
G01 X8.9822 Y6.0653
G01 X8.9885 Y6.0607
G01 X8.9974 Y6.0561
G01 X9.0363 Y6.0424
G01 X9.0447 Y6.0402
G01 X9.1016 Y6.0324
G01 X9.1082 Y6.0322
G01 X9.1608 Y6.0338
G01 X9.1660 Y6.0344
G01 X9.1727 Y6.0359
G01 X9.2087 Y6.0466
G01 X9.2175 Y6.0501
G01 X9.2236 Y6.0439
G01 X9.2277 Y6.0406
G01 X9.2321 Y6.0378
G01 X9.2372 Y6.0352
G01 X9.2421 Y6.0333
G01 X9.2519 Y6.0310
G01 X9.2575 Y6.0305
G01 X9.2661 Y6.0309
G01 X9.2729 Y6.0320
G01 X9.2775 Y6.0333
G01 X9.3017 Y6.0425
G01 X9.3364 Y6.0592
G01 X9.3798 Y6.0816
G01 X9.3819 Y6.0760
G01 X9.3895 Y6.0598
G01 X9.3950 Y6.0513
G01 X9.3988 Y6.0470
G01 X9.4065 Y6.0405
G01 X9.4114 Y6.0374
G01 X9.4206 Y6.0333
G01 X9.4257 Y6.0319
G01 X9.4309 Y6.0310
G01 X9.4367 Y6.0305
G01 X9.4468 Y6.0312
G01 X9.4709 Y6.0363
G01 X9.4767 Y6.0382
G01 X9.5090 Y6.0505
G01 X9.5226 Y6.0568
G01 X9.5281 Y6.0601
G01 X9.5425 Y6.0701
G01 X9.5465 Y6.0735
G01 X9.5505 Y6.0777
G01 X9.5558 Y6.0849
G01 X9.5653 Y6.1007
G01 X9.5680 Y6.1065
G01 X9.5706 Y6.1147
G01 X9.5766 Y6.1415
G01 X9.5806 Y6.1852
G01 X9.5829 Y6.2441
G01 X9.5876 Y6.4256
G01 X9.5902 Y6.4760
G01 X9.5936 Y6.5051
G01 X9.5966 Y6.5157
G01 X9.5979 Y6.5178
G01 X9.6011 Y6.5207
G01 X9.6248 Y6.5335
G01 X9.6499 Y6.5357
G01 X9.6699 Y6.5281
G01 X9.6830 Y6.5139
G01 X9.6903 Y6.4845
G01 X9.6906 Y6.4742
G01 X9.6917 Y6.4670
G01 X9.6990 Y6.4400
G01 X9.7017 Y6.4323
G01 X9.7042 Y6.4273
G01 X9.7072 Y6.4226
G01 X9.7107 Y6.4183
G01 X9.7146 Y6.4143
G01 X9.7193 Y6.4104
G01 X9.7239 Y6.4073
G01 X9.7288 Y6.4047
G01 X9.7340 Y6.4026
G01 X9.7394 Y6.4010
G01 X9.7640 Y6.3964
G01 X9.7740 Y6.3959
G01 X9.7839 Y6.3973
G01 X9.7909 Y6.3994
G01 X9.8290 Y6.4137
G01 X9.8439 Y6.4210
G01 X9.8502 Y6.4248
G01 X9.8545 Y6.4282
G01 X9.8582 Y6.4317
G01 X9.8662 Y6.4406
G01 X9.8643 Y6.3906
G01 X9.8655 Y6.3326
G01 X9.8740 Y6.2507
G01 X9.8761 Y6.2403
G01 X9.8939 Y6.1825
G01 X9.8967 Y6.1753
G01 X9.8995 Y6.1702
G01 X9.9303 Y6.1240
G01 X9.9353 Y6.1176
G01 X9.9408 Y6.1123
G01 X9.9842 Y6.0762
G01 X9.9916 Y6.0710
G01 X10.0358 Y6.0485
G01 X10.0437 Y6.0452
G01 X10.0516 Y6.0433
G01 X10.1235 Y6.0313
G01 X10.1326 Y6.0310
G01 X10.1399 Y6.0318
G01 X10.2092 Y6.0445
G01 X10.2178 Y6.0468
G01 X10.2264 Y6.0508
G01 X10.2914 Y6.0876
G01 X10.2968 Y6.0916
G01 X10.3033 Y6.0979
G01 X10.3542 Y6.1563
G01 X10.3577 Y6.1612
G01 X10.3649 Y6.1737
G01 X10.3723 Y6.1898
G01 X10.3723 Y6.1724
G01 X10.3729 Y6.1665
G01 X10.3740 Y6.1612
G01 X10.3756 Y6.1560
G01 X10.3776 Y6.1511
G01 X10.3802 Y6.1463
G01 X10.3832 Y6.1418
G01 X10.3884 Y6.1359
G01 X10.4451 Y6.0793
G01 X10.4496 Y6.0754
G01 X10.4787 Y6.0525
G01 X10.4861 Y6.0476
G01 X10.4913 Y6.0450
G01 X10.4993 Y6.0424
G01 X10.5286 Y6.0349
G01 X10.5371 Y6.0335
G01 X10.5463 Y6.0334
G01 X10.5900 Y6.0368
G01 X10.6096 Y6.0392
G01 X10.6536 Y6.0437
G01 X10.6820 Y6.0454
G01 X10.7244 Y6.0423
G01 X10.7883 Y6.0350
G01 X10.8314 Y6.0341
G01 X10.8370 Y6.0346
G01 X10.8431 Y6.0357
G01 X10.8509 Y6.0383
G01 X10.8812 Y6.0509
G01 X10.8871 Y6.0541
G01 X10.8943 Y6.0596
G01 X10.9272 Y6.0890
G01 X10.9758 Y6.1377
G01 X10.9796 Y6.1422
G01 X10.9849 Y6.1511
G01 X10.9871 Y6.1565
G01 X10.9887 Y6.1617
G01 X10.9981 Y6.1401
G01 X11.0006 Y6.1355
G01 X11.0038 Y6.1308
G01 X11.0088 Y6.1251
G01 X11.0569 Y6.0776
G01 X11.0612 Y6.0741
G01 X11.0658 Y6.0711
G01 X11.1051 Y6.0505
G01 X11.1123 Y6.0474
G01 X11.1179 Y6.0457
G01 X11.1921 Y6.0317
G01 X11.1955 Y6.0311
G01 X11.2048 Y6.0308
G01 X11.2447 Y6.0326
G01 X11.2532 Y6.0337
G01 X11.2957 Y6.0450
G01 X11.3014 Y6.0472
G01 X11.3065 Y6.0498
G01 X11.3114 Y6.0446
G01 X11.3156 Y6.0412
G01 X11.3205 Y6.0380
G01 X11.3253 Y6.0355
G01 X11.3304 Y6.0335
G01 X11.3404 Y6.0311
G01 X11.3463 Y6.0305
G01 X11.3517 Y6.0306
G01 X11.3619 Y6.0322
G01 X11.3814 Y6.0383
G01 X11.4132 Y6.0517
G01 X11.4541 Y6.0704
G01 X11.4625 Y6.0758
G01 X11.4675 Y6.0802
G01 X11.4687 Y6.0737
G01 X11.4701 Y6.0684
G01 X11.4721 Y6.0632
G01 X11.4746 Y6.0583
G01 X11.4773 Y6.0540
G01 X11.4807 Y6.0496
G01 X11.4849 Y6.0453
G01 X11.4888 Y6.0420
G01 X11.4933 Y6.0388
G01 X11.4982 Y6.0361
G01 X11.5032 Y6.0339
G01 X11.5090 Y6.0321
G01 X11.5140 Y6.0311
G01 X11.5195 Y6.0306
G01 X11.5250 Y6.0306
G01 X11.5305 Y6.0311
G01 X11.5360 Y6.0322
G01 X11.5533 Y6.0375
G01 X11.5911 Y6.0534
G01 X11.6104 Y6.0636
G01 X11.6150 Y6.0667
G01 X11.6197 Y6.0707
G01 X11.6344 Y6.0864
G01 X11.6377 Y6.0908
G01 X11.6408 Y6.0959
G01 X11.6444 Y6.1045
G01 X11.6514 Y6.1261
G01 X11.6530 Y6.1351
G01 X11.6565 Y6.1716
G01 X11.6577 Y6.2233
G01 X11.6583 Y6.3448
G01 X11.6621 Y6.4304
G01 X11.6701 Y6.4880
G01 X11.6805 Y6.5189
G01 X11.6888 Y6.5293
G01 X11.6986 Y6.5339
G01 X11.7302 Y6.5344
G01 X11.7488 Y6.5237
G01 X11.7692 Y6.4896
G01 X11.7858 Y6.4458
G01 X11.7924 Y6.4301
G01 X11.7961 Y6.4229
G01 X11.8023 Y6.4146
G01 X11.8100 Y6.4075
G01 X11.8189 Y6.4020
G01 X11.8282 Y6.3985
G01 X11.8385 Y6.3966
G01 X11.8442 Y6.3964
G01 X11.8518 Y6.3971
G01 X11.8673 Y6.3997
G01 X11.8763 Y6.4024
G01 X11.9044 Y6.4135
G01 X11.9133 Y6.4180
G01 X11.9440 Y6.4396
G01 X11.9487 Y6.4438
G01 X11.9523 Y6.4476
G01 X11.9557 Y6.4521
G01 X11.9544 Y6.3878
G01 X11.9547 Y6.3483
G01 X11.9583 Y6.2699
G01 X11.9590 Y6.2635
G01 X11.9683 Y6.2077
G01 X11.9689 Y6.2043
G01 X11.9717 Y6.1957
G01 X11.9888 Y6.1543
G01 X11.9926 Y6.1469
G01 X11.9972 Y6.1404
G01 X12.0264 Y6.1051
G01 X12.0329 Y6.0991
G01 X12.0738 Y6.0674
G01 X12.0790 Y6.0641
G01 X12.1038 Y6.0503
G01 X12.1105 Y6.0471
G01 X12.1154 Y6.0455
G01 X12.1579 Y6.0355
G01 X12.1675 Y6.0341
G01 X12.2291 Y6.0348
G01 X12.2628 Y6.0380
G01 X12.2704 Y6.0392
G01 X12.3081 Y6.0482
G01 X12.3167 Y6.0511
G01 X12.3253 Y6.0556
G01 X12.3554 Y6.0751
G01 X12.3583 Y6.0771
G01 X12.3651 Y6.0831
G01 X12.4002 Y6.1196
G01 X12.4066 Y6.1267
G01 X12.4404 Y6.1705
G01 X12.4445 Y6.1765
G01 X12.4475 Y6.1827
G01 X12.4626 Y6.2183
G01 X12.4652 Y6.2261
G01 X12.4666 Y6.2347
G01 X12.4705 Y6.2771
G01 X12.4707 Y6.3442
G01 X12.4702 Y6.3519
G01 X12.4692 Y6.3571
G01 X12.4677 Y6.3622
G01 X12.4657 Y6.3672
G01 X12.4633 Y6.3719
G01 X12.4604 Y6.3763
G01 X12.4571 Y6.3805
G01 X12.4534 Y6.3843
G01 X12.4472 Y6.3892
G01 X12.4537 Y6.3969
G01 X12.4588 Y6.4060
G01 X12.4607 Y6.4111
G01 X12.4622 Y6.4164
G01 X12.4631 Y6.4223
G01 X12.4674 Y6.4922
G01 X12.4655 Y6.5455
G01 X12.4646 Y6.5516
G01 X12.4624 Y6.5596
G01 X12.4405 Y6.6205
G01 X12.4375 Y6.6272
G01 X12.4325 Y6.6352
G01 X12.4035 Y6.6705
G01 X12.3979 Y6.6763
G01 X12.3911 Y6.6815
G01 X12.3334 Y6.7193
G01 X12.3265 Y6.7230
G01 X12.3211 Y6.7252
G01 X12.2502 Y6.7450
G01 X12.2426 Y6.7465
G01 X12.2343 Y6.7470
G01 X12.1639 Y6.7455
G01 X12.1550 Y6.7446
G01 X12.1486 Y6.7430
G01 X12.0786 Y6.7170
G01 X12.0709 Y6.7128
G01 X12.0532 Y6.7012
G01 X12.0161 Y6.6689
G01 X12.0123 Y6.6649
G01 X12.0090 Y6.6606
G01 X11.9851 Y6.6223
G01 X11.9816 Y6.6157
G01 X11.9789 Y6.6082
G01 X11.9677 Y6.5681
G01 X11.9472 Y6.6153
G01 X11.9428 Y6.6235
G01 X11.9041 Y6.6755
G01 X11.9006 Y6.6794
G01 X11.8955 Y6.6840
G01 X11.8541 Y6.7168
G01 X11.8481 Y6.7209
G01 X11.8420 Y6.7241
G01 X11.8241 Y6.7319
G01 X11.8165 Y6.7345
G01 X11.7447 Y6.7484
G01 X11.7400 Y6.7488
G01 X11.7330 Y6.7488
G01 X11.6632 Y6.7438
G01 X11.6557 Y6.7427
G01 X11.6480 Y6.7405
G01 X11.5881 Y6.7182
G01 X11.5796 Y6.7142
G01 X11.5517 Y6.6956
G01 X11.5463 Y6.6915
G01 X11.5176 Y6.6642
G01 X11.5139 Y6.6600
G01 X11.5097 Y6.6539
G01 X11.4917 Y6.6234
G01 X11.4885 Y6.6170
G01 X11.4862 Y6.6107
G01 X11.4743 Y6.5692
G01 X11.4722 Y6.5580
G01 X11.4637 Y6.5950
G01 X11.4608 Y6.6040
G01 X11.4427 Y6.6404
G01 X11.4388 Y6.6470
G01 X11.4337 Y6.6534
G01 X11.4075 Y6.6814
G01 X11.4011 Y6.6866
G01 X11.3663 Y6.7110
G01 X11.3594 Y6.7147
G01 X11.3176 Y6.7337
G01 X11.3106 Y6.7364
G01 X11.3054 Y6.7376
G01 X11.2230 Y6.7498
G01 X11.2157 Y6.7501
G01 X11.1773 Y6.7485
G01 X11.1690 Y6.7471
G01 X11.1379 Y6.7392
G01 X11.1308 Y6.7369
G01 X11.1223 Y6.7325
G01 X11.0893 Y6.7101
G01 X11.0839 Y6.7054
G01 X11.0458 Y6.6679
G01 X11.0208 Y6.6410
G01 X11.0170 Y6.6364
G01 X10.9921 Y6.6028
G01 X10.9885 Y6.5972
G01 X10.9870 Y6.6455
G01 X10.9847 Y6.6853
G01 X10.9814 Y6.7051
G01 X10.9794 Y6.7126
G01 X10.9773 Y6.7181
G01 X10.9722 Y6.7269
G01 X10.9689 Y6.7311
G01 X10.9648 Y6.7353
G01 X10.9568 Y6.7415
G01 X10.9522 Y6.7441
G01 X10.9468 Y6.7465
G01 X10.9370 Y6.7492
G01 X10.9312 Y6.7499
G01 X10.9235 Y6.7500
G01 X10.9154 Y6.7489
G01 X10.9100 Y6.7474
G01 X10.8865 Y6.7388
G01 X10.8524 Y6.7224
G01 X10.8091 Y6.7000
G01 X10.8021 Y6.6957
G01 X10.7944 Y6.6889
G01 X10.7909 Y6.6848
G01 X10.7875 Y6.6800
G01 X10.7839 Y6.6728
G01 X10.7829 Y6.6884
G01 X10.7808 Y6.7045
G01 X10.7797 Y6.7096
G01 X10.7780 Y6.7146
G01 X10.7759 Y6.7195
G01 X10.7733 Y6.7241
G01 X10.7703 Y6.7285
G01 X10.7669 Y6.7325
G01 X10.7628 Y6.7365
G01 X10.7587 Y6.7398
G01 X10.7542 Y6.7427
G01 X10.7495 Y6.7451
G01 X10.7446 Y6.7470
G01 X10.7396 Y6.7485
G01 X10.7296 Y6.7500
G01 X10.7214 Y6.7498
G01 X10.7136 Y6.7486
G01 X10.6923 Y6.7425
G01 X10.6584 Y6.7312
G01 X10.6124 Y6.7152
G01 X10.6054 Y6.7122
G01 X10.6004 Y6.7093
G01 X10.5962 Y6.7063
G01 X10.5923 Y6.7028
G01 X10.5858 Y6.6953
G01 X10.5829 Y6.6909
G01 X10.5803 Y6.6858
G01 X10.5771 Y6.6764
G01 X10.5760 Y6.6710
G01 X10.5737 Y6.6903
G01 X10.5724 Y6.6961
G01 X10.5658 Y6.7154
G01 X10.5636 Y6.7203
G01 X10.5609 Y6.7249
G01 X10.5578 Y6.7293
G01 X10.5542 Y6.7333
G01 X10.5503 Y6.7370
G01 X10.5460 Y6.7403
G01 X10.5414 Y6.7431
G01 X10.5366 Y6.7455
G01 X10.5311 Y6.7476
G01 X10.5259 Y6.7489
G01 X10.5157 Y6.7501
G01 X10.5098 Y6.7499
G01 X10.5021 Y6.7486
G01 X10.4794 Y6.7431
G01 X10.4414 Y6.7283
G01 X10.4045 Y6.7114
G01 X10.3978 Y6.7078
G01 X10.3951 Y6.7060
G01 X10.3952 Y6.9114
G01 X10.3946 Y6.9192
G01 X10.3936 Y6.9245
G01 X10.3920 Y6.9297
G01 X10.3900 Y6.9347
G01 X10.3872 Y6.9399
G01 X10.3810 Y6.9482
G01 X10.3769 Y6.9524
G01 X10.3686 Y6.9585
G01 X10.3634 Y6.9613
G01 X10.3583 Y6.9633
G01 X10.3532 Y6.9648
G01 X10.3429 Y6.9663
G01 X10.3375 Y6.9663
G01 X10.3322 Y6.9658
G01 X10.3268 Y6.9648
G01 X10.3217 Y6.9632
G01 X10.2715 Y6.9422
G01 X10.2554 Y6.9352
G01 X10.2295 Y6.9193
G01 X10.2219 Y6.9131
G01 X10.2153 Y6.9052
G01 X10.2011 Y6.8820
G01 X10.1973 Y6.8733
G01 X10.1953 Y6.8659
G01 X10.1886 Y6.8304
G01 X10.1815 Y6.7469
G01 X10.1292 Y6.7496
G01 X10.1200 Y6.7493
G01 X10.0592 Y6.7385
G01 X10.0556 Y6.7377
G01 X10.0464 Y6.7346
G01 X9.9938 Y6.7108
G01 X9.9862 Y6.7060
G01 X9.9590 Y6.6854
G01 X9.9528 Y6.6800
G01 X9.9140 Y6.6356
G01 X9.9108 Y6.6310
G01 X9.9078 Y6.6257
G01 X9.8863 Y6.5764
G01 X9.8711 Y6.6134
G01 X9.8672 Y6.6211
G01 X9.8428 Y6.6564
G01 X9.8394 Y6.6605
G01 X9.8338 Y6.6657
G01 X9.7804 Y6.7087
G01 X9.7732 Y6.7136
G01 X9.7649 Y6.7175
G01 X9.6986 Y6.7420
G01 X9.6911 Y6.7441
G01 X9.6829 Y6.7452
G01 X9.6086 Y6.7485
G01 X9.6025 Y6.7481
G01 X9.5937 Y6.7463
G01 X9.5266 Y6.7262
G01 X9.5186 Y6.7231
G01 X9.5094 Y6.7182
G01 X9.5056 Y6.7156
G01 X9.4645 Y6.6837
G01 X9.4593 Y6.6786
G01 X9.4259 Y6.6413
G01 X9.4216 Y6.6359
G01 X9.4143 Y6.6252
G01 X9.4020 Y6.6036
G01 X9.3988 Y6.5968
G01 X9.3892 Y6.5689
G01 X9.3866 Y6.5562
G01 X9.3803 Y6.5841
G01 X9.3778 Y6.5921
G01 X9.3583 Y6.6345
G01 X9.3545 Y6.6413
G01 X9.3501 Y6.6472
G01 X9.3219 Y6.6800
G01 X9.3150 Y6.6859
G01 X9.2799 Y6.7118
G01 X9.2731 Y6.7161
G01 X9.2658 Y6.7195
G01 X9.2087 Y6.7407
G01 X9.2012 Y6.7428
G01 X9.1929 Y6.7439
G01 X9.1269 Y6.7475
G01 X9.1200 Y6.7475
G01 X9.1128 Y6.7465
G01 X9.0493 Y6.7333
G01 X9.0406 Y6.7307
G01 X9.0328 Y6.7269
G01 X8.9829 Y6.6979
G01 X8.9769 Y6.6938
G01 X8.9731 Y6.6905
G01 X8.9492 Y6.6659
G01 X8.9437 Y6.6594
G01 X8.8986 Y6.5870
G01 X8.8962 Y6.5821
G01 X8.8931 Y6.5730
G01 X8.8868 Y6.5406
G00 Z2.0000
G00 X8.9039 Y6.3881
G01 F60.00
G01 Z-0.0500
G01 F100.00
G01 X8.8991 Y6.3914
G01 X8.8999 Y6.3519
G01 X8.9037 Y6.3598
G01 X8.9088 Y6.3680
G01 X8.9124 Y6.3721
G01 X8.9217 Y6.3813
G01 X8.9137 Y6.3835
G01 X8.9087 Y6.3855
G01 X8.9039 Y6.3881
G00 X8.9039 Y6.3881
G01 F60.00
G01 Z-0.1000
G01 F100.00
G01 X8.8991 Y6.3914
G01 X8.8999 Y6.3519
G01 X8.9037 Y6.3598
G01 X8.9088 Y6.3680
G01 X8.9124 Y6.3721
G01 X8.9217 Y6.3813
G01 X8.9137 Y6.3835
G01 X8.9087 Y6.3855
G01 X8.9039 Y6.3881
G00 Z2.0000
G00 X9.0771 Y6.4765
G01 F60.00
G01 Z-0.0500
G01 F100.00
G01 X9.1548 Y6.5123
G01 X9.1726 Y6.5232
G01 X9.1460 Y6.5366
G01 X9.1246 Y6.5362
G01 X9.1061 Y6.5260
G01 X9.0897 Y6.5008
G01 X9.0869 Y6.4933
G01 X9.0848 Y6.4891
G01 X9.0771 Y6.4765
G00 X9.0771 Y6.4765
G01 F60.00
G01 Z-0.1000
G01 F100.00
G01 X9.1548 Y6.5123
G01 X9.1726 Y6.5232
G01 X9.1460 Y6.5366
G01 X9.1246 Y6.5362
G01 X9.1061 Y6.5260
G01 X9.0897 Y6.5008
G01 X9.0869 Y6.4933
G01 X9.0848 Y6.4891
G01 X9.0771 Y6.4765
G00 Z2.0000
G00 X9.1966 Y6.2371
G01 F60.00
G01 Z-0.0500
G01 F100.00
G01 X9.1964 Y6.3016
G01 X9.1346 Y6.2729
G01 X9.0959 Y6.2525
G01 X9.0923 Y6.2493
G01 X9.0964 Y6.2466
G01 X9.1321 Y6.2445
G01 X9.1673 Y6.2450
G01 X9.1755 Y6.2445
G01 X9.1810 Y6.2434
G01 X9.1865 Y6.2418
G01 X9.1917 Y6.2397
G01 X9.1966 Y6.2371
G00 X9.1966 Y6.2371
G01 F60.00
G01 Z-0.1000
G01 F100.00
G01 X9.1964 Y6.3016
G01 X9.1346 Y6.2729
G01 X9.0959 Y6.2525
G01 X9.0923 Y6.2493
G01 X9.0964 Y6.2466
G01 X9.1321 Y6.2445
G01 X9.1673 Y6.2450
G01 X9.1755 Y6.2445
G01 X9.1810 Y6.2434
G01 X9.1865 Y6.2418
G01 X9.1917 Y6.2397
G01 X9.1966 Y6.2371
G00 Z2.0000
G00 X10.0759 Y6.3944
G01 F60.00
G01 Z-0.0500
G01 F100.00
G01 X10.0765 Y6.3315
G01 X10.0789 Y6.2946
G01 X10.0826 Y6.2787
G01 X10.0872 Y6.2706
G01 X10.0921 Y6.2652
G01 X10.1205 Y6.2473
G01 X10.1416 Y6.2463
G01 X10.1684 Y6.2602
G01 X10.1746 Y6.2671
G01 X10.1778 Y6.2737
G01 X10.1813 Y6.2936
G01 X10.1832 Y6.3368
G01 X10.1836 Y6.3881
G01 X10.1828 Y6.4524
G01 X10.1802 Y6.4908
G01 X10.1762 Y6.5081
G01 X10.1711 Y6.5173
G01 X10.1454 Y6.5338
G01 X10.1220 Y6.5354
G01 X10.0933 Y6.5227
G01 X10.0848 Y6.5135
G01 X10.0816 Y6.5067
G01 X10.0781 Y6.4864
G01 X10.0762 Y6.4425
G01 X10.0759 Y6.3944
G00 X10.0759 Y6.3944
G01 F60.00
G01 Z-0.1000
G01 F100.00
G01 X10.0765 Y6.3315
G01 X10.0789 Y6.2946
G01 X10.0826 Y6.2787
G01 X10.0872 Y6.2706
G01 X10.0921 Y6.2652
G01 X10.1205 Y6.2473
G01 X10.1416 Y6.2463
G01 X10.1684 Y6.2602
G01 X10.1746 Y6.2671
G01 X10.1778 Y6.2737
G01 X10.1813 Y6.2936
G01 X10.1832 Y6.3368
G01 X10.1836 Y6.3881
G01 X10.1828 Y6.4524
G01 X10.1802 Y6.4908
G01 X10.1762 Y6.5081
G01 X10.1711 Y6.5173
G01 X10.1454 Y6.5338
G01 X10.1220 Y6.5354
G01 X10.0933 Y6.5227
G01 X10.0848 Y6.5135
G01 X10.0816 Y6.5067
G01 X10.0781 Y6.4864
G01 X10.0762 Y6.4425
G01 X10.0759 Y6.3944
G00 Z2.0000
G00 X10.9903 Y6.3537
G01 F60.00
G01 Z-0.0500
G01 F100.00
G01 X10.9932 Y6.3601
G01 X10.9961 Y6.3649
G01 X10.9992 Y6.3690
G01 X11.0088 Y6.3798
G01 X11.0036 Y6.3814
G01 X10.9987 Y6.3834
G01 X10.9903 Y6.3885
G01 X10.9903 Y6.3537
G00 X10.9903 Y6.3537
G01 F60.00
G01 Z-0.1000
G01 F100.00
G01 X10.9932 Y6.3601
G01 X10.9961 Y6.3649
G01 X10.9992 Y6.3690
G01 X11.0088 Y6.3798
G01 X11.0036 Y6.3814
G01 X10.9987 Y6.3834
G01 X10.9903 Y6.3885
G01 X10.9903 Y6.3537
G00 Z2.0000
G00 X11.1631 Y6.4772
G01 F60.00
G01 Z-0.0500
G01 F100.00
G01 X11.1965 Y6.4915
G01 X11.2533 Y6.5165
G01 X11.2616 Y6.5222
G01 X11.2383 Y6.5360
G01 X11.2173 Y6.5369
G01 X11.1972 Y6.5278
G01 X11.1787 Y6.5045
G01 X11.1743 Y6.4949
G01 X11.1631 Y6.4772
G00 X11.1631 Y6.4772
G01 F60.00
G01 Z-0.1000
G01 F100.00
G01 X11.1965 Y6.4915
G01 X11.2533 Y6.5165
G01 X11.2616 Y6.5222
G01 X11.2383 Y6.5360
G01 X11.2173 Y6.5369
G01 X11.1972 Y6.5278
G01 X11.1787 Y6.5045
G01 X11.1743 Y6.4949
G01 X11.1631 Y6.4772
G00 Z2.0000
G00 X11.2865 Y6.2356
G01 F60.00
G01 Z-0.0500
G01 F100.00
G01 X11.2855 Y6.2891
G01 X11.2846 Y6.3025
G01 X11.2405 Y6.2815
G01 X11.1983 Y6.2589
G01 X11.1807 Y6.2480
G01 X11.1828 Y6.2460
G01 X11.1929 Y6.2437
G01 X11.2530 Y6.2450
G01 X11.2616 Y6.2444
G01 X11.2675 Y6.2432
G01 X11.2732 Y6.2414
G01 X11.2865 Y6.2356
G00 X11.2865 Y6.2356
G01 F60.00
G01 Z-0.1000
G01 F100.00
G01 X11.2855 Y6.2891
G01 X11.2846 Y6.3025
G01 X11.2405 Y6.2815
G01 X11.1983 Y6.2589
G01 X11.1807 Y6.2480
G01 X11.1828 Y6.2460
G01 X11.1929 Y6.2437
G01 X11.2530 Y6.2450
G01 X11.2616 Y6.2444
G01 X11.2675 Y6.2432
G01 X11.2732 Y6.2414
G01 X11.2865 Y6.2356
G00 Z2.0000
G00 X12.1614 Y6.4880
G01 F60.00
G01 Z-0.0500
G01 F100.00
G01 X12.1887 Y6.5000
G01 X12.2432 Y6.5277
G01 X12.2200 Y6.5378
G01 X12.1990 Y6.5361
G01 X12.1805 Y6.5236
G01 X12.1625 Y6.4924
G01 X12.1614 Y6.4880
G00 X12.1614 Y6.4880
G01 F60.00
G01 Z-0.1000
G01 F100.00
G01 X12.1887 Y6.5000
G01 X12.2432 Y6.5277
G01 X12.2200 Y6.5378
G01 X12.1990 Y6.5361
G01 X12.1805 Y6.5236
G01 X12.1625 Y6.4924
G01 X12.1614 Y6.4880
G00 Z2.0000
G00 X12.2773 Y6.3106
G01 F60.00
G01 Z-0.0500
G01 F100.00
G01 X12.2124 Y6.2808
G01 X12.1748 Y6.2595
G01 X12.2000 Y6.2442
G01 X12.2201 Y6.2434
G01 X12.2400 Y6.2527
G01 X12.2592 Y6.2770
G01 X12.2649 Y6.2902
G01 X12.2773 Y6.3106
G00 X12.2773 Y6.3106
G01 F60.00
G01 Z-0.1000
G01 F100.00
G01 X12.2124 Y6.2808
G01 X12.1748 Y6.2595
G01 X12.2000 Y6.2442
G01 X12.2201 Y6.2434
G01 X12.2400 Y6.2527
G01 X12.2592 Y6.2770
G01 X12.2649 Y6.2902
G01 X12.2773 Y6.3106
G00 Z2.0000
G00 X14.6727 Y5.3994
G01 F60.00
G01 Z-0.0500
G01 F100.00
G01 X14.6477 Y5.4699
G01 X14.6295 Y5.5437
G01 X14.6186 Y5.6190
G01 X14.6151 Y5.6950
G01 X14.6190 Y5.7709
G01 X14.6295 Y5.8413
G01 X14.6477 Y5.9151
G01 X14.6727 Y5.9856
G01 X14.3716 Y6.2866
G01 X14.3685 Y6.2822
G01 X14.2816 Y6.0959
G01 X14.2284 Y5.8973
G01 X14.2105 Y5.6925
G01 X14.2284 Y5.4877
G01 X14.2816 Y5.2891
G01 X14.3685 Y5.1028
G01 X14.3716 Y5.0984
G01 X14.6727 Y5.3994
G00 X14.6727 Y5.3994
G01 F60.00
G01 Z-0.1000
G01 F100.00
G01 X14.6477 Y5.4699
G01 X14.6295 Y5.5437
G01 X14.6186 Y5.6190
G01 X14.6151 Y5.6950
G01 X14.6190 Y5.7709
G01 X14.6295 Y5.8413
G01 X14.6477 Y5.9151
G01 X14.6727 Y5.9856
G01 X14.3716 Y6.2866
G01 X14.3685 Y6.2822
G01 X14.2816 Y6.0959
G01 X14.2284 Y5.8973
G01 X14.2105 Y5.6925
G01 X14.2284 Y5.4877
G01 X14.2816 Y5.2891
G01 X14.3685 Y5.1028
G01 X14.3716 Y5.0984
G01 X14.6727 Y5.3994
G00 Z2.0000
G00 X14.6900 Y4.3982
G01 F60.00
G01 Z-0.0500
G01 F100.00
G01 X14.6900 Y3.9925
G01 X15.0999 Y3.9925
G01 X15.0999 Y4.9741
G01 X15.0969 Y4.9752
G01 X14.7851 Y4.6633
G01 X14.8028 Y4.6409
G01 X14.8072 Y4.6324
G01 X14.8100 Y4.6233
G01 X14.8181 Y4.5444
G01 X14.8173 Y4.5349
G01 X14.8147 Y4.5258
G01 X14.7812 Y4.4591
G01 X14.7789 Y4.4549
G01 X14.7731 Y4.4474
G01 X14.7696 Y4.4441
G01 X14.7619 Y4.4385
G01 X14.7017 Y4.4031
G01 X14.6972 Y4.4008
G01 X14.6900 Y4.3982
G00 X14.6900 Y4.3982
G01 F60.00
G01 Z-0.1000
G01 F100.00
G01 X14.6900 Y3.9925
G01 X15.0999 Y3.9925
G01 X15.0999 Y4.9741
G01 X15.0969 Y4.9752
G01 X14.7851 Y4.6633
G01 X14.8028 Y4.6409
G01 X14.8072 Y4.6324
G01 X14.8100 Y4.6233
G01 X14.8181 Y4.5444
G01 X14.8173 Y4.5349
G01 X14.8147 Y4.5258
G01 X14.7812 Y4.4591
G01 X14.7789 Y4.4549
G01 X14.7731 Y4.4474
G01 X14.7696 Y4.4441
G01 X14.7619 Y4.4385
G01 X14.7017 Y4.4031
G01 X14.6972 Y4.4008
G01 X14.6900 Y4.3982
G00 Z2.0000
G00 X13.7400 Y3.2925
G01 F60.00
G01 Z-0.0500
G01 F100.00
G01 X13.7401 Y3.3450
G01 X13.7429 Y3.4038
G01 X13.7530 Y3.4717
G01 X13.7688 Y3.5335
G01 X13.7886 Y3.5890
G01 X13.8180 Y3.6510
G01 X13.8510 Y3.7056
G01 X13.8860 Y3.7529
G01 X13.9322 Y3.8038
G01 X13.9796 Y3.8465
G01 X14.0269 Y3.8815
G01 X14.0815 Y3.9145
G01 X14.0900 Y3.9188
G01 X14.0900 Y4.3502
G01 X14.0450 Y4.3393
G01 X13.8626 Y4.2560
G01 X13.6993 Y4.1397
G01 X13.5609 Y3.9945
G01 X13.4525 Y3.8258
G01 X13.3779 Y3.6397
G01 X13.3400 Y3.4428
G01 X13.3400 Y3.2925
G01 X13.7400 Y3.2925
G00 X13.7400 Y3.2925
G01 F60.00
G01 Z-0.1000
G01 F100.00
G01 X13.7401 Y3.3450
G01 X13.7429 Y3.4038
G01 X13.7530 Y3.4717
G01 X13.7688 Y3.5335
G01 X13.7886 Y3.5890
G01 X13.8180 Y3.6510
G01 X13.8510 Y3.7056
G01 X13.8860 Y3.7529
G01 X13.9322 Y3.8038
G01 X13.9796 Y3.8465
G01 X14.0269 Y3.8815
G01 X14.0815 Y3.9145
G01 X14.0900 Y3.9188
G01 X14.0900 Y4.3502
G01 X14.0450 Y4.3393
G01 X13.8626 Y4.2560
G01 X13.6993 Y4.1397
G01 X13.5609 Y3.9945
G01 X13.4525 Y3.8258
G01 X13.3779 Y3.6397
G01 X13.3400 Y3.4428
G01 X13.3400 Y3.2925
G01 X13.7400 Y3.2925
G00 Z2.0000
G00 X14.6900 Y1.9925
G01 F60.00
G01 Z-0.0500
G01 F100.00
G01 X14.6900 Y1.9925
G01 X14.6900 Y1.5925
G01 X14.6900 Y1.9925
G00 X14.6900 Y1.9925
G01 F60.00
G01 Z-0.1000
G01 F100.00
G01 X14.6900 Y1.9925
G01 X14.6900 Y1.5925
G01 X14.6900 Y1.9925
G00 Z2.0000
G00 X14.0900 Y1.6352
G01 F60.00
G01 Z-0.0500
G01 F100.00
G01 X14.0900 Y2.0662
G01 X14.0815 Y2.0705
G01 X14.0269 Y2.1035
G01 X13.9796 Y2.1385
G01 X13.9322 Y2.1812
G01 X13.8860 Y2.2321
G01 X13.8510 Y2.2794
G01 X13.8180 Y2.3340
G01 X13.7886 Y2.3960
G01 X13.7673 Y2.4562
G01 X13.7530 Y2.5133
G01 X13.7429 Y2.5812
G01 X13.7401 Y2.6400
G01 X13.7400 Y2.6925
G01 X13.3400 Y2.6925
G01 X13.3400 Y2.5925
G01 X13.3543 Y2.4429
G01 X13.4108 Y2.2505
G01 X13.5027 Y2.0722
G01 X13.6266 Y1.9146
G01 X13.7782 Y1.7833
G01 X13.9518 Y1.6830
G01 X14.0900 Y1.6352
G00 X14.0900 Y1.6352
G01 F60.00
G01 Z-0.1000
G01 F100.00
G01 X14.0900 Y2.0662
G01 X14.0815 Y2.0705
G01 X14.0269 Y2.1035
G01 X13.9796 Y2.1385
G01 X13.9322 Y2.1812
G01 X13.8860 Y2.2321
G01 X13.8510 Y2.2794
G01 X13.8180 Y2.3340
G01 X13.7886 Y2.3960
G01 X13.7673 Y2.4562
G01 X13.7530 Y2.5133
G01 X13.7429 Y2.5812
G01 X13.7401 Y2.6400
G01 X13.7400 Y2.6925
G01 X13.3400 Y2.6925
G01 X13.3400 Y2.5925
G01 X13.3543 Y2.4429
G01 X13.4108 Y2.2505
G01 X13.5027 Y2.0722
G01 X13.6266 Y1.9146
G01 X13.7782 Y1.7833
G01 X13.9518 Y1.6830
G01 X14.0900 Y1.6352
G00 Z2.0000
G00 X15.6400 Y2.0425
G01 F60.00
G01 Z-0.0500
G01 F100.00
G01 X15.6390 Y2.0327
G01 X15.6362 Y2.0234
G01 X15.6316 Y2.0147
G01 X15.6254 Y2.0071
G01 X15.6178 Y2.0009
G01 X15.6091 Y1.9963
G01 X15.5998 Y1.9935
G01 X15.5949 Y1.9927
G01 X15.2900 Y1.9925
G01 X15.2900 Y1.5925
G01 X15.6351 Y1.5925
G01 X15.6858 Y1.5979
G01 X15.8087 Y1.6436
G01 X15.8181 Y1.6451
G01 X15.8922 Y1.6502
G01 X15.9011 Y1.6493
G01 X15.9258 Y1.6421
G01 X16.0442 Y1.5979
G01 X16.0948 Y1.5925
G01 X16.5900 Y1.5925
G01 X16.5900 Y1.9925
G01 X16.1351 Y1.9927
G01 X16.1255 Y1.9947
G01 X16.1209 Y1.9963
G01 X16.1122 Y2.0009
G01 X16.1083 Y2.0038
G01 X16.1013 Y2.0108
G01 X16.0959 Y2.0189
G01 X16.0938 Y2.0234
G01 X16.0910 Y2.0327
G01 X16.0900 Y2.0425
G01 X16.0900 Y2.6925
G01 X15.6400 Y2.6925
G01 X15.6400 Y2.0425
G00 X15.6400 Y2.0425
G01 F60.00
G01 Z-0.1000
G01 F100.00
G01 X15.6390 Y2.0327
G01 X15.6362 Y2.0234
G01 X15.6316 Y2.0147
G01 X15.6254 Y2.0071
G01 X15.6178 Y2.0009
G01 X15.6091 Y1.9963
G01 X15.5998 Y1.9935
G01 X15.5949 Y1.9927
G01 X15.2900 Y1.9925
G01 X15.2900 Y1.5925
G01 X15.6351 Y1.5925
G01 X15.6858 Y1.5979
G01 X15.8087 Y1.6436
G01 X15.8181 Y1.6451
G01 X15.8922 Y1.6502
G01 X15.9011 Y1.6493
G01 X15.9258 Y1.6421
G01 X16.0442 Y1.5979
G01 X16.0948 Y1.5925
G01 X16.5900 Y1.5925
G01 X16.5900 Y1.9925
G01 X16.1351 Y1.9927
G01 X16.1255 Y1.9947
G01 X16.1209 Y1.9963
G01 X16.1122 Y2.0009
G01 X16.1083 Y2.0038
G01 X16.1013 Y2.0108
G01 X16.0959 Y2.0189
G01 X16.0938 Y2.0234
G01 X16.0910 Y2.0327
G01 X16.0900 Y2.0425
G01 X16.0900 Y2.6925
G01 X15.6400 Y2.6925
G01 X15.6400 Y2.0425
G00 Z2.0000
G00 X17.6900 Y2.0425
G01 F60.00
G01 Z-0.0500
G01 F100.00
G01 X17.6890 Y2.0327
G01 X17.6862 Y2.0234
G01 X17.6816 Y2.0147
G01 X17.6754 Y2.0071
G01 X17.6717 Y2.0038
G01 X17.6636 Y1.9984
G01 X17.6545 Y1.9947
G01 X17.6449 Y1.9927
G01 X17.1900 Y1.9925
G01 X17.1900 Y1.5925
G01 X17.6851 Y1.5925
G01 X17.7358 Y1.5979
G01 X17.8292 Y1.6328
G01 X17.8384 Y1.6352
G01 X17.9173 Y1.6409
G01 X17.9261 Y1.6400
G01 X17.9508 Y1.6328
G01 X18.0442 Y1.5979
G01 X18.0948 Y1.5925
G01 X18.5900 Y1.5925
G01 X18.5900 Y1.9925
G01 X18.1351 Y1.9927
G01 X18.1255 Y1.9947
G01 X18.1209 Y1.9963
G01 X18.1122 Y2.0009
G01 X18.1083 Y2.0038
G01 X18.1013 Y2.0108
G01 X18.0959 Y2.0189
G01 X18.0938 Y2.0234
G01 X18.0910 Y2.0327
G01 X18.0900 Y2.0425
G01 X18.0900 Y2.6925
G01 X17.6900 Y2.6925
G01 X17.6900 Y2.0425
G00 X17.6900 Y2.0425
G01 F60.00
G01 Z-0.1000
G01 F100.00
G01 X17.6890 Y2.0327
G01 X17.6862 Y2.0234
G01 X17.6816 Y2.0147
G01 X17.6754 Y2.0071
G01 X17.6717 Y2.0038
G01 X17.6636 Y1.9984
G01 X17.6545 Y1.9947
G01 X17.6449 Y1.9927
G01 X17.1900 Y1.9925
G01 X17.1900 Y1.5925
G01 X17.6851 Y1.5925
G01 X17.7358 Y1.5979
G01 X17.8292 Y1.6328
G01 X17.8384 Y1.6352
G01 X17.9173 Y1.6409
G01 X17.9261 Y1.6400
G01 X17.9508 Y1.6328
G01 X18.0442 Y1.5979
G01 X18.0948 Y1.5925
G01 X18.5900 Y1.5925
G01 X18.5900 Y1.9925
G01 X18.1351 Y1.9927
G01 X18.1255 Y1.9947
G01 X18.1209 Y1.9963
G01 X18.1122 Y2.0009
G01 X18.1083 Y2.0038
G01 X18.1013 Y2.0108
G01 X18.0959 Y2.0189
G01 X18.0938 Y2.0234
G01 X18.0910 Y2.0327
G01 X18.0900 Y2.0425
G01 X18.0900 Y2.6925
G01 X17.6900 Y2.6925
G01 X17.6900 Y2.0425
G00 Z2.0000
G00 X19.6900 Y2.0425
G01 F60.00
G01 Z-0.0500
G01 F100.00
G01 X19.6890 Y2.0327
G01 X19.6862 Y2.0234
G01 X19.6816 Y2.0147
G01 X19.6754 Y2.0071
G01 X19.6717 Y2.0038
G01 X19.6636 Y1.9984
G01 X19.6545 Y1.9947
G01 X19.6449 Y1.9927
G01 X19.1900 Y1.9925
G01 X19.1900 Y1.5925
G01 X19.6851 Y1.5925
G01 X19.7358 Y1.5979
G01 X19.8587 Y1.6436
G01 X19.8681 Y1.6451
G01 X19.9422 Y1.6502
G01 X19.9511 Y1.6493
G01 X19.9758 Y1.6421
G01 X20.0942 Y1.5979
G01 X20.1448 Y1.5925
G01 X20.4900 Y1.5925
G01 X20.4900 Y1.9925
G01 X20.1851 Y1.9927
G01 X20.1755 Y1.9947
G01 X20.1709 Y1.9963
G01 X20.1622 Y2.0009
G01 X20.1583 Y2.0038
G01 X20.1513 Y2.0108
G01 X20.1484 Y2.0147
G01 X20.1459 Y2.0189
G01 X20.1422 Y2.0280
G01 X20.1410 Y2.0327
G01 X20.1400 Y2.0425
G01 X20.1400 Y2.6925
G01 X19.6900 Y2.6925
G01 X19.6900 Y2.0425
G00 X19.6900 Y2.0425
G01 F60.00
G01 Z-0.1000
G01 F100.00
G01 X19.6890 Y2.0327
G01 X19.6862 Y2.0234
G01 X19.6816 Y2.0147
G01 X19.6754 Y2.0071
G01 X19.6717 Y2.0038
G01 X19.6636 Y1.9984
G01 X19.6545 Y1.9947
G01 X19.6449 Y1.9927
G01 X19.1900 Y1.9925
G01 X19.1900 Y1.5925
G01 X19.6851 Y1.5925
G01 X19.7358 Y1.5979
G01 X19.8587 Y1.6436
G01 X19.8681 Y1.6451
G01 X19.9422 Y1.6502
G01 X19.9511 Y1.6493
G01 X19.9758 Y1.6421
G01 X20.0942 Y1.5979
G01 X20.1448 Y1.5925
G01 X20.4900 Y1.5925
G01 X20.4900 Y1.9925
G01 X20.1851 Y1.9927
G01 X20.1755 Y1.9947
G01 X20.1709 Y1.9963
G01 X20.1622 Y2.0009
G01 X20.1583 Y2.0038
G01 X20.1513 Y2.0108
G01 X20.1484 Y2.0147
G01 X20.1459 Y2.0189
G01 X20.1422 Y2.0280
G01 X20.1410 Y2.0327
G01 X20.1400 Y2.0425
G01 X20.1400 Y2.6925
G01 X19.6900 Y2.6925
G01 X19.6900 Y2.0425
G00 Z2.0000
G00 X21.0900 Y1.9925
G01 F60.00
G01 Z-0.0500
G01 F100.00
G01 X21.0900 Y1.9925
G01 X21.0900 Y1.5925
G01 X21.0900 Y1.9925
G00 X21.0900 Y1.9925
G01 F60.00
G01 Z-0.1000
G01 F100.00
G01 X21.0900 Y1.9925
G01 X21.0900 Y1.5925
G01 X21.0900 Y1.9925
G00 Z2.0000
G00 X22.0400 Y2.6925
G01 F60.00
G01 Z-0.0500
G01 F100.00
G01 X22.0399 Y2.6400
G01 X22.0371 Y2.5812
G01 X22.0270 Y2.5133
G01 X22.0112 Y2.4515
G01 X21.9914 Y2.3960
G01 X21.9620 Y2.3340
G01 X21.9290 Y2.2794
G01 X21.8940 Y2.2321
G01 X21.8478 Y2.1812
G01 X21.8042 Y2.1416
G01 X21.7531 Y2.1035
G01 X21.6985 Y2.0705
G01 X21.6900 Y2.0662
G01 X21.6900 Y1.6348
G01 X21.7350 Y1.6457
G01 X21.9174 Y1.7290
G01 X22.0807 Y1.8453
G01 X22.2191 Y1.9905
G01 X22.3275 Y2.1592
G01 X22.4021 Y2.3453
G01 X22.4400 Y2.5422
G01 X22.4400 Y2.6925
G01 X22.0400 Y2.6925
G00 X22.0400 Y2.6925
G01 F60.00
G01 Z-0.1000
G01 F100.00
G01 X22.0399 Y2.6400
G01 X22.0371 Y2.5812
G01 X22.0270 Y2.5133
G01 X22.0112 Y2.4515
G01 X21.9914 Y2.3960
G01 X21.9620 Y2.3340
G01 X21.9290 Y2.2794
G01 X21.8940 Y2.2321
G01 X21.8478 Y2.1812
G01 X21.8042 Y2.1416
G01 X21.7531 Y2.1035
G01 X21.6985 Y2.0705
G01 X21.6900 Y2.0662
G01 X21.6900 Y1.6348
G01 X21.7350 Y1.6457
G01 X21.9174 Y1.7290
G01 X22.0807 Y1.8453
G01 X22.2191 Y1.9905
G01 X22.3275 Y2.1592
G01 X22.4021 Y2.3453
G01 X22.4400 Y2.5422
G01 X22.4400 Y2.6925
G01 X22.0400 Y2.6925
G00 Z2.0000
G00 X21.6900 Y3.9188
G01 F60.00
G01 Z-0.0500
G01 F100.00
G01 X21.6985 Y3.9145
G01 X21.7531 Y3.8815
G01 X21.8042 Y3.8434
G01 X21.8478 Y3.8038
G01 X21.8940 Y3.7529
G01 X21.9318 Y3.7015
G01 X21.9620 Y3.6510
G01 X21.9914 Y3.5890
G01 X22.0127 Y3.5288
G01 X22.0270 Y3.4717
G01 X22.0371 Y3.4038
G01 X22.0399 Y3.3450
G01 X22.0400 Y3.2925
G01 X22.4400 Y3.2925
G01 X22.4400 Y3.3925
G01 X22.4257 Y3.5421
G01 X22.3692 Y3.7345
G01 X22.2773 Y3.9128
G01 X22.1534 Y4.0704
G01 X22.0018 Y4.2017
G01 X21.8282 Y4.3020
G01 X21.6900 Y4.3498
G01 X21.6900 Y3.9188
G00 X21.6900 Y3.9188
G01 F60.00
G01 Z-0.1000
G01 F100.00
G01 X21.6985 Y3.9145
G01 X21.7531 Y3.8815
G01 X21.8042 Y3.8434
G01 X21.8478 Y3.8038
G01 X21.8940 Y3.7529
G01 X21.9318 Y3.7015
G01 X21.9620 Y3.6510
G01 X21.9914 Y3.5890
G01 X22.0127 Y3.5288
G01 X22.0270 Y3.4717
G01 X22.0371 Y3.4038
G01 X22.0399 Y3.3450
G01 X22.0400 Y3.2925
G01 X22.4400 Y3.2925
G01 X22.4400 Y3.3925
G01 X22.4257 Y3.5421
G01 X22.3692 Y3.7345
G01 X22.2773 Y3.9128
G01 X22.1534 Y4.0704
G01 X22.0018 Y4.2017
G01 X21.8282 Y4.3020
G01 X21.6900 Y4.3498
G01 X21.6900 Y3.9188
G00 Z2.0000
G00 X20.7001 Y4.9581
G01 F60.00
G01 Z-0.0500
G01 F100.00
G01 X20.7001 Y3.9925
G01 X21.0900 Y3.9925
G01 X21.0900 Y4.4033
G01 X21.0482 Y4.4158
G01 X21.0397 Y4.4201
G01 X21.0359 Y4.4229
G01 X21.0290 Y4.4294
G01 X20.9832 Y4.4822
G01 X20.9777 Y4.4900
G01 X20.9738 Y4.4986
G01 X20.9715 Y4.5079
G01 X20.9616 Y4.5770
G01 X20.9611 Y4.5865
G01 X20.9616 Y4.5913
G01 X20.9638 Y4.6005
G01 X20.9656 Y4.6049
G01 X20.9930 Y4.6650
G01 X20.7001 Y4.9581
G00 X20.7001 Y4.9581
G01 F60.00
G01 Z-0.1000
G01 F100.00
G01 X20.7001 Y3.9925
G01 X21.0900 Y3.9925
G01 X21.0900 Y4.4033
G01 X21.0482 Y4.4158
G01 X21.0397 Y4.4201
G01 X21.0359 Y4.4229
G01 X21.0290 Y4.4294
G01 X20.9832 Y4.4822
G01 X20.9777 Y4.4900
G01 X20.9738 Y4.4986
G01 X20.9715 Y4.5079
G01 X20.9616 Y4.5770
G01 X20.9611 Y4.5865
G01 X20.9616 Y4.5913
G01 X20.9638 Y4.6005
G01 X20.9656 Y4.6049
G01 X20.9930 Y4.6650
G01 X20.7001 Y4.9581
G00 Z2.0000
G00 X21.1073 Y5.9856
G01 F60.00
G01 Z-0.0500
G01 F100.00
G01 X21.1323 Y5.9151
G01 X21.1505 Y5.8413
G01 X21.1610 Y5.7709
G01 X21.1649 Y5.6950
G01 X21.1614 Y5.6190
G01 X21.1505 Y5.5437
G01 X21.1323 Y5.4699
G01 X21.1073 Y5.3994
G01 X21.4084 Y5.0984
G01 X21.4115 Y5.1028
G01 X21.4984 Y5.2891
G01 X21.5516 Y5.4877
G01 X21.5695 Y5.6925
G01 X21.5516 Y5.8973
G01 X21.4984 Y6.0959
G01 X21.4115 Y6.2822
G01 X21.4084 Y6.2866
G01 X21.1073 Y5.9856
G00 X21.1073 Y5.9856
G01 F60.00
G01 Z-0.1000
G01 F100.00
G01 X21.1323 Y5.9151
G01 X21.1505 Y5.8413
G01 X21.1610 Y5.7709
G01 X21.1649 Y5.6950
G01 X21.1614 Y5.6190
G01 X21.1505 Y5.5437
G01 X21.1323 Y5.4699
G01 X21.1073 Y5.3994
G01 X21.4084 Y5.0984
G01 X21.4115 Y5.1028
G01 X21.4984 Y5.2891
G01 X21.5516 Y5.4877
G01 X21.5695 Y5.6925
G01 X21.5516 Y5.8973
G01 X21.4984 Y6.0959
G01 X21.4115 Y6.2822
G01 X21.4084 Y6.2866
G01 X21.1073 Y5.9856
G00 Z2.0000
G00 X19.6641 Y6.7304
G01 F60.00
G01 Z-0.0500
G01 F100.00
G01 X19.4401 Y6.5064
G01 X19.4401 Y5.9426
G01 X19.6573 Y5.9426
G01 X19.6750 Y5.9913
G01 X19.7054 Y6.0556
G01 X19.7443 Y6.1210
G01 X19.7894 Y6.1822
G01 X19.8403 Y6.2387
G01 X19.9003 Y6.2931
G01 X19.9615 Y6.3382
G01 X20.0269 Y6.3771
G01 X20.0957 Y6.4094
G01 X20.1674 Y6.4348
G01 X20.2412 Y6.4530
G01 X20.3165 Y6.4639
G01 X20.3875 Y6.4674
G01 X20.4635 Y6.4639
G01 X20.5388 Y6.4530
G01 X20.6126 Y6.4348
G01 X20.6831 Y6.4098
G01 X20.9841 Y6.7109
G01 X20.9797 Y6.7140
G01 X20.7934 Y6.8009
G01 X20.5948 Y6.8541
G01 X20.3900 Y6.8720
G01 X20.1852 Y6.8541
G01 X19.9866 Y6.8009
G01 X19.8194 Y6.7229
G01 X19.8104 Y6.7197
G01 X19.8058 Y6.7188
G01 X19.7367 Y6.7083
G01 X19.7313 Y6.7078
G01 X19.7259 Y6.7078
G01 X19.7206 Y6.7085
G01 X19.7153 Y6.7097
G01 X19.7102 Y6.7114
G01 X19.6641 Y6.7304
G00 X19.6641 Y6.7304
G01 F60.00
G01 Z-0.1000
G01 F100.00
G01 X19.4401 Y6.5064
G01 X19.4401 Y5.9426
G01 X19.6573 Y5.9426
G01 X19.6750 Y5.9913
G01 X19.7054 Y6.0556
G01 X19.7443 Y6.1210
G01 X19.7894 Y6.1822
G01 X19.8403 Y6.2387
G01 X19.9003 Y6.2931
G01 X19.9615 Y6.3382
G01 X20.0269 Y6.3771
G01 X20.0957 Y6.4094
G01 X20.1674 Y6.4348
G01 X20.2412 Y6.4530
G01 X20.3165 Y6.4639
G01 X20.3875 Y6.4674
G01 X20.4635 Y6.4639
G01 X20.5388 Y6.4530
G01 X20.6126 Y6.4348
G01 X20.6831 Y6.4098
G01 X20.9841 Y6.7109
G01 X20.9797 Y6.7140
G01 X20.7934 Y6.8009
G01 X20.5948 Y6.8541
G01 X20.3900 Y6.8720
G01 X20.1852 Y6.8541
G01 X19.9866 Y6.8009
G01 X19.8194 Y6.7229
G01 X19.8104 Y6.7197
G01 X19.8058 Y6.7188
G01 X19.7367 Y6.7083
G01 X19.7313 Y6.7078
G01 X19.7259 Y6.7078
G01 X19.7206 Y6.7085
G01 X19.7153 Y6.7097
G01 X19.7102 Y6.7114
G01 X19.6641 Y6.7304
G00 Z2.0000
G00 X17.6399 Y7.2250
G01 F60.00
G01 Z-0.0500
G01 F100.00
G01 X17.6400 Y5.0175
G01 X17.6410 Y5.0077
G01 X17.6422 Y5.0030
G01 X17.6459 Y4.9939
G01 X17.6513 Y4.9858
G01 X17.6583 Y4.9788
G01 X17.6622 Y4.9759
G01 X17.6709 Y4.9713
G01 X17.6802 Y4.9685
G01 X17.6851 Y4.9677
G01 X18.0949 Y4.9677
G01 X18.1045 Y4.9697
G01 X18.1091 Y4.9713
G01 X18.1178 Y4.9759
G01 X18.1254 Y4.9821
G01 X18.1316 Y4.9897
G01 X18.1362 Y4.9984
G01 X18.1390 Y5.0077
G01 X18.1400 Y5.0175
G01 X18.1401 Y7.1214
G01 X18.9286 Y7.9099
G01 X19.7800 Y7.9099
G01 X19.8069 Y7.9114
G01 X19.8312 Y7.9152
G01 X19.8502 Y7.9200
G01 X19.8780 Y7.9299
G01 X19.9000 Y7.9406
G01 X19.9210 Y7.9535
G01 X19.9367 Y7.9652
G01 X19.9551 Y7.9815
G01 X20.4837 Y8.5100
G01 X21.2300 Y8.5100
G01 X21.2570 Y8.5113
G01 X21.2861 Y8.5153
G01 X21.3147 Y8.5223
G01 X21.3425 Y8.5320
G01 X21.3692 Y8.5443
G01 X21.3946 Y8.5592
G01 X21.4184 Y8.5766
G01 X21.4404 Y8.5962
G01 X21.4603 Y8.6178
G01 X21.4780 Y8.6413
G01 X21.4934 Y8.6664
G01 X21.5062 Y8.6930
G01 X21.5163 Y8.7206
G01 X21.5237 Y8.7491
G01 X21.5287 Y8.7830
G01 X21.5300 Y8.8100
G01 X21.5300 Y8.8599
G01 X22.2457 Y8.8599
G01 X23.7200 Y7.3856
G01 X23.7201 Y7.1075
G01 X23.7217 Y7.0782
G01 X23.7263 Y7.0491
G01 X23.7323 Y7.0253
G01 X23.7438 Y6.9930
G01 X23.7566 Y6.9664
G01 X23.7720 Y6.9413
G01 X23.7897 Y6.9178
G01 X23.8096 Y6.8962
G01 X23.8278 Y6.8797
G01 X23.8513 Y6.8620
G01 X23.8808 Y6.8443
G01 X23.9030 Y6.8338
G01 X23.9306 Y6.8237
G01 X23.9639 Y6.8153
G01 X23.9930 Y6.8113
G01 X24.0175 Y6.8101
G01 X25.2200 Y6.8100
G01 X25.2470 Y6.8113
G01 X25.2761 Y6.8153
G01 X25.3094 Y6.8237
G01 X25.3370 Y6.8338
G01 X25.3636 Y6.8466
G01 X25.3887 Y6.8620
G01 X25.4084 Y6.8766
G01 X25.4304 Y6.8962
G01 X25.4503 Y6.9178
G01 X25.4708 Y6.9454
G01 X25.4857 Y6.9708
G01 X25.4962 Y6.9930
G01 X25.5077 Y7.0253
G01 X25.5137 Y7.0491
G01 X25.5183 Y7.0782
G01 X25.5200 Y7.1100
G01 X25.5200 Y7.9100
G01 X25.5187 Y7.9370
G01 X25.5137 Y7.9709
G01 X25.5063 Y7.9994
G01 X25.4962 Y8.0270
G01 X25.4834 Y8.0536
G01 X25.4680 Y8.0787
G01 X25.4534 Y8.0984
G01 X25.4338 Y8.1204
G01 X25.4084 Y8.1434
G01 X25.3846 Y8.1608
G01 X25.3592 Y8.1757
G01 X25.3325 Y8.1880
G01 X25.3047 Y8.1977
G01 X25.2809 Y8.2037
G01 X25.2518 Y8.2083
G01 X25.2200 Y8.2100
G01 X24.0200 Y8.2100
G01 X23.9930 Y8.2087
G01 X23.9591 Y8.2037
G01 X23.9306 Y8.1963
G01 X23.9030 Y8.1862
G01 X23.8764 Y8.1734
G01 X23.8554 Y8.1608
G01 X23.8316 Y8.1434
G01 X23.8206 Y8.1338
G01 X22.5822 Y9.3722
G01 X22.5623 Y9.3904
G01 X22.5387 Y9.4081
G01 X22.5093 Y9.4258
G01 X22.4871 Y9.4363
G01 X22.4595 Y9.4464
G01 X22.4309 Y9.4538
G01 X22.4019 Y9.4584
G01 X22.3725 Y9.4601
G01 X21.5300 Y9.4601
G01 X21.5300 Y9.5100
G01 X21.5287 Y9.5370
G01 X21.5237 Y9.5709
G01 X21.5163 Y9.5994
G01 X21.5062 Y9.6270
G01 X21.4934 Y9.6536
G01 X21.4780 Y9.6787
G01 X21.4603 Y9.7022
G01 X21.4404 Y9.7238
G01 X21.4184 Y9.7434
G01 X21.3946 Y9.7608
G01 X21.3692 Y9.7757
G01 X21.3425 Y9.7880
G01 X21.3147 Y9.7977
G01 X21.2861 Y9.8047
G01 X21.2570 Y9.8087
G01 X21.2300 Y9.8100
G01 X20.3300 Y9.8100
G01 X20.3030 Y9.8087
G01 X20.2691 Y9.8037
G01 X20.2453 Y9.7977
G01 X20.2175 Y9.7880
G01 X20.1908 Y9.7757
G01 X20.1654 Y9.7608
G01 X20.1378 Y9.7403
G01 X20.1162 Y9.7204
G01 X20.0997 Y9.7022
G01 X20.0792 Y9.6746
G01 X20.0643 Y9.6492
G01 X20.0538 Y9.6270
G01 X20.0423 Y9.5947
G01 X20.0363 Y9.5709
G01 X20.0317 Y9.5418
G01 X20.0300 Y9.5100
G01 X20.0300 Y8.8100
G01 X20.0313 Y8.7830
G01 X20.0334 Y8.7671
G01 X19.6764 Y8.4101
G01 X18.8225 Y8.4100
G01 X18.7981 Y8.4086
G01 X18.7738 Y8.4048
G01 X18.7548 Y8.4000
G01 X18.7270 Y8.3901
G01 X18.7050 Y8.3794
G01 X18.6840 Y8.3665
G01 X18.6683 Y8.3548
G01 X18.6482 Y8.3368
G01 X17.7115 Y7.4001
G01 X17.6952 Y7.3817
G01 X17.6807 Y7.3619
G01 X17.6683 Y7.3407
G01 X17.6581 Y7.3184
G01 X17.6500 Y7.2952
G01 X17.6443 Y7.2714
G01 X17.6409 Y7.2471
G01 X17.6399 Y7.2250
G00 X17.6399 Y7.2250
G01 F60.00
G01 Z-0.1000
G01 F100.00
G01 X17.6400 Y5.0175
G01 X17.6410 Y5.0077
G01 X17.6422 Y5.0030
G01 X17.6459 Y4.9939
G01 X17.6513 Y4.9858
G01 X17.6583 Y4.9788
G01 X17.6622 Y4.9759
G01 X17.6709 Y4.9713
G01 X17.6802 Y4.9685
G01 X17.6851 Y4.9677
G01 X18.0949 Y4.9677
G01 X18.1045 Y4.9697
G01 X18.1091 Y4.9713
G01 X18.1178 Y4.9759
G01 X18.1254 Y4.9821
G01 X18.1316 Y4.9897
G01 X18.1362 Y4.9984
G01 X18.1390 Y5.0077
G01 X18.1400 Y5.0175
G01 X18.1401 Y7.1214
G01 X18.9286 Y7.9099
G01 X19.7800 Y7.9099
G01 X19.8069 Y7.9114
G01 X19.8312 Y7.9152
G01 X19.8502 Y7.9200
G01 X19.8780 Y7.9299
G01 X19.9000 Y7.9406
G01 X19.9210 Y7.9535
G01 X19.9367 Y7.9652
G01 X19.9551 Y7.9815
G01 X20.4837 Y8.5100
G01 X21.2300 Y8.5100
G01 X21.2570 Y8.5113
G01 X21.2861 Y8.5153
G01 X21.3147 Y8.5223
G01 X21.3425 Y8.5320
G01 X21.3692 Y8.5443
G01 X21.3946 Y8.5592
G01 X21.4184 Y8.5766
G01 X21.4404 Y8.5962
G01 X21.4603 Y8.6178
G01 X21.4780 Y8.6413
G01 X21.4934 Y8.6664
G01 X21.5062 Y8.6930
G01 X21.5163 Y8.7206
G01 X21.5237 Y8.7491
G01 X21.5287 Y8.7830
G01 X21.5300 Y8.8100
G01 X21.5300 Y8.8599
G01 X22.2457 Y8.8599
G01 X23.7200 Y7.3856
G01 X23.7201 Y7.1075
G01 X23.7217 Y7.0782
G01 X23.7263 Y7.0491
G01 X23.7323 Y7.0253
G01 X23.7438 Y6.9930
G01 X23.7566 Y6.9664
G01 X23.7720 Y6.9413
G01 X23.7897 Y6.9178
G01 X23.8096 Y6.8962
G01 X23.8278 Y6.8797
G01 X23.8513 Y6.8620
G01 X23.8808 Y6.8443
G01 X23.9030 Y6.8338
G01 X23.9306 Y6.8237
G01 X23.9639 Y6.8153
G01 X23.9930 Y6.8113
G01 X24.0175 Y6.8101
G01 X25.2200 Y6.8100
G01 X25.2470 Y6.8113
G01 X25.2761 Y6.8153
G01 X25.3094 Y6.8237
G01 X25.3370 Y6.8338
G01 X25.3636 Y6.8466
G01 X25.3887 Y6.8620
G01 X25.4084 Y6.8766
G01 X25.4304 Y6.8962
G01 X25.4503 Y6.9178
G01 X25.4708 Y6.9454
G01 X25.4857 Y6.9708
G01 X25.4962 Y6.9930
G01 X25.5077 Y7.0253
G01 X25.5137 Y7.0491
G01 X25.5183 Y7.0782
G01 X25.5200 Y7.1100
G01 X25.5200 Y7.9100
G01 X25.5187 Y7.9370
G01 X25.5137 Y7.9709
G01 X25.5063 Y7.9994
G01 X25.4962 Y8.0270
G01 X25.4834 Y8.0536
G01 X25.4680 Y8.0787
G01 X25.4534 Y8.0984
G01 X25.4338 Y8.1204
G01 X25.4084 Y8.1434
G01 X25.3846 Y8.1608
G01 X25.3592 Y8.1757
G01 X25.3325 Y8.1880
G01 X25.3047 Y8.1977
G01 X25.2809 Y8.2037
G01 X25.2518 Y8.2083
G01 X25.2200 Y8.2100
G01 X24.0200 Y8.2100
G01 X23.9930 Y8.2087
G01 X23.9591 Y8.2037
G01 X23.9306 Y8.1963
G01 X23.9030 Y8.1862
G01 X23.8764 Y8.1734
G01 X23.8554 Y8.1608
G01 X23.8316 Y8.1434
G01 X23.8206 Y8.1338
G01 X22.5822 Y9.3722
G01 X22.5623 Y9.3904
G01 X22.5387 Y9.4081
G01 X22.5093 Y9.4258
G01 X22.4871 Y9.4363
G01 X22.4595 Y9.4464
G01 X22.4309 Y9.4538
G01 X22.4019 Y9.4584
G01 X22.3725 Y9.4601
G01 X21.5300 Y9.4601
G01 X21.5300 Y9.5100
G01 X21.5287 Y9.5370
G01 X21.5237 Y9.5709
G01 X21.5163 Y9.5994
G01 X21.5062 Y9.6270
G01 X21.4934 Y9.6536
G01 X21.4780 Y9.6787
G01 X21.4603 Y9.7022
G01 X21.4404 Y9.7238
G01 X21.4184 Y9.7434
G01 X21.3946 Y9.7608
G01 X21.3692 Y9.7757
G01 X21.3425 Y9.7880
G01 X21.3147 Y9.7977
G01 X21.2861 Y9.8047
G01 X21.2570 Y9.8087
G01 X21.2300 Y9.8100
G01 X20.3300 Y9.8100
G01 X20.3030 Y9.8087
G01 X20.2691 Y9.8037
G01 X20.2453 Y9.7977
G01 X20.2175 Y9.7880
G01 X20.1908 Y9.7757
G01 X20.1654 Y9.7608
G01 X20.1378 Y9.7403
G01 X20.1162 Y9.7204
G01 X20.0997 Y9.7022
G01 X20.0792 Y9.6746
G01 X20.0643 Y9.6492
G01 X20.0538 Y9.6270
G01 X20.0423 Y9.5947
G01 X20.0363 Y9.5709
G01 X20.0317 Y9.5418
G01 X20.0300 Y9.5100
G01 X20.0300 Y8.8100
G01 X20.0313 Y8.7830
G01 X20.0334 Y8.7671
G01 X19.6764 Y8.4101
G01 X18.8225 Y8.4100
G01 X18.7981 Y8.4086
G01 X18.7738 Y8.4048
G01 X18.7548 Y8.4000
G01 X18.7270 Y8.3901
G01 X18.7050 Y8.3794
G01 X18.6840 Y8.3665
G01 X18.6683 Y8.3548
G01 X18.6482 Y8.3368
G01 X17.7115 Y7.4001
G01 X17.6952 Y7.3817
G01 X17.6807 Y7.3619
G01 X17.6683 Y7.3407
G01 X17.6581 Y7.3184
G01 X17.6500 Y7.2952
G01 X17.6443 Y7.2714
G01 X17.6409 Y7.2471
G01 X17.6399 Y7.2250
G00 Z2.0000
G00 X18.3400 Y4.9675
G01 F60.00
G01 Z-0.0500
G01 F100.00
G01 X18.7449 Y4.9677
G01 X18.7545 Y4.9697
G01 X18.7591 Y4.9713
G01 X18.7678 Y4.9759
G01 X18.7717 Y4.9788
G01 X18.7787 Y4.9858
G01 X18.7816 Y4.9897
G01 X18.7841 Y4.9939
G01 X18.7878 Y5.0030
G01 X18.7890 Y5.0077
G01 X18.7900 Y5.0175
G01 X18.7900 Y6.3675
G01 X18.7898 Y6.3724
G01 X18.7878 Y6.3820
G01 X18.7841 Y6.3911
G01 X18.7816 Y6.3953
G01 X18.7754 Y6.4029
G01 X18.7717 Y6.4062
G01 X18.7636 Y6.4116
G01 X18.7545 Y6.4153
G01 X18.7449 Y6.4173
G01 X18.7400 Y6.4175
G01 X18.3351 Y6.4173
G01 X18.3302 Y6.4165
G01 X18.3209 Y6.4137
G01 X18.3164 Y6.4116
G01 X18.3083 Y6.4062
G01 X18.3013 Y6.3992
G01 X18.2984 Y6.3953
G01 X18.2959 Y6.3911
G01 X18.2922 Y6.3820
G01 X18.2910 Y6.3773
G01 X18.2900 Y6.3675
G01 X18.2900 Y5.0175
G01 X18.2910 Y5.0077
G01 X18.2938 Y4.9984
G01 X18.2984 Y4.9897
G01 X18.3046 Y4.9821
G01 X18.3122 Y4.9759
G01 X18.3209 Y4.9713
G01 X18.3302 Y4.9685
G01 X18.3400 Y4.9675
G00 X18.3400 Y4.9675
G01 F60.00
G01 Z-0.1000
G01 F100.00
G01 X18.7449 Y4.9677
G01 X18.7545 Y4.9697
G01 X18.7591 Y4.9713
G01 X18.7678 Y4.9759
G01 X18.7717 Y4.9788
G01 X18.7787 Y4.9858
G01 X18.7816 Y4.9897
G01 X18.7841 Y4.9939
G01 X18.7878 Y5.0030
G01 X18.7890 Y5.0077
G01 X18.7900 Y5.0175
G01 X18.7900 Y6.3675
G01 X18.7898 Y6.3724
G01 X18.7878 Y6.3820
G01 X18.7841 Y6.3911
G01 X18.7816 Y6.3953
G01 X18.7754 Y6.4029
G01 X18.7717 Y6.4062
G01 X18.7636 Y6.4116
G01 X18.7545 Y6.4153
G01 X18.7449 Y6.4173
G01 X18.7400 Y6.4175
G01 X18.3351 Y6.4173
G01 X18.3302 Y6.4165
G01 X18.3209 Y6.4137
G01 X18.3164 Y6.4116
G01 X18.3083 Y6.4062
G01 X18.3013 Y6.3992
G01 X18.2984 Y6.3953
G01 X18.2959 Y6.3911
G01 X18.2922 Y6.3820
G01 X18.2910 Y6.3773
G01 X18.2900 Y6.3675
G01 X18.2900 Y5.0175
G01 X18.2910 Y5.0077
G01 X18.2938 Y4.9984
G01 X18.2984 Y4.9897
G01 X18.3046 Y4.9821
G01 X18.3122 Y4.9759
G01 X18.3209 Y4.9713
G01 X18.3302 Y4.9685
G01 X18.3400 Y4.9675
G00 Z2.0000
G00 X23.3200 Y4.4037
G01 F60.00
G01 Z-0.0500
G01 F100.00
G01 X23.4137 Y4.3100
G01 X23.7200 Y4.3100
G01 X23.7200 Y4.4100
G01 X23.7217 Y4.4418
G01 X23.7263 Y4.4709
G01 X23.7323 Y4.4947
G01 X23.7420 Y4.5225
G01 X23.7566 Y4.5536
G01 X23.7720 Y4.5787
G01 X23.7866 Y4.5984
G01 X23.8096 Y4.6238
G01 X23.8316 Y4.6434
G01 X23.8554 Y4.6608
G01 X23.8808 Y4.6757
G01 X23.9030 Y4.6862
G01 X23.9306 Y4.6963
G01 X23.9591 Y4.7037
G01 X23.9882 Y4.7083
G01 X24.0200 Y4.7100
G01 X24.3200 Y4.7100
G01 X24.3200 Y5.1100
G01 X23.9726 Y5.1100
G01 X23.8778 Y5.1003
G01 X23.7222 Y5.0487
G01 X23.5829 Y4.9628
G01 X23.4672 Y4.8471
G01 X23.3813 Y4.7079
G01 X23.3297 Y4.5522
G01 X23.3200 Y4.4574
G01 X23.3200 Y4.4037
G00 X23.3200 Y4.4037
G01 F60.00
G01 Z-0.1000
G01 F100.00
G01 X23.4137 Y4.3100
G01 X23.7200 Y4.3100
G01 X23.7200 Y4.4100
G01 X23.7217 Y4.4418
G01 X23.7263 Y4.4709
G01 X23.7323 Y4.4947
G01 X23.7420 Y4.5225
G01 X23.7566 Y4.5536
G01 X23.7720 Y4.5787
G01 X23.7866 Y4.5984
G01 X23.8096 Y4.6238
G01 X23.8316 Y4.6434
G01 X23.8554 Y4.6608
G01 X23.8808 Y4.6757
G01 X23.9030 Y4.6862
G01 X23.9306 Y4.6963
G01 X23.9591 Y4.7037
G01 X23.9882 Y4.7083
G01 X24.0200 Y4.7100
G01 X24.3200 Y4.7100
G01 X24.3200 Y5.1100
G01 X23.9726 Y5.1100
G01 X23.8778 Y5.1003
G01 X23.7222 Y5.0487
G01 X23.5829 Y4.9628
G01 X23.4672 Y4.8471
G01 X23.3813 Y4.7079
G01 X23.3297 Y4.5522
G01 X23.3200 Y4.4574
G01 X23.3200 Y4.4037
G00 Z2.0000
G00 X23.7222 Y2.9713
G01 F60.00
G01 Z-0.0500
G01 F100.00
G01 X23.8778 Y2.9197
G01 X23.9726 Y2.9100
G01 X24.3200 Y2.9100
G01 X24.3200 Y3.3100
G01 X24.0200 Y3.3100
G01 X23.9882 Y3.3117
G01 X23.9591 Y3.3163
G01 X23.9306 Y3.3237
G01 X23.9030 Y3.3338
G01 X23.8808 Y3.3443
G01 X23.8554 Y3.3592
G01 X23.8278 Y3.3797
G01 X23.8096 Y3.3962
G01 X23.7897 Y3.4178
G01 X23.7692 Y3.4454
G01 X23.7543 Y3.4708
G01 X23.7420 Y3.4975
G01 X23.7323 Y3.5253
G01 X23.7263 Y3.5491
G01 X23.7217 Y3.5782
G01 X23.7200 Y3.6100
G01 X23.7200 Y3.7100
G01 X23.3200 Y3.7100
G01 X23.3200 Y3.5626
G01 X23.3297 Y3.4678
G01 X23.3813 Y3.3122
G01 X23.4672 Y3.1729
G01 X23.5829 Y3.0572
G01 X23.7222 Y2.9713
G00 X23.7222 Y2.9713
G01 F60.00
G01 Z-0.1000
G01 F100.00
G01 X23.8778 Y2.9197
G01 X23.9726 Y2.9100
G01 X24.3200 Y2.9100
G01 X24.3200 Y3.3100
G01 X24.0200 Y3.3100
G01 X23.9882 Y3.3117
G01 X23.9591 Y3.3163
G01 X23.9306 Y3.3237
G01 X23.9030 Y3.3338
G01 X23.8808 Y3.3443
G01 X23.8554 Y3.3592
G01 X23.8278 Y3.3797
G01 X23.8096 Y3.3962
G01 X23.7897 Y3.4178
G01 X23.7692 Y3.4454
G01 X23.7543 Y3.4708
G01 X23.7420 Y3.4975
G01 X23.7323 Y3.5253
G01 X23.7263 Y3.5491
G01 X23.7217 Y3.5782
G01 X23.7200 Y3.6100
G01 X23.7200 Y3.7100
G01 X23.3200 Y3.7100
G01 X23.3200 Y3.5626
G01 X23.3297 Y3.4678
G01 X23.3813 Y3.3122
G01 X23.4672 Y3.1729
G01 X23.5829 Y3.0572
G01 X23.7222 Y2.9713
G00 Z2.0000
G00 X24.9200 Y3.3100
G01 F60.00
G01 Z-0.0500
G01 F100.00
G01 X24.9200 Y2.9100
G01 X25.2674 Y2.9100
G01 X25.3622 Y2.9197
G01 X25.5178 Y2.9713
G01 X25.6571 Y3.0572
G01 X25.7728 Y3.1729
G01 X25.8587 Y3.3122
G01 X25.9103 Y3.4678
G01 X25.9200 Y3.5626
G01 X25.9200 Y3.7100
G01 X25.5200 Y3.7100
G01 X25.5200 Y3.6100
G01 X25.5183 Y3.5782
G01 X25.5137 Y3.5491
G01 X25.5077 Y3.5253
G01 X25.4980 Y3.4975
G01 X25.4834 Y3.4664
G01 X25.4680 Y3.4413
G01 X25.4534 Y3.4216
G01 X25.4304 Y3.3962
G01 X25.4084 Y3.3766
G01 X25.3846 Y3.3592
G01 X25.3592 Y3.3443
G01 X25.3370 Y3.3338
G01 X25.3094 Y3.3237
G01 X25.2809 Y3.3163
G01 X25.2518 Y3.3117
G01 X25.2200 Y3.3100
G01 X24.9200 Y3.3100
G00 X24.9200 Y3.3100
G01 F60.00
G01 Z-0.1000
G01 F100.00
G01 X24.9200 Y2.9100
G01 X25.2674 Y2.9100
G01 X25.3622 Y2.9197
G01 X25.5178 Y2.9713
G01 X25.6571 Y3.0572
G01 X25.7728 Y3.1729
G01 X25.8587 Y3.3122
G01 X25.9103 Y3.4678
G01 X25.9200 Y3.5626
G01 X25.9200 Y3.7100
G01 X25.5200 Y3.7100
G01 X25.5200 Y3.6100
G01 X25.5183 Y3.5782
G01 X25.5137 Y3.5491
G01 X25.5077 Y3.5253
G01 X25.4980 Y3.4975
G01 X25.4834 Y3.4664
G01 X25.4680 Y3.4413
G01 X25.4534 Y3.4216
G01 X25.4304 Y3.3962
G01 X25.4084 Y3.3766
G01 X25.3846 Y3.3592
G01 X25.3592 Y3.3443
G01 X25.3370 Y3.3338
G01 X25.3094 Y3.3237
G01 X25.2809 Y3.3163
G01 X25.2518 Y3.3117
G01 X25.2200 Y3.3100
G01 X24.9200 Y3.3100
G00 Z2.0000
G00 X25.3325 Y4.6880
G01 F60.00
G01 Z-0.0500
G01 F100.00
G01 X25.3592 Y4.6757
G01 X25.3846 Y4.6608
G01 X25.4084 Y4.6434
G01 X25.4304 Y4.6238
G01 X25.4503 Y4.6022
G01 X25.4680 Y4.5787
G01 X25.4857 Y4.5492
G01 X25.4980 Y4.5225
G01 X25.5077 Y4.4947
G01 X25.5137 Y4.4709
G01 X25.5183 Y4.4418
G01 X25.5200 Y4.4100
G01 X25.5200 Y4.3100
G01 X25.9200 Y4.3100
G01 X25.9200 Y4.4574
G01 X25.9103 Y4.5522
G01 X25.8587 Y4.7078
G01 X25.7728 Y4.8471
G01 X25.6571 Y4.9628
G01 X25.5178 Y5.0487
G01 X25.3622 Y5.1003
G01 X25.2674 Y5.1100
G01 X24.9200 Y5.1100
G01 X24.9200 Y4.7100
G01 X25.2200 Y4.7100
G01 X25.2470 Y4.7087
G01 X25.2809 Y4.7037
G01 X25.3094 Y4.6963
G01 X25.3325 Y4.6880
G00 X25.3325 Y4.6880
G01 F60.00
G01 Z-0.1000
G01 F100.00
G01 X25.3592 Y4.6757
G01 X25.3846 Y4.6608
G01 X25.4084 Y4.6434
G01 X25.4304 Y4.6238
G01 X25.4503 Y4.6022
G01 X25.4680 Y4.5787
G01 X25.4857 Y4.5492
G01 X25.4980 Y4.5225
G01 X25.5077 Y4.4947
G01 X25.5137 Y4.4709
G01 X25.5183 Y4.4418
G01 X25.5200 Y4.4100
G01 X25.5200 Y4.3100
G01 X25.9200 Y4.3100
G01 X25.9200 Y4.4574
G01 X25.9103 Y4.5522
G01 X25.8587 Y4.7078
G01 X25.7728 Y4.8471
G01 X25.6571 Y4.9628
G01 X25.5178 Y5.0487
G01 X25.3622 Y5.1003
G01 X25.2674 Y5.1100
G01 X24.9200 Y5.1100
G01 X24.9200 Y4.7100
G01 X25.2200 Y4.7100
G01 X25.2470 Y4.7087
G01 X25.2809 Y4.7037
G01 X25.3094 Y4.6963
G01 X25.3325 Y4.6880
G00 Z2.0000
G00 X20.2175 Y10.5320
G01 F60.00
G01 Z-0.0500
G01 F100.00
G01 X20.2453 Y10.5223
G01 X20.2739 Y10.5153
G01 X20.3030 Y10.5113
G01 X20.3300 Y10.5100
G01 X21.2300 Y10.5100
G01 X21.2570 Y10.5113
G01 X21.2861 Y10.5153
G01 X21.3194 Y10.5237
G01 X21.3470 Y10.5338
G01 X21.3736 Y10.5466
G01 X21.3987 Y10.5620
G01 X21.4184 Y10.5766
G01 X21.4404 Y10.5962
G01 X21.4603 Y10.6178
G01 X21.4780 Y10.6413
G01 X21.4934 Y10.6664
G01 X21.5080 Y10.6975
G01 X21.5163 Y10.7206
G01 X21.5237 Y10.7491
G01 X21.5283 Y10.7782
G01 X21.5289 Y10.7866
G01 X23.0178 Y9.2978
G01 X23.0415 Y9.2765
G01 X23.0613 Y9.2619
G01 X23.0864 Y9.2465
G01 X23.1174 Y9.2318
G01 X23.1452 Y9.2221
G01 X23.1691 Y9.2162
G01 X23.1981 Y9.2116
G01 X23.2300 Y9.2099
G01 X26.7757 Y9.2099
G01 X28.2496 Y7.7361
G01 X28.2677 Y7.7196
G01 X28.2913 Y7.7019
G01 X28.3207 Y7.6842
G01 X28.3474 Y7.6718
G01 X28.3752 Y7.6621
G01 X28.3991 Y7.6562
G01 X28.4281 Y7.6516
G01 X28.4600 Y7.6499
G01 X30.9200 Y7.6499
G01 X30.9470 Y7.6511
G01 X30.9761 Y7.6552
G01 X31.0095 Y7.6636
G01 X31.0326 Y7.6718
G01 X31.0593 Y7.6842
G01 X31.0847 Y7.6991
G01 X31.1085 Y7.7165
G01 X31.1322 Y7.7378
G01 X32.2122 Y8.8178
G01 X32.2304 Y8.8377
G01 X32.2481 Y8.8613
G01 X32.2658 Y8.8907
G01 X32.2782 Y8.9174
G01 X32.2864 Y8.9405
G01 X32.2938 Y8.9691
G01 X32.2984 Y8.9981
G01 X32.3001 Y9.0300
G01 X32.3001 Y11.9700
G01 X32.2989 Y11.9970
G01 X32.2948 Y12.0261
G01 X32.2879 Y12.0548
G01 X32.2763 Y12.0871
G01 X32.2658 Y12.1093
G01 X32.2509 Y12.1347
G01 X32.2304 Y12.1623
G01 X32.2122 Y12.1822
G01 X31.6322 Y12.7622
G01 X31.6085 Y12.7835
G01 X31.5887 Y12.7981
G01 X31.5636 Y12.8135
G01 X31.5371 Y12.8263
G01 X31.5048 Y12.8379
G01 X31.4809 Y12.8438
G01 X31.4519 Y12.8484
G01 X31.4200 Y12.8501
G01 X31.0174 Y12.8501
G01 X31.0005 Y12.8967
G01 X30.9625 Y12.9764
G01 X30.9196 Y13.0479
G01 X30.8672 Y13.1190
G01 X30.8046 Y13.1881
G01 X30.7390 Y13.2472
G01 X30.6720 Y13.2969
G01 X30.5921 Y13.3448
G01 X30.5121 Y13.3824
G01 X30.4336 Y13.4105
G01 X30.3432 Y13.4331
G01 X30.2607 Y13.4454
G01 X30.1725 Y13.4499
G01 X30.0793 Y13.4454
G01 X29.9968 Y13.4331
G01 X29.9111 Y13.4119
G01 X29.8279 Y13.3824
G01 X29.7479 Y13.3448
G01 X29.6680 Y13.2969
G01 X29.5972 Y13.2441
G01 X29.5354 Y13.1881
G01 X29.4728 Y13.1190
G01 X29.4204 Y13.0479
G01 X29.3775 Y12.9764
G01 X29.3395 Y12.8967
G01 X29.3226 Y12.8501
G01 X24.4293 Y12.8501
G01 X24.2751 Y13.0043
G01 X24.2751 Y13.3300
G01 X24.3000 Y13.3300
G01 X24.3098 Y13.3310
G01 X24.3191 Y13.3338
G01 X24.3278 Y13.3384
G01 X24.3354 Y13.3446
G01 X24.3387 Y13.3483
G01 X24.3441 Y13.3564
G01 X24.3478 Y13.3655
G01 X24.3498 Y13.3751
G01 X24.3500 Y13.3800
G01 X24.3500 Y15.0800
G01 X24.3490 Y15.0898
G01 X24.3462 Y15.0991
G01 X24.3416 Y15.1078
G01 X24.3354 Y15.1154
G01 X24.3278 Y15.1216
G01 X24.3236 Y15.1241
G01 X24.3145 Y15.1278
G01 X24.3049 Y15.1298
G01 X23.6451 Y15.1298
G01 X23.6402 Y15.1290
G01 X23.6309 Y15.1262
G01 X23.6222 Y15.1216
G01 X23.6146 Y15.1154
G01 X23.6084 Y15.1078
G01 X23.6038 Y15.0991
G01 X23.6022 Y15.0945
G01 X23.6002 Y15.0849
G01 X23.6000 Y13.3800
G01 X23.6010 Y13.3702
G01 X23.6038 Y13.3609
G01 X23.6059 Y13.3564
G01 X23.6084 Y13.3522
G01 X23.6146 Y13.3446
G01 X23.6222 Y13.3384
G01 X23.6309 Y13.3338
G01 X23.6402 Y13.3310
G01 X23.6500 Y13.3300
G01 X23.6749 Y13.3300
G01 X23.6749 Y12.8800
G01 X23.6761 Y12.8530
G01 X23.6802 Y12.8239
G01 X23.6886 Y12.7905
G01 X23.6987 Y12.7629
G01 X23.7092 Y12.7407
G01 X23.7241 Y12.7153
G01 X23.7446 Y12.6877
G01 X23.7628 Y12.6678
G01 X24.0928 Y12.3378
G01 X24.1165 Y12.3165
G01 X24.1403 Y12.2991
G01 X24.1657 Y12.2842
G01 X24.1879 Y12.2737
G01 X24.2155 Y12.2636
G01 X24.2489 Y12.2552
G01 X24.2780 Y12.2511
G01 X24.3050 Y12.2499
G01 X29.3226 Y12.2499
G01 X29.3395 Y12.2033
G01 X29.3775 Y12.1236
G01 X29.4231 Y12.0480
G01 X29.4728 Y11.9810
G01 X29.5354 Y11.9119
G01 X29.5972 Y11.8559
G01 X29.6680 Y11.8031
G01 X29.7479 Y11.7552
G01 X29.8279 Y11.7176
G01 X29.9064 Y11.6895
G01 X29.9968 Y11.6669
G01 X30.0793 Y11.6546
G01 X30.1675 Y11.6501
G01 X30.2607 Y11.6546
G01 X30.3432 Y11.6669
G01 X30.4289 Y11.6881
G01 X30.5121 Y11.7176
G01 X30.5921 Y11.7552
G01 X30.6720 Y11.8031
G01 X30.7428 Y11.8559
G01 X30.8046 Y11.9119
G01 X30.8672 Y11.9810
G01 X30.9196 Y12.0521
G01 X30.9625 Y12.1236
G01 X31.0005 Y12.2033
G01 X31.0174 Y12.2499
G01 X31.2957 Y12.2499
G01 X31.6999 Y11.8457
G01 X31.6999 Y9.1543
G01 X30.7957 Y8.2501
G01 X28.5843 Y8.2501
G01 X27.1122 Y9.7222
G01 X27.0885 Y9.7435
G01 X27.0687 Y9.7581
G01 X27.0436 Y9.7735
G01 X27.0171 Y9.7863
G01 X26.9848 Y9.7979
G01 X26.9609 Y9.8038
G01 X26.9319 Y9.8084
G01 X26.9000 Y9.8101
G01 X23.3543 Y9.8101
G01 X21.7922 Y11.3722
G01 X21.7723 Y11.3904
G01 X21.7487 Y11.4081
G01 X21.7193 Y11.4258
G01 X21.6926 Y11.4382
G01 X21.6648 Y11.4479
G01 X21.6361 Y11.4548
G01 X21.6070 Y11.4589
G01 X21.5800 Y11.4601
G01 X21.5300 Y11.4601
G01 X21.5300 Y11.5100
G01 X21.5287 Y11.5370
G01 X21.5247 Y11.5661
G01 X21.5177 Y11.5947
G01 X21.5080 Y11.6225
G01 X21.4957 Y11.6492
G01 X21.4808 Y11.6746
G01 X21.4634 Y11.6984
G01 X21.4438 Y11.7204
G01 X21.4222 Y11.7403
G01 X21.3987 Y11.7580
G01 X21.3736 Y11.7734
G01 X21.3470 Y11.7862
G01 X21.3194 Y11.7963
G01 X21.2909 Y11.8037
G01 X21.2618 Y11.8083
G01 X21.2300 Y11.8100
G01 X20.3300 Y11.8100
G01 X20.3030 Y11.8087
G01 X20.2739 Y11.8047
G01 X20.2453 Y11.7977
G01 X20.2175 Y11.7880
G01 X20.1864 Y11.7734
G01 X20.1613 Y11.7580
G01 X20.1378 Y11.7403
G01 X20.1162 Y11.7204
G01 X20.0966 Y11.6984
G01 X20.0820 Y11.6787
G01 X20.0666 Y11.6536
G01 X20.0520 Y11.6225
G01 X20.0437 Y11.5994
G01 X20.0363 Y11.5709
G01 X20.0313 Y11.5370
G01 X20.0300 Y11.5100
G01 X20.0300 Y10.8100
G01 X20.0317 Y10.7782
G01 X20.0363 Y10.7491
G01 X20.0423 Y10.7253
G01 X20.0520 Y10.6975
G01 X20.0666 Y10.6664
G01 X20.0820 Y10.6413
G01 X20.0966 Y10.6216
G01 X20.1196 Y10.5962
G01 X20.1416 Y10.5766
G01 X20.1613 Y10.5620
G01 X20.1864 Y10.5466
G01 X20.2175 Y10.5320
G00 X20.2175 Y10.5320
G01 F60.00
G01 Z-0.1000
G01 F100.00
G01 X20.2453 Y10.5223
G01 X20.2739 Y10.5153
G01 X20.3030 Y10.5113
G01 X20.3300 Y10.5100
G01 X21.2300 Y10.5100
G01 X21.2570 Y10.5113
G01 X21.2861 Y10.5153
G01 X21.3194 Y10.5237
G01 X21.3470 Y10.5338
G01 X21.3736 Y10.5466
G01 X21.3987 Y10.5620
G01 X21.4184 Y10.5766
G01 X21.4404 Y10.5962
G01 X21.4603 Y10.6178
G01 X21.4780 Y10.6413
G01 X21.4934 Y10.6664
G01 X21.5080 Y10.6975
G01 X21.5163 Y10.7206
G01 X21.5237 Y10.7491
G01 X21.5283 Y10.7782
G01 X21.5289 Y10.7866
G01 X23.0178 Y9.2978
G01 X23.0415 Y9.2765
G01 X23.0613 Y9.2619
G01 X23.0864 Y9.2465
G01 X23.1174 Y9.2318
G01 X23.1452 Y9.2221
G01 X23.1691 Y9.2162
G01 X23.1981 Y9.2116
G01 X23.2300 Y9.2099
G01 X26.7757 Y9.2099
G01 X28.2496 Y7.7361
G01 X28.2677 Y7.7196
G01 X28.2913 Y7.7019
G01 X28.3207 Y7.6842
G01 X28.3474 Y7.6718
G01 X28.3752 Y7.6621
G01 X28.3991 Y7.6562
G01 X28.4281 Y7.6516
G01 X28.4600 Y7.6499
G01 X30.9200 Y7.6499
G01 X30.9470 Y7.6511
G01 X30.9761 Y7.6552
G01 X31.0095 Y7.6636
G01 X31.0326 Y7.6718
G01 X31.0593 Y7.6842
G01 X31.0847 Y7.6991
G01 X31.1085 Y7.7165
G01 X31.1322 Y7.7378
G01 X32.2122 Y8.8178
G01 X32.2304 Y8.8377
G01 X32.2481 Y8.8613
G01 X32.2658 Y8.8907
G01 X32.2782 Y8.9174
G01 X32.2864 Y8.9405
G01 X32.2938 Y8.9691
G01 X32.2984 Y8.9981
G01 X32.3001 Y9.0300
G01 X32.3001 Y11.9700
G01 X32.2989 Y11.9970
G01 X32.2948 Y12.0261
G01 X32.2879 Y12.0548
G01 X32.2763 Y12.0871
G01 X32.2658 Y12.1093
G01 X32.2509 Y12.1347
G01 X32.2304 Y12.1623
G01 X32.2122 Y12.1822
G01 X31.6322 Y12.7622
G01 X31.6085 Y12.7835
G01 X31.5887 Y12.7981
G01 X31.5636 Y12.8135
G01 X31.5371 Y12.8263
G01 X31.5048 Y12.8379
G01 X31.4809 Y12.8438
G01 X31.4519 Y12.8484
G01 X31.4200 Y12.8501
G01 X31.0174 Y12.8501
G01 X31.0005 Y12.8967
G01 X30.9625 Y12.9764
G01 X30.9196 Y13.0479
G01 X30.8672 Y13.1190
G01 X30.8046 Y13.1881
G01 X30.7390 Y13.2472
G01 X30.6720 Y13.2969
G01 X30.5921 Y13.3448
G01 X30.5121 Y13.3824
G01 X30.4336 Y13.4105
G01 X30.3432 Y13.4331
G01 X30.2607 Y13.4454
G01 X30.1725 Y13.4499
G01 X30.0793 Y13.4454
G01 X29.9968 Y13.4331
G01 X29.9111 Y13.4119
G01 X29.8279 Y13.3824
G01 X29.7479 Y13.3448
G01 X29.6680 Y13.2969
G01 X29.5972 Y13.2441
G01 X29.5354 Y13.1881
G01 X29.4728 Y13.1190
G01 X29.4204 Y13.0479
G01 X29.3775 Y12.9764
G01 X29.3395 Y12.8967
G01 X29.3226 Y12.8501
G01 X24.4293 Y12.8501
G01 X24.2751 Y13.0043
G01 X24.2751 Y13.3300
G01 X24.3000 Y13.3300
G01 X24.3098 Y13.3310
G01 X24.3191 Y13.3338
G01 X24.3278 Y13.3384
G01 X24.3354 Y13.3446
G01 X24.3387 Y13.3483
G01 X24.3441 Y13.3564
G01 X24.3478 Y13.3655
G01 X24.3498 Y13.3751
G01 X24.3500 Y13.3800
G01 X24.3500 Y15.0800
G01 X24.3490 Y15.0898
G01 X24.3462 Y15.0991
G01 X24.3416 Y15.1078
G01 X24.3354 Y15.1154
G01 X24.3278 Y15.1216
G01 X24.3236 Y15.1241
G01 X24.3145 Y15.1278
G01 X24.3049 Y15.1298
G01 X23.6451 Y15.1298
G01 X23.6402 Y15.1290
G01 X23.6309 Y15.1262
G01 X23.6222 Y15.1216
G01 X23.6146 Y15.1154
G01 X23.6084 Y15.1078
G01 X23.6038 Y15.0991
G01 X23.6022 Y15.0945
G01 X23.6002 Y15.0849
G01 X23.6000 Y13.3800
G01 X23.6010 Y13.3702
G01 X23.6038 Y13.3609
G01 X23.6059 Y13.3564
G01 X23.6084 Y13.3522
G01 X23.6146 Y13.3446
G01 X23.6222 Y13.3384
G01 X23.6309 Y13.3338
G01 X23.6402 Y13.3310
G01 X23.6500 Y13.3300
G01 X23.6749 Y13.3300
G01 X23.6749 Y12.8800
G01 X23.6761 Y12.8530
G01 X23.6802 Y12.8239
G01 X23.6886 Y12.7905
G01 X23.6987 Y12.7629
G01 X23.7092 Y12.7407
G01 X23.7241 Y12.7153
G01 X23.7446 Y12.6877
G01 X23.7628 Y12.6678
G01 X24.0928 Y12.3378
G01 X24.1165 Y12.3165
G01 X24.1403 Y12.2991
G01 X24.1657 Y12.2842
G01 X24.1879 Y12.2737
G01 X24.2155 Y12.2636
G01 X24.2489 Y12.2552
G01 X24.2780 Y12.2511
G01 X24.3050 Y12.2499
G01 X29.3226 Y12.2499
G01 X29.3395 Y12.2033
G01 X29.3775 Y12.1236
G01 X29.4231 Y12.0480
G01 X29.4728 Y11.9810
G01 X29.5354 Y11.9119
G01 X29.5972 Y11.8559
G01 X29.6680 Y11.8031
G01 X29.7479 Y11.7552
G01 X29.8279 Y11.7176
G01 X29.9064 Y11.6895
G01 X29.9968 Y11.6669
G01 X30.0793 Y11.6546
G01 X30.1675 Y11.6501
G01 X30.2607 Y11.6546
G01 X30.3432 Y11.6669
G01 X30.4289 Y11.6881
G01 X30.5121 Y11.7176
G01 X30.5921 Y11.7552
G01 X30.6720 Y11.8031
G01 X30.7428 Y11.8559
G01 X30.8046 Y11.9119
G01 X30.8672 Y11.9810
G01 X30.9196 Y12.0521
G01 X30.9625 Y12.1236
G01 X31.0005 Y12.2033
G01 X31.0174 Y12.2499
G01 X31.2957 Y12.2499
G01 X31.6999 Y11.8457
G01 X31.6999 Y9.1543
G01 X30.7957 Y8.2501
G01 X28.5843 Y8.2501
G01 X27.1122 Y9.7222
G01 X27.0885 Y9.7435
G01 X27.0687 Y9.7581
G01 X27.0436 Y9.7735
G01 X27.0171 Y9.7863
G01 X26.9848 Y9.7979
G01 X26.9609 Y9.8038
G01 X26.9319 Y9.8084
G01 X26.9000 Y9.8101
G01 X23.3543 Y9.8101
G01 X21.7922 Y11.3722
G01 X21.7723 Y11.3904
G01 X21.7487 Y11.4081
G01 X21.7193 Y11.4258
G01 X21.6926 Y11.4382
G01 X21.6648 Y11.4479
G01 X21.6361 Y11.4548
G01 X21.6070 Y11.4589
G01 X21.5800 Y11.4601
G01 X21.5300 Y11.4601
G01 X21.5300 Y11.5100
G01 X21.5287 Y11.5370
G01 X21.5247 Y11.5661
G01 X21.5177 Y11.5947
G01 X21.5080 Y11.6225
G01 X21.4957 Y11.6492
G01 X21.4808 Y11.6746
G01 X21.4634 Y11.6984
G01 X21.4438 Y11.7204
G01 X21.4222 Y11.7403
G01 X21.3987 Y11.7580
G01 X21.3736 Y11.7734
G01 X21.3470 Y11.7862
G01 X21.3194 Y11.7963
G01 X21.2909 Y11.8037
G01 X21.2618 Y11.8083
G01 X21.2300 Y11.8100
G01 X20.3300 Y11.8100
G01 X20.3030 Y11.8087
G01 X20.2739 Y11.8047
G01 X20.2453 Y11.7977
G01 X20.2175 Y11.7880
G01 X20.1864 Y11.7734
G01 X20.1613 Y11.7580
G01 X20.1378 Y11.7403
G01 X20.1162 Y11.7204
G01 X20.0966 Y11.6984
G01 X20.0820 Y11.6787
G01 X20.0666 Y11.6536
G01 X20.0520 Y11.6225
G01 X20.0437 Y11.5994
G01 X20.0363 Y11.5709
G01 X20.0313 Y11.5370
G01 X20.0300 Y11.5100
G01 X20.0300 Y10.8100
G01 X20.0317 Y10.7782
G01 X20.0363 Y10.7491
G01 X20.0423 Y10.7253
G01 X20.0520 Y10.6975
G01 X20.0666 Y10.6664
G01 X20.0820 Y10.6413
G01 X20.0966 Y10.6216
G01 X20.1196 Y10.5962
G01 X20.1416 Y10.5766
G01 X20.1613 Y10.5620
G01 X20.1864 Y10.5466
G01 X20.2175 Y10.5320
G00 Z2.0000
G00 X21.1100 Y13.3300
G01 F60.00
G01 Z-0.0500
G01 F100.00
G01 X21.1349 Y13.3300
G01 X21.1349 Y13.0250
G01 X21.1361 Y12.9980
G01 X21.1402 Y12.9689
G01 X21.1486 Y12.9355
G01 X21.1587 Y12.9079
G01 X21.1692 Y12.8857
G01 X21.1841 Y12.8603
G01 X21.2046 Y12.8327
G01 X21.2228 Y12.8128
G01 X22.8078 Y11.2278
G01 X22.8315 Y11.2065
G01 X22.8553 Y11.1891
G01 X22.8807 Y11.1742
G01 X22.9074 Y11.1618
G01 X22.9352 Y11.1521
G01 X22.9639 Y11.1452
G01 X22.9930 Y11.1411
G01 X23.0200 Y11.1399
G01 X26.8557 Y11.1399
G01 X28.1978 Y9.7978
G01 X28.2215 Y9.7765
G01 X28.2453 Y9.7591
G01 X28.2707 Y9.7442
G01 X28.2929 Y9.7337
G01 X28.3252 Y9.7221
G01 X28.3491 Y9.7162
G01 X28.3781 Y9.7116
G01 X28.4075 Y9.7099
G01 X29.3226 Y9.7099
G01 X29.3395 Y9.6633
G01 X29.3752 Y9.5879
G01 X29.4231 Y9.5080
G01 X29.4728 Y9.4410
G01 X29.5319 Y9.3754
G01 X29.5972 Y9.3159
G01 X29.6721 Y9.2604
G01 X29.7436 Y9.2175
G01 X29.8233 Y9.1795
G01 X29.9111 Y9.1481
G01 X29.9968 Y9.1269
G01 X30.0842 Y9.1142
G01 X30.1725 Y9.1101
G01 X30.2558 Y9.1142
G01 X30.3432 Y9.1269
G01 X30.4336 Y9.1495
G01 X30.5167 Y9.1795
G01 X30.5964 Y9.2175
G01 X30.6720 Y9.2631
G01 X30.7428 Y9.3159
G01 X30.8046 Y9.3719
G01 X30.8641 Y9.4372
G01 X30.9169 Y9.5080
G01 X30.9625 Y9.5836
G01 X31.0024 Y9.6679
G01 X31.0319 Y9.7511
G01 X31.0522 Y9.8320
G01 X31.0654 Y9.9193
G01 X31.0699 Y10.0075
G01 X31.0658 Y10.0958
G01 X31.0531 Y10.1832
G01 X31.0319 Y10.2689
G01 X31.0024 Y10.3521
G01 X30.9648 Y10.4321
G01 X30.9196 Y10.5079
G01 X30.8641 Y10.5828
G01 X30.8046 Y10.6481
G01 X30.7390 Y10.7072
G01 X30.6679 Y10.7596
G01 X30.5921 Y10.8048
G01 X30.5121 Y10.8424
G01 X30.4289 Y10.8719
G01 X30.3432 Y10.8931
G01 X30.2607 Y10.9054
G01 X30.1725 Y10.9099
G01 X30.0842 Y10.9058
G01 X29.9968 Y10.8931
G01 X29.9111 Y10.8719
G01 X29.8279 Y10.8424
G01 X29.7479 Y10.8048
G01 X29.6721 Y10.7596
G01 X29.6010 Y10.7072
G01 X29.5354 Y10.6481
G01 X29.4759 Y10.5828
G01 X29.4231 Y10.5120
G01 X29.3775 Y10.4364
G01 X29.3395 Y10.3567
G01 X29.3226 Y10.3101
G01 X28.5343 Y10.3101
G01 X27.1922 Y11.6522
G01 X27.1685 Y11.6735
G01 X27.1487 Y11.6881
G01 X27.1236 Y11.7035
G01 X27.0971 Y11.7163
G01 X27.0648 Y11.7279
G01 X27.0409 Y11.7338
G01 X27.0119 Y11.7384
G01 X26.9800 Y11.7401
G01 X23.1443 Y11.7401
G01 X21.7351 Y13.1493
G01 X21.7351 Y13.3300
G01 X21.7600 Y13.3300
G01 X21.7698 Y13.3310
G01 X21.7791 Y13.3338
G01 X21.7878 Y13.3384
G01 X21.7954 Y13.3446
G01 X21.7987 Y13.3483
G01 X21.8041 Y13.3564
G01 X21.8078 Y13.3655
G01 X21.8098 Y13.3751
G01 X21.8100 Y13.3800
G01 X21.8100 Y15.0800
G01 X21.8090 Y15.0898
G01 X21.8078 Y15.0945
G01 X21.8062 Y15.0991
G01 X21.8016 Y15.1078
G01 X21.7954 Y15.1154
G01 X21.7917 Y15.1187
G01 X21.7836 Y15.1241
G01 X21.7791 Y15.1262
G01 X21.7698 Y15.1290
G01 X21.7600 Y15.1300
G01 X21.1100 Y15.1300
G01 X21.1002 Y15.1290
G01 X21.0955 Y15.1278
G01 X21.0909 Y15.1262
G01 X21.0822 Y15.1216
G01 X21.0783 Y15.1187
G01 X21.0713 Y15.1117
G01 X21.0659 Y15.1036
G01 X21.0638 Y15.0991
G01 X21.0610 Y15.0898
G01 X21.0600 Y15.0800
G01 X21.0600 Y13.3800
G01 X21.0610 Y13.3702
G01 X21.0638 Y13.3609
G01 X21.0684 Y13.3522
G01 X21.0746 Y13.3446
G01 X21.0822 Y13.3384
G01 X21.0909 Y13.3338
G01 X21.1002 Y13.3310
G01 X21.1100 Y13.3300
G00 X21.1100 Y13.3300
G01 F60.00
G01 Z-0.1000
G01 F100.00
G01 X21.1349 Y13.3300
G01 X21.1349 Y13.0250
G01 X21.1361 Y12.9980
G01 X21.1402 Y12.9689
G01 X21.1486 Y12.9355
G01 X21.1587 Y12.9079
G01 X21.1692 Y12.8857
G01 X21.1841 Y12.8603
G01 X21.2046 Y12.8327
G01 X21.2228 Y12.8128
G01 X22.8078 Y11.2278
G01 X22.8315 Y11.2065
G01 X22.8553 Y11.1891
G01 X22.8807 Y11.1742
G01 X22.9074 Y11.1618
G01 X22.9352 Y11.1521
G01 X22.9639 Y11.1452
G01 X22.9930 Y11.1411
G01 X23.0200 Y11.1399
G01 X26.8557 Y11.1399
G01 X28.1978 Y9.7978
G01 X28.2215 Y9.7765
G01 X28.2453 Y9.7591
G01 X28.2707 Y9.7442
G01 X28.2929 Y9.7337
G01 X28.3252 Y9.7221
G01 X28.3491 Y9.7162
G01 X28.3781 Y9.7116
G01 X28.4075 Y9.7099
G01 X29.3226 Y9.7099
G01 X29.3395 Y9.6633
G01 X29.3752 Y9.5879
G01 X29.4231 Y9.5080
G01 X29.4728 Y9.4410
G01 X29.5319 Y9.3754
G01 X29.5972 Y9.3159
G01 X29.6721 Y9.2604
G01 X29.7436 Y9.2175
G01 X29.8233 Y9.1795
G01 X29.9111 Y9.1481
G01 X29.9968 Y9.1269
G01 X30.0842 Y9.1142
G01 X30.1725 Y9.1101
G01 X30.2558 Y9.1142
G01 X30.3432 Y9.1269
G01 X30.4336 Y9.1495
G01 X30.5167 Y9.1795
G01 X30.5964 Y9.2175
G01 X30.6720 Y9.2631
G01 X30.7428 Y9.3159
G01 X30.8046 Y9.3719
G01 X30.8641 Y9.4372
G01 X30.9169 Y9.5080
G01 X30.9625 Y9.5836
G01 X31.0024 Y9.6679
G01 X31.0319 Y9.7511
G01 X31.0522 Y9.8320
G01 X31.0654 Y9.9193
G01 X31.0699 Y10.0075
G01 X31.0658 Y10.0958
G01 X31.0531 Y10.1832
G01 X31.0319 Y10.2689
G01 X31.0024 Y10.3521
G01 X30.9648 Y10.4321
G01 X30.9196 Y10.5079
G01 X30.8641 Y10.5828
G01 X30.8046 Y10.6481
G01 X30.7390 Y10.7072
G01 X30.6679 Y10.7596
G01 X30.5921 Y10.8048
G01 X30.5121 Y10.8424
G01 X30.4289 Y10.8719
G01 X30.3432 Y10.8931
G01 X30.2607 Y10.9054
G01 X30.1725 Y10.9099
G01 X30.0842 Y10.9058
G01 X29.9968 Y10.8931
G01 X29.9111 Y10.8719
G01 X29.8279 Y10.8424
G01 X29.7479 Y10.8048
G01 X29.6721 Y10.7596
G01 X29.6010 Y10.7072
G01 X29.5354 Y10.6481
G01 X29.4759 Y10.5828
G01 X29.4231 Y10.5120
G01 X29.3775 Y10.4364
G01 X29.3395 Y10.3567
G01 X29.3226 Y10.3101
G01 X28.5343 Y10.3101
G01 X27.1922 Y11.6522
G01 X27.1685 Y11.6735
G01 X27.1487 Y11.6881
G01 X27.1236 Y11.7035
G01 X27.0971 Y11.7163
G01 X27.0648 Y11.7279
G01 X27.0409 Y11.7338
G01 X27.0119 Y11.7384
G01 X26.9800 Y11.7401
G01 X23.1443 Y11.7401
G01 X21.7351 Y13.1493
G01 X21.7351 Y13.3300
G01 X21.7600 Y13.3300
G01 X21.7698 Y13.3310
G01 X21.7791 Y13.3338
G01 X21.7878 Y13.3384
G01 X21.7954 Y13.3446
G01 X21.7987 Y13.3483
G01 X21.8041 Y13.3564
G01 X21.8078 Y13.3655
G01 X21.8098 Y13.3751
G01 X21.8100 Y13.3800
G01 X21.8100 Y15.0800
G01 X21.8090 Y15.0898
G01 X21.8078 Y15.0945
G01 X21.8062 Y15.0991
G01 X21.8016 Y15.1078
G01 X21.7954 Y15.1154
G01 X21.7917 Y15.1187
G01 X21.7836 Y15.1241
G01 X21.7791 Y15.1262
G01 X21.7698 Y15.1290
G01 X21.7600 Y15.1300
G01 X21.1100 Y15.1300
G01 X21.1002 Y15.1290
G01 X21.0955 Y15.1278
G01 X21.0909 Y15.1262
G01 X21.0822 Y15.1216
G01 X21.0783 Y15.1187
G01 X21.0713 Y15.1117
G01 X21.0659 Y15.1036
