(G-CODE GENERATED BY FLATCAM v8.991 - www.flatcam.org - Version Date: 2019/12/27)

(Name: circular PCB-Edge_Cuts.gbr_iso_cnc)
(Type: G-code from Geometry)
(Units: MM)

(Created on Monday, 05 June 2023 at 12:46)

(TOOL DIAMETER: 0.8 mm)
(Feedrate: 100.0 mm/min)
(Feedrate_Z: 60.0 mm/min)
(Feedrate rapids 1500.0 mm/min)

(Z_Cut: -1.8 mm)
(DepthPerCut: 0.9 mm <=>2 passes)
(Z_Move: 2.0 mm)
(Z Toolchange: 15.0 mm)
(X,Y Toolchange: 0.0000, 0.0000 mm)
(Z Start: None mm)
(Z End: 2.0 mm)
(Steps per circle: 64)
(Preprocessor Geometry: default)

(X range:   -0.0100 ...   35.8900  mm)
(Y range:   -0.5500 ...   35.3500  mm)

(Spindle Speed: None RPM)
G21
G90
G94




G01 F100.00
G00 Z2.0000

M03
G00 X5.6144 Y11.2129
G01 F60.00
G01 Z-0.9000
G01 F100.00
G01 X5.5993 Y11.3147
G01 X5.5742 Y11.4146
G01 X5.5395 Y11.5116
G01 X5.4955 Y11.6047
G01 X5.4426 Y11.6930
G01 X5.3812 Y11.7758
G01 X5.3121 Y11.8521
G01 X5.2358 Y11.9212
G01 X5.1530 Y11.9826
G01 X5.0647 Y12.0355
G01 X4.9716 Y12.0795
G01 X4.8746 Y12.1142
G01 X4.7747 Y12.1393
G01 X4.6729 Y12.1544
G01 X4.5700 Y12.1594
G01 X4.4671 Y12.1544
G01 X4.3653 Y12.1393
G01 X4.2654 Y12.1142
G01 X4.1684 Y12.0795
G01 X4.0753 Y12.0355
G01 X3.9870 Y11.9826
G01 X3.9042 Y11.9212
G01 X3.8279 Y11.8521
G01 X3.7588 Y11.7758
G01 X3.6974 Y11.6930
G01 X3.6445 Y11.6047
G01 X3.6005 Y11.5116
G01 X3.5658 Y11.4146
G01 X3.5407 Y11.3147
G01 X3.5256 Y11.2129
G01 X3.5206 Y11.1100
G01 X3.5256 Y11.0071
G01 X3.5407 Y10.9053
G01 X3.5658 Y10.8054
G01 X3.6005 Y10.7084
G01 X3.6445 Y10.6153
G01 X3.6974 Y10.5270
G01 X3.7588 Y10.4442
G01 X3.8279 Y10.3679
G01 X3.9042 Y10.2988
G01 X3.9870 Y10.2374
G01 X4.0753 Y10.1845
G01 X4.1684 Y10.1405
G01 X4.2654 Y10.1058
G01 X4.3653 Y10.0807
G01 X4.4671 Y10.0656
G01 X4.5700 Y10.0606
G01 X4.6729 Y10.0656
G01 X4.7747 Y10.0807
G01 X4.8746 Y10.1058
G01 X4.9716 Y10.1405
G01 X5.0647 Y10.1845
G01 X5.1530 Y10.2374
G01 X5.2358 Y10.2988
G01 X5.3121 Y10.3679
G01 X5.3812 Y10.4442
G01 X5.4426 Y10.5270
G01 X5.4955 Y10.6153
G01 X5.5395 Y10.7084
G01 X5.5742 Y10.8054
G01 X5.5993 Y10.9053
G01 X5.6144 Y11.0071
G01 X5.6194 Y11.1100
G01 X5.6144 Y11.2129
G00 X5.6144 Y11.2129
G01 F60.00
G01 Z-1.8000
G01 F100.00
G01 X5.5993 Y11.3147
G01 X5.5742 Y11.4146
G01 X5.5395 Y11.5116
G01 X5.4955 Y11.6047
G01 X5.4426 Y11.6930
G01 X5.3812 Y11.7758
G01 X5.3121 Y11.8521
G01 X5.2358 Y11.9212
G01 X5.1530 Y11.9826
G01 X5.0647 Y12.0355
G01 X4.9716 Y12.0795
G01 X4.8746 Y12.1142
G01 X4.7747 Y12.1393
G01 X4.6729 Y12.1544
G01 X4.5700 Y12.1594
G01 X4.4671 Y12.1544
G01 X4.3653 Y12.1393
G01 X4.2654 Y12.1142
G01 X4.1684 Y12.0795
G01 X4.0753 Y12.0355
G01 X3.9870 Y11.9826
G01 X3.9042 Y11.9212
G01 X3.8279 Y11.8521
G01 X3.7588 Y11.7758
G01 X3.6974 Y11.6930
G01 X3.6445 Y11.6047
G01 X3.6005 Y11.5116
G01 X3.5658 Y11.4146
G01 X3.5407 Y11.3147
G01 X3.5256 Y11.2129
G01 X3.5206 Y11.1100
G01 X3.5256 Y11.0071
G01 X3.5407 Y10.9053
G01 X3.5658 Y10.8054
G01 X3.6005 Y10.7084
G01 X3.6445 Y10.6153
G01 X3.6974 Y10.5270
G01 X3.7588 Y10.4442
G01 X3.8279 Y10.3679
G01 X3.9042 Y10.2988
G01 X3.9870 Y10.2374
G01 X4.0753 Y10.1845
G01 X4.1684 Y10.1405
G01 X4.2654 Y10.1058
G01 X4.3653 Y10.0807
G01 X4.4671 Y10.0656
G01 X4.5700 Y10.0606
G01 X4.6729 Y10.0656
G01 X4.7747 Y10.0807
G01 X4.8746 Y10.1058
G01 X4.9716 Y10.1405
G01 X5.0647 Y10.1845
G01 X5.1530 Y10.2374
G01 X5.2358 Y10.2988
G01 X5.3121 Y10.3679
G01 X5.3812 Y10.4442
G01 X5.4426 Y10.5270
G01 X5.4955 Y10.6153
G01 X5.5395 Y10.7084
G01 X5.5742 Y10.8054
G01 X5.5993 Y10.9053
G01 X5.6144 Y11.0071
G01 X5.6194 Y11.1100
G01 X5.6144 Y11.2129
G00 Z2.0000
G00 X3.9830 Y12.9691
G01 F60.00
G01 Z-0.9000
G01 F100.00
G01 X3.8444 Y12.9195
G01 X3.8215 Y12.9106
G01 X3.8036 Y12.9026
G01 X3.6705 Y12.8397
G01 X3.6486 Y12.8286
G01 X3.6315 Y12.8189
G01 X3.5053 Y12.7432
G01 X3.4846 Y12.7300
G01 X3.4686 Y12.7187
G01 X3.3503 Y12.6310
G01 X3.3311 Y12.6158
G01 X3.3162 Y12.6030
G01 X3.2071 Y12.5041
G01 X3.1894 Y12.4871
G01 X3.1759 Y12.4729
G01 X3.0770 Y12.3638
G01 X3.0611 Y12.3451
G01 X3.0490 Y12.3297
G01 X2.9613 Y12.2114
G01 X2.9473 Y12.1913
G01 X2.9368 Y12.1747
G01 X2.8611 Y12.0485
G01 X2.8491 Y12.0270
G01 X2.8403 Y12.0095
G01 X2.7774 Y11.8764
G01 X2.7675 Y11.8540
G01 X2.7605 Y11.8356
G01 X2.7109 Y11.6970
G01 X2.7033 Y11.6737
G01 X2.6981 Y11.6548
G01 X2.6623 Y11.5120
G01 X2.6570 Y11.4880
G01 X2.6537 Y11.4687
G01 X2.6321 Y11.3231
G01 X2.6292 Y11.2987
G01 X2.6277 Y11.2791
G01 X2.6205 Y11.1321
G01 X2.6200 Y11.1075
G01 X2.6205 Y11.0879
G01 X2.6277 Y10.9409
G01 X2.6297 Y10.9164
G01 X2.6321 Y10.8969
G01 X2.6537 Y10.7513
G01 X2.6580 Y10.7272
G01 X2.6623 Y10.7080
G01 X2.6981 Y10.5652
G01 X2.7047 Y10.5416
G01 X2.7109 Y10.5230
G01 X2.7605 Y10.3844
G01 X2.7694 Y10.3615
G01 X2.7774 Y10.3436
G01 X2.8403 Y10.2105
G01 X2.8514 Y10.1886
G01 X2.8611 Y10.1715
G01 X2.9368 Y10.0453
G01 X2.9500 Y10.0246
G01 X2.9613 Y10.0086
G01 X3.0490 Y9.8903
G01 X3.0642 Y9.8711
G01 X3.0770 Y9.8562
G01 X3.1759 Y9.7471
G01 X3.1929 Y9.7294
G01 X3.2071 Y9.7159
G01 X3.3162 Y9.6170
G01 X3.3349 Y9.6011
G01 X3.3503 Y9.5890
G01 X3.4686 Y9.5013
G01 X3.4887 Y9.4873
G01 X3.5053 Y9.4768
G01 X3.6315 Y9.4011
G01 X3.6530 Y9.3891
G01 X3.6705 Y9.3803
G01 X3.8036 Y9.3174
G01 X3.8260 Y9.3075
G01 X3.8444 Y9.3005
G01 X3.9830 Y9.2509
G01 X4.0063 Y9.2433
G01 X4.0252 Y9.2381
G01 X4.1680 Y9.2023
G01 X4.1920 Y9.1970
G01 X4.2113 Y9.1937
G01 X4.3569 Y9.1721
G01 X4.3813 Y9.1692
G01 X4.4009 Y9.1677
G01 X4.5479 Y9.1605
G01 X4.5725 Y9.1600
G01 X4.5921 Y9.1605
G01 X4.7391 Y9.1677
G01 X4.7636 Y9.1697
G01 X4.7831 Y9.1721
G01 X4.9287 Y9.1937
G01 X4.9528 Y9.1980
G01 X4.9720 Y9.2023
G01 X5.1148 Y9.2381
G01 X5.1384 Y9.2447
G01 X5.1570 Y9.2509
G01 X5.2956 Y9.3005
G01 X5.3185 Y9.3094
G01 X5.3364 Y9.3174
G01 X5.4695 Y9.3803
G01 X5.4914 Y9.3914
G01 X5.5085 Y9.4011
G01 X5.6347 Y9.4768
G01 X5.6554 Y9.4900
G01 X5.6714 Y9.5013
G01 X5.7897 Y9.5890
G01 X5.8089 Y9.6042
G01 X5.8238 Y9.6170
G01 X5.9329 Y9.7159
G01 X5.9506 Y9.7329
G01 X5.9641 Y9.7471
G01 X6.0630 Y9.8562
G01 X6.0789 Y9.8749
G01 X6.0910 Y9.8903
G01 X6.1787 Y10.0086
G01 X6.1927 Y10.0287
G01 X6.2032 Y10.0453
G01 X6.2789 Y10.1715
G01 X6.2909 Y10.1930
G01 X6.2997 Y10.2105
G01 X6.3626 Y10.3436
G01 X6.3725 Y10.3660
G01 X6.3795 Y10.3844
G01 X6.4291 Y10.5230
G01 X6.4367 Y10.5463
G01 X6.4419 Y10.5652
G01 X6.4777 Y10.7080
G01 X6.4830 Y10.7320
G01 X6.4863 Y10.7513
G01 X6.5079 Y10.8969
G01 X6.5108 Y10.9213
G01 X6.5123 Y10.9409
G01 X6.5195 Y11.0879
G01 X6.5200 Y11.1125
G01 X6.5195 Y11.1321
G01 X6.5123 Y11.2791
G01 X6.5103 Y11.3036
G01 X6.5079 Y11.3231
G01 X6.4863 Y11.4687
G01 X6.4820 Y11.4928
G01 X6.4777 Y11.5120
G01 X6.4419 Y11.6548
G01 X6.4353 Y11.6784
G01 X6.4291 Y11.6970
G01 X6.3795 Y11.8356
G01 X6.3706 Y11.8585
G01 X6.3626 Y11.8764
G01 X6.2997 Y12.0095
G01 X6.2886 Y12.0314
G01 X6.2789 Y12.0485
G01 X6.2032 Y12.1747
G01 X6.1900 Y12.1954
G01 X6.1787 Y12.2114
G01 X6.0910 Y12.3297
G01 X6.0758 Y12.3489
G01 X6.0630 Y12.3638
G01 X5.9641 Y12.4729
G01 X5.9471 Y12.4906
G01 X5.9329 Y12.5041
G01 X5.8238 Y12.6030
G01 X5.8051 Y12.6189
G01 X5.7897 Y12.6310
G01 X5.6714 Y12.7187
G01 X5.6513 Y12.7327
G01 X5.6347 Y12.7432
G01 X5.5085 Y12.8189
G01 X5.4870 Y12.8309
G01 X5.4695 Y12.8397
G01 X5.3364 Y12.9026
G01 X5.3140 Y12.9125
G01 X5.2956 Y12.9195
G01 X5.1570 Y12.9691
G01 X5.1337 Y12.9767
G01 X5.1148 Y12.9819
G01 X4.9720 Y13.0177
G01 X4.9480 Y13.0230
G01 X4.9287 Y13.0263
G01 X4.7831 Y13.0479
G01 X4.7587 Y13.0508
G01 X4.7391 Y13.0523
G01 X4.5921 Y13.0595
G01 X4.5675 Y13.0600
G01 X4.5479 Y13.0595
G01 X4.4009 Y13.0523
G01 X4.3764 Y13.0503
G01 X4.3569 Y13.0479
G01 X4.2113 Y13.0263
G01 X4.1872 Y13.0220
G01 X4.1680 Y13.0177
G01 X4.0252 Y12.9819
G01 X4.0063 Y12.9767
G01 X3.9830 Y12.9691
G00 X3.9830 Y12.9691
G01 F60.00
G01 Z-1.8000
G01 F100.00
G01 X3.8444 Y12.9195
G01 X3.8215 Y12.9106
G01 X3.8036 Y12.9026
G01 X3.6705 Y12.8397
G01 X3.6486 Y12.8286
G01 X3.6315 Y12.8189
G01 X3.5053 Y12.7432
G01 X3.4846 Y12.7300
G01 X3.4686 Y12.7187
G01 X3.3503 Y12.6310
G01 X3.3311 Y12.6158
G01 X3.3162 Y12.6030
G01 X3.2071 Y12.5041
G01 X3.1894 Y12.4871
G01 X3.1759 Y12.4729
G01 X3.0770 Y12.3638
G01 X3.0611 Y12.3451
G01 X3.0490 Y12.3297
G01 X2.9613 Y12.2114
G01 X2.9473 Y12.1913
G01 X2.9368 Y12.1747
G01 X2.8611 Y12.0485
G01 X2.8491 Y12.0270
G01 X2.8403 Y12.0095
G01 X2.7774 Y11.8764
G01 X2.7675 Y11.8540
G01 X2.7605 Y11.8356
G01 X2.7109 Y11.6970
G01 X2.7033 Y11.6737
G01 X2.6981 Y11.6548
G01 X2.6623 Y11.5120
G01 X2.6570 Y11.4880
G01 X2.6537 Y11.4687
G01 X2.6321 Y11.3231
G01 X2.6292 Y11.2987
G01 X2.6277 Y11.2791
G01 X2.6205 Y11.1321
G01 X2.6200 Y11.1075
G01 X2.6205 Y11.0879
G01 X2.6277 Y10.9409
G01 X2.6297 Y10.9164
G01 X2.6321 Y10.8969
G01 X2.6537 Y10.7513
G01 X2.6580 Y10.7272
G01 X2.6623 Y10.7080
G01 X2.6981 Y10.5652
G01 X2.7047 Y10.5416
G01 X2.7109 Y10.5230
G01 X2.7605 Y10.3844
G01 X2.7694 Y10.3615
G01 X2.7774 Y10.3436
G01 X2.8403 Y10.2105
G01 X2.8514 Y10.1886
G01 X2.8611 Y10.1715
G01 X2.9368 Y10.0453
G01 X2.9500 Y10.0246
G01 X2.9613 Y10.0086
G01 X3.0490 Y9.8903
G01 X3.0642 Y9.8711
G01 X3.0770 Y9.8562
G01 X3.1759 Y9.7471
G01 X3.1929 Y9.7294
G01 X3.2071 Y9.7159
G01 X3.3162 Y9.6170
G01 X3.3349 Y9.6011
G01 X3.3503 Y9.5890
G01 X3.4686 Y9.5013
G01 X3.4887 Y9.4873
G01 X3.5053 Y9.4768
G01 X3.6315 Y9.4011
G01 X3.6530 Y9.3891
G01 X3.6705 Y9.3803
G01 X3.8036 Y9.3174
G01 X3.8260 Y9.3075
G01 X3.8444 Y9.3005
G01 X3.9830 Y9.2509
G01 X4.0063 Y9.2433
G01 X4.0252 Y9.2381
G01 X4.1680 Y9.2023
G01 X4.1920 Y9.1970
G01 X4.2113 Y9.1937
G01 X4.3569 Y9.1721
G01 X4.3813 Y9.1692
G01 X4.4009 Y9.1677
G01 X4.5479 Y9.1605
G01 X4.5725 Y9.1600
G01 X4.5921 Y9.1605
G01 X4.7391 Y9.1677
G01 X4.7636 Y9.1697
G01 X4.7831 Y9.1721
G01 X4.9287 Y9.1937
G01 X4.9528 Y9.1980
G01 X4.9720 Y9.2023
G01 X5.1148 Y9.2381
G01 X5.1384 Y9.2447
G01 X5.1570 Y9.2509
G01 X5.2956 Y9.3005
G01 X5.3185 Y9.3094
G01 X5.3364 Y9.3174
G01 X5.4695 Y9.3803
G01 X5.4914 Y9.3914
G01 X5.5085 Y9.4011
G01 X5.6347 Y9.4768
G01 X5.6554 Y9.4900
G01 X5.6714 Y9.5013
G01 X5.7897 Y9.5890
G01 X5.8089 Y9.6042
G01 X5.8238 Y9.6170
G01 X5.9329 Y9.7159
G01 X5.9506 Y9.7329
G01 X5.9641 Y9.7471
G01 X6.0630 Y9.8562
G01 X6.0789 Y9.8749
G01 X6.0910 Y9.8903
G01 X6.1787 Y10.0086
G01 X6.1927 Y10.0287
G01 X6.2032 Y10.0453
G01 X6.2789 Y10.1715
G01 X6.2909 Y10.1930
G01 X6.2997 Y10.2105
G01 X6.3626 Y10.3436
G01 X6.3725 Y10.3660
G01 X6.3795 Y10.3844
G01 X6.4291 Y10.5230
G01 X6.4367 Y10.5463
G01 X6.4419 Y10.5652
G01 X6.4777 Y10.7080
G01 X6.4830 Y10.7320
G01 X6.4863 Y10.7513
G01 X6.5079 Y10.8969
G01 X6.5108 Y10.9213
G01 X6.5123 Y10.9409
G01 X6.5195 Y11.0879
G01 X6.5200 Y11.1125
G01 X6.5195 Y11.1321
G01 X6.5123 Y11.2791
G01 X6.5103 Y11.3036
G01 X6.5079 Y11.3231
G01 X6.4863 Y11.4687
G01 X6.4820 Y11.4928
G01 X6.4777 Y11.5120
G01 X6.4419 Y11.6548
G01 X6.4353 Y11.6784
G01 X6.4291 Y11.6970
G01 X6.3795 Y11.8356
G01 X6.3706 Y11.8585
G01 X6.3626 Y11.8764
G01 X6.2997 Y12.0095
G01 X6.2886 Y12.0314
G01 X6.2789 Y12.0485
G01 X6.2032 Y12.1747
G01 X6.1900 Y12.1954
G01 X6.1787 Y12.2114
G01 X6.0910 Y12.3297
G01 X6.0758 Y12.3489
G01 X6.0630 Y12.3638
G01 X5.9641 Y12.4729
G01 X5.9471 Y12.4906
G01 X5.9329 Y12.5041
G01 X5.8238 Y12.6030
G01 X5.8051 Y12.6189
G01 X5.7897 Y12.6310
G01 X5.6714 Y12.7187
G01 X5.6513 Y12.7327
G01 X5.6347 Y12.7432
G01 X5.5085 Y12.8189
G01 X5.4870 Y12.8309
G01 X5.4695 Y12.8397
G01 X5.3364 Y12.9026
G01 X5.3140 Y12.9125
G01 X5.2956 Y12.9195
G01 X5.1570 Y12.9691
G01 X5.1337 Y12.9767
G01 X5.1148 Y12.9819
G01 X4.9720 Y13.0177
G01 X4.9480 Y13.0230
G01 X4.9287 Y13.0263
G01 X4.7831 Y13.0479
G01 X4.7587 Y13.0508
G01 X4.7391 Y13.0523
G01 X4.5921 Y13.0595
G01 X4.5675 Y13.0600
G01 X4.5479 Y13.0595
G01 X4.4009 Y13.0523
G01 X4.3764 Y13.0503
G01 X4.3569 Y13.0479
G01 X4.2113 Y13.0263
G01 X4.1872 Y13.0220
G01 X4.1680 Y13.0177
G01 X4.0252 Y12.9819
G01 X4.0063 Y12.9767
G01 X3.9830 Y12.9691
G00 Z2.0000
G00 X23.1716 Y0.2298
G01 F60.00
G01 Z-0.9000
G01 F100.00
G01 X24.7886 Y0.8084
G01 X24.8114 Y0.8173
G01 X24.8294 Y0.8253
G01 X26.3819 Y1.5596
G01 X26.4037 Y1.5707
G01 X26.4208 Y1.5804
G01 X27.8938 Y2.4633
G01 X27.9145 Y2.4765
G01 X27.9306 Y2.4878
G01 X29.3100 Y3.5109
G01 X29.3292 Y3.5260
G01 X29.3441 Y3.5389
G01 X30.6166 Y4.6922
G01 X30.6343 Y4.7092
G01 X30.6478 Y4.7234
G01 X31.8011 Y5.9959
G01 X31.8171 Y6.0146
G01 X31.8291 Y6.0300
G01 X32.8522 Y7.4094
G01 X32.8662 Y7.4296
G01 X32.8767 Y7.4462
G01 X33.7596 Y8.9192
G01 X33.7716 Y8.9406
G01 X33.7804 Y8.9581
G01 X34.5147 Y10.5106
G01 X34.5245 Y10.5331
G01 X34.5316 Y10.5514
G01 X35.1102 Y12.1684
G01 X35.1178 Y12.1917
G01 X35.1230 Y12.2107
G01 X35.5403 Y13.8766
G01 X35.5455 Y13.9005
G01 X35.5489 Y13.9199
G01 X35.8009 Y15.6187
G01 X35.8038 Y15.6430
G01 X35.8052 Y15.6626
G01 X35.8895 Y17.3779
G01 X35.8900 Y17.4025
G01 X35.8895 Y17.4221
G01 X35.8052 Y19.1374
G01 X35.8033 Y19.1618
G01 X35.8009 Y19.1813
G01 X35.5489 Y20.8801
G01 X35.5446 Y20.9043
G01 X35.5403 Y20.9234
G01 X35.1230 Y22.5893
G01 X35.1163 Y22.6129
G01 X35.1102 Y22.6316
G01 X34.5316 Y24.2486
G01 X34.5227 Y24.2714
G01 X34.5147 Y24.2894
G01 X33.7804 Y25.8419
G01 X33.7693 Y25.8637
G01 X33.7596 Y25.8808
G01 X32.8767 Y27.3538
G01 X32.8635 Y27.3745
G01 X32.8522 Y27.3906
G01 X31.8291 Y28.7700
G01 X31.8140 Y28.7892
G01 X31.8011 Y28.8041
G01 X30.6478 Y30.0766
G01 X30.6308 Y30.0943
G01 X30.6166 Y30.1078
G01 X29.3441 Y31.2611
G01 X29.3254 Y31.2771
G01 X29.3100 Y31.2891
G01 X27.9306 Y32.3122
G01 X27.9104 Y32.3262
G01 X27.8938 Y32.3367
G01 X26.4208 Y33.2196
G01 X26.3994 Y33.2316
G01 X26.3819 Y33.2404
G01 X24.8294 Y33.9747
G01 X24.8069 Y33.9845
G01 X24.7886 Y33.9916
G01 X23.1716 Y34.5702
G01 X23.1483 Y34.5778
G01 X23.1293 Y34.5830
G01 X21.4634 Y35.0003
G01 X21.4395 Y35.0055
G01 X21.4201 Y35.0089
G01 X19.7213 Y35.2609
G01 X19.6970 Y35.2638
G01 X19.6774 Y35.2652
G01 X17.9621 Y35.3495
G01 X17.9375 Y35.3500
G01 X17.9179 Y35.3495
G01 X16.2026 Y35.2652
G01 X16.1782 Y35.2633
G01 X16.1587 Y35.2609
G01 X14.4599 Y35.0089
G01 X14.4357 Y35.0046
G01 X14.4166 Y35.0003
G01 X12.7507 Y34.5830
G01 X12.7271 Y34.5763
G01 X12.7084 Y34.5702
G01 X11.0914 Y33.9916
G01 X11.0686 Y33.9827
G01 X11.0506 Y33.9747
G01 X9.4981 Y33.2404
G01 X9.4763 Y33.2293
G01 X9.4592 Y33.2196
G01 X7.9862 Y32.3367
G01 X7.9655 Y32.3235
G01 X7.9494 Y32.3122
G01 X6.5700 Y31.2891
G01 X6.5508 Y31.2740
G01 X6.5359 Y31.2611
G01 X5.2634 Y30.1078
G01 X5.2457 Y30.0908
G01 X5.2322 Y30.0766
G01 X4.0789 Y28.8041
G01 X4.0629 Y28.7854
G01 X4.0509 Y28.7700
G01 X3.0278 Y27.3906
G01 X3.0138 Y27.3704
G01 X3.0033 Y27.3538
G01 X2.1204 Y25.8808
G01 X2.1084 Y25.8594
G01 X2.0996 Y25.8419
G01 X1.3653 Y24.2894
G01 X1.3555 Y24.2669
G01 X1.3484 Y24.2486
G01 X0.7698 Y22.6316
G01 X0.7622 Y22.6083
G01 X0.7570 Y22.5893
G01 X0.3397 Y20.9234
G01 X0.3345 Y20.8995
G01 X0.3311 Y20.8801
G01 X0.0791 Y19.1813
G01 X0.0762 Y19.1570
G01 X0.0748 Y19.1374
G01 X-0.0095 Y17.4221
G01 X-0.0100 Y17.3975
G01 X-0.0095 Y17.3779
G01 X0.0748 Y15.6626
G01 X0.0767 Y15.6382
G01 X0.0791 Y15.6187
G01 X0.3311 Y13.9199
G01 X0.3354 Y13.8957
G01 X0.3397 Y13.8766
G01 X0.7570 Y12.2107
G01 X0.7637 Y12.1871
G01 X0.7698 Y12.1684
G01 X1.3484 Y10.5514
G01 X1.3573 Y10.5286
G01 X1.3653 Y10.5106
G01 X2.0996 Y8.9581
G01 X2.1107 Y8.9363
G01 X2.1204 Y8.9192
G01 X3.0033 Y7.4462
G01 X3.0165 Y7.4255
G01 X3.0278 Y7.4094
G01 X4.0509 Y6.0300
G01 X4.0660 Y6.0108
G01 X4.0789 Y5.9959
G01 X5.2322 Y4.7234
G01 X5.2492 Y4.7057
G01 X5.2634 Y4.6922
G01 X6.5359 Y3.5389
G01 X6.5546 Y3.5229
G01 X6.5700 Y3.5109
G01 X7.9494 Y2.4878
G01 X7.9696 Y2.4738
G01 X7.9862 Y2.4633
G01 X9.4592 Y1.5804
G01 X9.4806 Y1.5684
G01 X9.4981 Y1.5596
G01 X11.0506 Y0.8253
G01 X11.0731 Y0.8155
G01 X11.0914 Y0.8084
G01 X12.7084 Y0.2298
G01 X12.7317 Y0.2222
G01 X12.7507 Y0.2170
G01 X14.4166 Y-0.2003
G01 X14.4405 Y-0.2055
G01 X14.4599 Y-0.2089
G01 X16.1587 Y-0.4609
G01 X16.1830 Y-0.4638
G01 X16.2026 Y-0.4652
G01 X17.9179 Y-0.5495
G01 X17.9425 Y-0.5500
G01 X17.9621 Y-0.5495
G01 X19.6774 Y-0.4652
G01 X19.7018 Y-0.4633
G01 X19.7213 Y-0.4609
G01 X21.4201 Y-0.2089
G01 X21.4443 Y-0.2046
G01 X21.4634 Y-0.2003
G01 X23.1293 Y0.2170
G01 X23.1529 Y0.2237
G01 X23.1716 Y0.2298
G00 X23.1716 Y0.2298
G01 F60.00
G01 Z-1.8000
G01 F100.00
G01 X24.7886 Y0.8084
G01 X24.8114 Y0.8173
G01 X24.8294 Y0.8253
G01 X26.3819 Y1.5596
G01 X26.4037 Y1.5707
G01 X26.4208 Y1.5804
G01 X27.8938 Y2.4633
G01 X27.9145 Y2.4765
G01 X27.9306 Y2.4878
G01 X29.3100 Y3.5109
G01 X29.3292 Y3.5260
G01 X29.3441 Y3.5389
G01 X30.6166 Y4.6922
G01 X30.6343 Y4.7092
G01 X30.6478 Y4.7234
G01 X31.8011 Y5.9959
G01 X31.8171 Y6.0146
G01 X31.8291 Y6.0300
G01 X32.8522 Y7.4094
G01 X32.8662 Y7.4296
G01 X32.8767 Y7.4462
G01 X33.7596 Y8.9192
G01 X33.7716 Y8.9406
G01 X33.7804 Y8.9581
G01 X34.5147 Y10.5106
G01 X34.5245 Y10.5331
G01 X34.5316 Y10.5514
G01 X35.1102 Y12.1684
G01 X35.1178 Y12.1917
G01 X35.1230 Y12.2107
G01 X35.5403 Y13.8766
G01 X35.5455 Y13.9005
G01 X35.5489 Y13.9199
G01 X35.8009 Y15.6187
G01 X35.8038 Y15.6430
G01 X35.8052 Y15.6626
G01 X35.8895 Y17.3779
G01 X35.8900 Y17.4025
G01 X35.8895 Y17.4221
G01 X35.8052 Y19.1374
G01 X35.8033 Y19.1618
G01 X35.8009 Y19.1813
G01 X35.5489 Y20.8801
G01 X35.5446 Y20.9043
G01 X35.5403 Y20.9234
G01 X35.1230 Y22.5893
G01 X35.1163 Y22.6129
G01 X35.1102 Y22.6316
G01 X34.5316 Y24.2486
G01 X34.5227 Y24.2714
G01 X34.5147 Y24.2894
G01 X33.7804 Y25.8419
G01 X33.7693 Y25.8637
G01 X33.7596 Y25.8808
G01 X32.8767 Y27.3538
G01 X32.8635 Y27.3745
G01 X32.8522 Y27.3906
G01 X31.8291 Y28.7700
G01 X31.8140 Y28.7892
G01 X31.8011 Y28.8041
G01 X30.6478 Y30.0766
G01 X30.6308 Y30.0943
G01 X30.6166 Y30.1078
G01 X29.3441 Y31.2611
G01 X29.3254 Y31.2771
G01 X29.3100 Y31.2891
G01 X27.9306 Y32.3122
G01 X27.9104 Y32.3262
G01 X27.8938 Y32.3367
G01 X26.4208 Y33.2196
G01 X26.3994 Y33.2316
G01 X26.3819 Y33.2404
G01 X24.8294 Y33.9747
G01 X24.8069 Y33.9845
G01 X24.7886 Y33.9916
G01 X23.1716 Y34.5702
G01 X23.1483 Y34.5778
G01 X23.1293 Y34.5830
G01 X21.4634 Y35.0003
G01 X21.4395 Y35.0055
G01 X21.4201 Y35.0089
G01 X19.7213 Y35.2609
G01 X19.6970 Y35.2638
G01 X19.6774 Y35.2652
G01 X17.9621 Y35.3495
G01 X17.9375 Y35.3500
G01 X17.9179 Y35.3495
G01 X16.2026 Y35.2652
G01 X16.1782 Y35.2633
G01 X16.1587 Y35.2609
G01 X14.4599 Y35.0089
G01 X14.4357 Y35.0046
G01 X14.4166 Y35.0003
G01 X12.7507 Y34.5830
G01 X12.7271 Y34.5763
G01 X12.7084 Y34.5702
G01 X11.0914 Y33.9916
G01 X11.0686 Y33.9827
G01 X11.0506 Y33.9747
G01 X9.4981 Y33.2404
G01 X9.4763 Y33.2293
G01 X9.4592 Y33.2196
G01 X7.9862 Y32.3367
G01 X7.9655 Y32.3235
G01 X7.9494 Y32.3122
G01 X6.5700 Y31.2891
G01 X6.5508 Y31.2740
G01 X6.5359 Y31.2611
G01 X5.2634 Y30.1078
G01 X5.2457 Y30.0908
G01 X5.2322 Y30.0766
G01 X4.0789 Y28.8041
G01 X4.0629 Y28.7854
G01 X4.0509 Y28.7700
G01 X3.0278 Y27.3906
G01 X3.0138 Y27.3704
G01 X3.0033 Y27.3538
G01 X2.1204 Y25.8808
G01 X2.1084 Y25.8594
G01 X2.0996 Y25.8419
G01 X1.3653 Y24.2894
G01 X1.3555 Y24.2669
G01 X1.3484 Y24.2486
G01 X0.7698 Y22.6316
G01 X0.7622 Y22.6083
G01 X0.7570 Y22.5893
G01 X0.3397 Y20.9234
G01 X0.3345 Y20.8995
G01 X0.3311 Y20.8801
G01 X0.0791 Y19.1813
G01 X0.0762 Y19.1570
G01 X0.0748 Y19.1374
G01 X-0.0095 Y17.4221
G01 X-0.0100 Y17.3975
G01 X-0.0095 Y17.3779
G01 X0.0748 Y15.6626
G01 X0.0767 Y15.6382
G01 X0.0791 Y15.6187
G01 X0.3311 Y13.9199
G01 X0.3354 Y13.8957
G01 X0.3397 Y13.8766
G01 X0.7570 Y12.2107
G01 X0.7637 Y12.1871
G01 X0.7698 Y12.1684
G01 X1.3484 Y10.5514
G01 X1.3573 Y10.5286
G01 X1.3653 Y10.5106
G01 X2.0996 Y8.9581
G01 X2.1107 Y8.9363
G01 X2.1204 Y8.9192
G01 X3.0033 Y7.4462
G01 X3.0165 Y7.4255
G01 X3.0278 Y7.4094
G01 X4.0509 Y6.0300
G01 X4.0660 Y6.0108
G01 X4.0789 Y5.9959
G01 X5.2322 Y4.7234
G01 X5.2492 Y4.7057
G01 X5.2634 Y4.6922
G01 X6.5359 Y3.5389
G01 X6.5546 Y3.5229
G01 X6.5700 Y3.5109
G01 X7.9494 Y2.4878
G01 X7.9696 Y2.4738
G01 X7.9862 Y2.4633
G01 X9.4592 Y1.5804
G01 X9.4806 Y1.5684
G01 X9.4981 Y1.5596
G01 X11.0506 Y0.8253
G01 X11.0731 Y0.8155
G01 X11.0914 Y0.8084
G01 X12.7084 Y0.2298
G01 X12.7317 Y0.2222
G01 X12.7507 Y0.2170
G01 X14.4166 Y-0.2003
G01 X14.4405 Y-0.2055
G01 X14.4599 Y-0.2089
G01 X16.1587 Y-0.4609
G01 X16.1830 Y-0.4638
G01 X16.2026 Y-0.4652
G01 X17.9179 Y-0.5495
G01 X17.9425 Y-0.5500
G01 X17.9621 Y-0.5495
G01 X19.6774 Y-0.4652
G01 X19.7018 Y-0.4633
G01 X19.7213 Y-0.4609
G01 X21.4201 Y-0.2089
G01 X21.4443 Y-0.2046
G01 X21.4634 Y-0.2003
G01 X23.1293 Y0.2170
G01 X23.1529 Y0.2237
G01 X23.1716 Y0.2298
G00 Z2.0000
G00 X34.9073 Y19.0711
G01 F60.00
G01 Z-0.9000
G01 F100.00
G01 X34.6618 Y20.7262
G01 X34.2553 Y22.3492
G01 X33.6916 Y23.9245
G01 X32.9763 Y25.4370
G01 X32.1161 Y26.8722
G01 X31.1194 Y28.2160
G01 X29.9958 Y29.4558
G01 X28.7560 Y30.5794
G01 X27.4122 Y31.5761
G01 X25.9770 Y32.4363
G01 X24.4645 Y33.1516
G01 X22.8892 Y33.7153
G01 X21.2662 Y34.1218
G01 X19.6111 Y34.3673
G01 X17.9400 Y34.4494
G01 X16.2689 Y34.3673
G01 X14.6138 Y34.1218
G01 X12.9908 Y33.7153
G01 X11.4155 Y33.1516
G01 X9.9030 Y32.4363
G01 X8.4678 Y31.5761
G01 X7.1240 Y30.5794
G01 X5.8842 Y29.4558
G01 X4.7606 Y28.2160
G01 X3.7639 Y26.8722
G01 X2.9037 Y25.4370
G01 X2.1884 Y23.9245
G01 X1.6247 Y22.3492
G01 X1.2182 Y20.7262
G01 X0.9727 Y19.0711
G01 X0.8906 Y17.4000
G01 X0.9727 Y15.7289
G01 X1.2182 Y14.0738
G01 X1.6247 Y12.4508
G01 X2.1884 Y10.8755
G01 X2.9037 Y9.3630
G01 X3.7639 Y7.9278
G01 X4.7606 Y6.5840
G01 X5.8842 Y5.3442
G01 X7.1240 Y4.2206
G01 X8.4678 Y3.2239
G01 X9.9030 Y2.3637
G01 X11.4155 Y1.6484
G01 X12.9908 Y1.0847
G01 X14.6138 Y0.6782
G01 X16.2689 Y0.4327
G01 X17.9400 Y0.3506
G01 X19.6111 Y0.4327
G01 X21.2662 Y0.6782
G01 X22.8892 Y1.0847
G01 X24.4645 Y1.6484
G01 X25.9770 Y2.3637
G01 X27.4122 Y3.2239
G01 X28.7560 Y4.2206
G01 X29.9958 Y5.3442
G01 X31.1194 Y6.5840
G01 X32.1161 Y7.9278
G01 X32.9763 Y9.3630
G01 X33.6916 Y10.8755
G01 X34.2553 Y12.4508
G01 X34.6618 Y14.0738
G01 X34.9073 Y15.7289
G01 X34.9894 Y17.4000
G01 X34.9073 Y19.0711
G00 X34.9073 Y19.0711
G01 F60.00
G01 Z-1.8000
G01 F100.00
G01 X34.6618 Y20.7262
G01 X34.2553 Y22.3492
G01 X33.6916 Y23.9245
G01 X32.9763 Y25.4370
G01 X32.1161 Y26.8722
G01 X31.1194 Y28.2160
G01 X29.9958 Y29.4558
G01 X28.7560 Y30.5794
G01 X27.4122 Y31.5761
G01 X25.9770 Y32.4363
G01 X24.4645 Y33.1516
G01 X22.8892 Y33.7153
G01 X21.2662 Y34.1218
G01 X19.6111 Y34.3673
G01 X17.9400 Y34.4494
G01 X16.2689 Y34.3673
G01 X14.6138 Y34.1218
G01 X12.9908 Y33.7153
G01 X11.4155 Y33.1516
G01 X9.9030 Y32.4363
G01 X8.4678 Y31.5761
G01 X7.1240 Y30.5794
G01 X5.8842 Y29.4558
G01 X4.7606 Y28.2160
G01 X3.7639 Y26.8722
G01 X2.9037 Y25.4370
G01 X2.1884 Y23.9245
G01 X1.6247 Y22.3492
G01 X1.2182 Y20.7262
G01 X0.9727 Y19.0711
G01 X0.8906 Y17.4000
G01 X0.9727 Y15.7289
G01 X1.2182 Y14.0738
G01 X1.6247 Y12.4508
G01 X2.1884 Y10.8755
G01 X2.9037 Y9.3630
G01 X3.7639 Y7.9278
G01 X4.7606 Y6.5840
G01 X5.8842 Y5.3442
G01 X7.1240 Y4.2206
G01 X8.4678 Y3.2239
G01 X9.9030 Y2.3637
G01 X11.4155 Y1.6484
G01 X12.9908 Y1.0847
G01 X14.6138 Y0.6782
G01 X16.2689 Y0.4327
G01 X17.9400 Y0.3506
G01 X19.6111 Y0.4327
G01 X21.2662 Y0.6782
G01 X22.8892 Y1.0847
G01 X24.4645 Y1.6484
G01 X25.9770 Y2.3637
G01 X27.4122 Y3.2239
G01 X28.7560 Y4.2206
G01 X29.9958 Y5.3442
G01 X31.1194 Y6.5840
G01 X32.1161 Y7.9278
G01 X32.9763 Y9.3630
G01 X33.6916 Y10.8755
G01 X34.2553 Y12.4508
G01 X34.6618 Y14.0738
G01 X34.9073 Y15.7289
G01 X34.9894 Y17.4000
G01 X34.9073 Y19.0711
G00 Z2.0000
M05
G00 Z2.0000
G00 Z2.00
G00 X0.0 Y0.0

